; generated by PrusaSlicer 2.9.1 on 2026-04-04 at 18:40:59 UTC

; 

; external perimeters extrusion width = 0.70mm
; perimeters extrusion width = 0.70mm
; infill extrusion width = 0.70mm
; solid infill extrusion width = 0.70mm
; top infill extrusion width = 0.70mm
; first layer extrusion width = 0.70mm

M190 S40 ; set bed temperature and wait for it to be reached
M104 S230 ; set temperature
;TYPE:Custom
G28 ; home all axes
G1 Z5 F5000 ; lift nozzle
M109 S230 ; set temperature and wait for it to be reached
G21 ; set units to millimeters
G90 ; use absolute coordinates
M82 ; use absolute distances for extrusion
G92 E0
; Filament gcode
M107
;LAYER_CHANGE
;Z:0.25
;HEIGHT:0.25
G1 E-2 F2400
G92 E0
G1 Z.25 F9600
G1 X81.693 Y68.045
G1 E2 F2400
;TYPE:Skirt/Brim
;WIDTH:0.7
G1 F1800
G1 X83.184 Y66.558 E2.14147
G1 X84.592 Y65.467 E2.26113
G1 X85.829 Y64.702 E2.35884
G1 X87.736 Y63.809 E2.5003
G1 X117.455 Y53.986 E4.60306
G1 X119.201 Y53.503 E4.72476
G1 X120.614 Y53.27 E4.82097
G1 X122.296 Y53.162 E4.9342
G1 X149.237 Y52.842 E6.74423
G1 X150.688 Y52.938 E6.84192
G1 X152.115 Y53.166 E6.939
G1 X154.457 Y53.856 E7.10302
G1 X156.717 Y54.937 E7.27132
G1 X158.783 Y56.377 E7.4405
G1 X178.047 Y73.483 E9.17124
G1 X179.398 Y75.098 E9.31269
G1 X180.516 Y76.882 E9.45413
G1 X181.267 Y78.498 E9.57384
G1 X181.905 Y80.505 E9.71532
G1 X182.264 Y82.579 E9.85672
G1 X182.346 Y84.445 E9.9822
G1 X182.112 Y86.853 E10.14473
G1 X181.696 Y88.61 E10.26603
G1 X171.142 Y123.571 E12.7194
G1 X170.494 Y125.231 E12.83911
G1 X169.855 Y126.466 E12.93253
G1 X169.073 Y127.691 E13.03016
G1 X168.012 Y129.027 E13.14477
G1 X149.073 Y148.746 E14.98154
G1 X147.404 Y150.232 E15.13167
G1 X120.562 Y168.012 E17.29465
G1 X119.053 Y168.808 E17.40926
G1 X117.705 Y169.351 E17.50689
G1 X116.321 Y169.764 E17.60392
G1 X114.957 Y170.035 E17.69734
G1 X112.858 Y170.211 E17.83885
G1 X110.358 Y170.046 E18.00717
G1 X108.223 Y169.574 E18.15406
G1 X106.255 Y168.84 E18.29517
G1 X67.947 Y149.219 E21.18664
G1 X66.188 Y148.109 E21.32637
G1 X64.811 Y146.979 E21.44604
G1 X63.365 Y145.448 E21.58752
G1 X62.141 Y143.735 E21.72896
G1 X61.285 Y142.147 E21.85015
G1 X60.614 Y140.442 E21.97324
G1 X60.098 Y138.401 E22.11467
G1 X59.886 Y136.701 E22.22976
G1 X59.889 Y134.527 E22.37581
G1 X60.175 Y132.486 E22.51426
G1 X67.785 Y98.022 E24.88533
G1 X68.157 Y96.602 E24.98395
G1 X68.75 Y95.018 E25.09758
G1 X79.372 Y71.587 E26.82587
G1 X80.42 Y69.722 E26.96959
G1 X81.657 Y68.093 E27.107
G1 X82.171 Y68.484 F9600
G1 F1800
G1 X82.186 Y68.464 E27.10868
G1 X83.614 Y67.04 E27.24416
G1 X84.951 Y66.005 E27.35775
G1 X86.15 Y65.264 E27.45244
G1 X87.977 Y64.409 E27.58795
G1 X117.657 Y54.6 E29.68793
G1 X119.335 Y54.136 E29.80489
G1 X120.681 Y53.913 E29.89655
G1 X122.304 Y53.808 E30.00581
G1 X149.217 Y53.488 E31.81396
G1 X150.623 Y53.581 E31.90862
G1 X151.981 Y53.798 E32.00101
G1 X154.219 Y54.456 E32.15772
G1 X156.399 Y55.5 E32.3201
G1 X158.372 Y56.876 E32.4817
G1 X177.586 Y73.937 E34.20793
G1 X178.88 Y75.485 E34.34347
G1 X179.951 Y77.195 E34.47902
G1 X180.662 Y78.728 E34.59254
G1 X181.275 Y80.65 E34.72807
G1 X181.62 Y82.638 E34.86362
G1 X181.699 Y84.435 E34.98446
G1 X181.477 Y86.733 E35.13956
G1 X181.077 Y88.423 E35.25623
G1 X170.53 Y123.363 E37.70812
G1 X169.907 Y124.959 E37.82322
G1 X169.299 Y126.137 E37.91228
G1 X168.54 Y127.325 E38.00699
G1 X167.535 Y128.592 E38.11563
G1 X148.607 Y148.298 E39.95126
G1 X147.059 Y149.682 E40.09076
G1 X120.563 Y167.252 E42.22657
G1 X119.339 Y167.952 E42.3213
G1 X117.861 Y168.607 E42.42991
G1 X116.52 Y169.043 E42.52464
G1 X115.465 Y169.291 E42.59745
G1 X113.865 Y169.515 E42.70599
G1 X112.857 Y169.565 E42.77379
G1 X110.842 Y169.459 E42.90935
G1 X108.755 Y169.053 E43.05218
G1 X106.514 Y168.247 E43.21217
G1 X68.247 Y148.647 E46.10055
G1 X66.562 Y147.582 E46.23446
G1 X65.256 Y146.51 E46.34797
G1 X63.87 Y145.044 E46.4835
G1 X62.696 Y143.403 E46.61905
G1 X61.872 Y141.875 E46.73568
G1 X61.226 Y140.233 E46.85422
G1 X60.732 Y138.277 E46.98975
G1 X60.531 Y136.665 E47.09888
G1 X60.533 Y134.582 E47.23882
G1 X60.806 Y132.626 E47.3715
G1 X68.416 Y98.162 E49.74257
G1 X68.776 Y96.787 E49.83806
G1 X69.338 Y95.285 E49.9458
G1 X79.959 Y71.857 E51.67388
G1 X80.964 Y70.07 E51.81161
G1 X82.134 Y68.532 E51.94143
G1 X82.648 Y68.923 F9600
G1 F1800
G1 X82.678 Y68.883 E51.94479
G1 X84.045 Y67.522 E52.07438
G1 X85.309 Y66.543 E52.18179
G1 X86.471 Y65.825 E52.27355
G1 X88.219 Y65.008 E52.40317
G1 X117.86 Y55.214 E54.50035
G1 X119.47 Y54.768 E54.61258
G1 X120.749 Y54.556 E54.69968
G1 X122.312 Y54.455 E54.8049
G1 X149.196 Y54.134 E56.6111
G1 X150.559 Y54.224 E56.70287
G1 X151.846 Y54.43 E56.79043
G1 X153.98 Y55.057 E56.93985
G1 X156.081 Y56.062 E57.09631
G1 X157.962 Y57.375 E57.25042
G1 X177.126 Y74.391 E58.97213
G1 X178.362 Y75.872 E59.10172
G1 X179.385 Y77.507 E59.23129
G1 X180.058 Y78.958 E59.33874
G1 X180.645 Y80.795 E59.4683
G1 X180.977 Y82.696 E59.59794
G1 X181.053 Y84.426 E59.71427
G1 X180.842 Y86.612 E59.86181
G1 X180.458 Y88.237 E59.97398
G1 X169.918 Y123.155 E62.42432
G1 X169.321 Y124.687 E62.53478
G1 X168.743 Y125.808 E62.61951
G1 X168.008 Y126.958 E62.7112
G1 X167.057 Y128.156 E62.81396
G1 X148.141 Y147.85 E64.64845
G1 X146.663 Y149.171 E64.78162
G1 X120.223 Y166.702 E66.91284
G1 X119.038 Y167.38 E67.00456
G1 X117.64 Y167.999 E67.10727
G1 X115.332 Y168.658 E67.26852
G1 X113.819 Y168.87 E67.37116
G1 X112.855 Y168.919 E67.43601
G1 X110.929 Y168.819 E67.56557
G1 X108.931 Y168.431 E67.7023
G1 X106.773 Y167.655 E67.85636
G1 X68.548 Y148.075 E70.74161
G1 X66.936 Y147.055 E70.86976
G1 X65.7 Y146.041 E70.97716
G1 X64.374 Y144.64 E71.10675
G1 X63.251 Y143.071 E71.23637
G1 X62.458 Y141.603 E71.34846
G1 X61.838 Y140.024 E71.46242
G1 X61.366 Y138.153 E71.59205
G1 X61.177 Y136.63 E71.69515
G1 X61.177 Y134.637 E71.82904
G1 X61.437 Y132.765 E71.95601
G1 X69.047 Y98.301 E74.32708
G1 X69.396 Y96.973 E74.41932
G1 X69.927 Y95.552 E74.52123
G1 X80.546 Y72.127 E76.24907
G1 X81.509 Y70.418 E76.38085
G1 X82.611 Y68.97 E76.50309
G1 X83.144 Y69.393 F9600
G1 F1800
G1 X83.521 Y68.917 E76.54388
G1 X84.713 Y67.801 E76.65358
G1 X85.667 Y67.081 E76.73387
G1 X86.792 Y66.386 E76.82271
G1 X88.46 Y65.608 E76.94636
G1 X118.062 Y55.827 E79.04077
G1 X119.604 Y55.4 E79.14826
G1 X120.817 Y55.199 E79.23086
G1 X122.32 Y55.101 E79.33205
G1 X149.176 Y54.78 E81.13637
G1 X150.494 Y54.867 E81.22511
G1 X151.712 Y55.062 E81.30798
G1 X153.741 Y55.658 E81.45005
G1 X155.762 Y56.625 E81.60056
G1 X157.551 Y57.875 E81.74718
G1 X176.666 Y74.844 E83.46433
G1 X177.844 Y76.258 E83.58797
G1 X178.819 Y77.82 E83.71167
G1 X179.454 Y79.187 E83.81293
G1 X180.016 Y80.941 E83.93666
G1 X180.333 Y82.754 E84.06031
G1 X180.407 Y84.416 E84.17207
G1 X180.207 Y86.491 E84.31211
G1 X179.84 Y88.05 E84.41971
G1 X169.306 Y122.947 E86.86858
G1 X168.734 Y124.415 E86.97442
G1 X168.186 Y125.478 E87.05476
G1 X167.475 Y126.592 E87.14354
G1 X166.309 Y128.017 E87.26724
G1 X147.675 Y147.402 E89.07363
G1 X146.268 Y148.66 E89.20042
G1 X119.883 Y166.152 E91.32712
G1 X118.736 Y166.808 E91.41589
G1 X117.419 Y167.392 E91.51267
G1 X115.199 Y168.026 E91.66777
G1 X112.854 Y168.272 E91.82617
G1 X111.015 Y168.178 E91.94988
G1 X109.108 Y167.809 E92.08037
G1 X107.032 Y167.063 E92.22857
G1 X68.848 Y147.502 E95.11079
G1 X67.31 Y146.528 E95.23309
G1 X66.145 Y145.571 E95.33438
G1 X65.217 Y144.63 E95.42317
G1 X64.088 Y143.177 E95.54679
G1 X63.348 Y141.94 E95.64363
G1 X62.762 Y140.677 E95.73717
G1 X62.194 Y138.93 E95.86058
G1 X61.919 Y137.516 E95.95735
G1 X61.798 Y136.162 E96.04867
G1 X61.821 Y134.692 E96.14744
G1 X62.068 Y132.904 E96.2687
G1 X69.69 Y98.388 E98.64336
G1 X70.015 Y97.158 E98.72883
G1 X70.516 Y95.819 E98.82487
G1 X81.134 Y72.398 E100.55244
G1 X82.054 Y70.766 E100.6783
G1 X83.106 Y69.44 E100.79201
G1 X83.61 Y69.839 F9600
G1 F1800
G1 X83.983 Y69.369 E100.83232
G1 X85.123 Y68.3 E100.93731
G1 X86.026 Y67.618 E101.01333
G1 X87.112 Y66.947 E101.09909
G1 X88.701 Y66.207 E101.21685
G1 X118.265 Y56.441 E103.30852
G1 X119.739 Y56.032 E103.41129
G1 X120.884 Y55.842 E103.48926
G1 X122.328 Y55.747 E103.58648
G1 X149.155 Y55.426 E105.38885
G1 X150.43 Y55.51 E105.47469
G1 X151.578 Y55.695 E105.55281
G1 X153.503 Y56.258 E105.68755
G1 X155.444 Y57.188 E105.83214
G1 X157.141 Y58.374 E105.97123
G1 X176.205 Y75.298 E107.68381
G1 X177.326 Y76.645 E107.80154
G1 X178.253 Y78.133 E107.91932
G1 X178.85 Y79.417 E108.01445
G1 X179.386 Y81.086 E108.13221
G1 X179.689 Y82.812 E108.24994
G1 X179.761 Y84.406 E108.35713
G1 X179.572 Y86.371 E108.48975
G1 X179.221 Y87.863 E108.59272
G1 X168.694 Y122.739 E111.0401
G1 X168.148 Y124.144 E111.14136
G1 X167.63 Y125.149 E111.21732
G1 X166.942 Y126.226 E111.30318
G1 X165.832 Y127.581 E111.42085
G1 X147.209 Y146.954 E113.22615
G1 X145.873 Y148.148 E113.34652
G1 X119.544 Y165.602 E115.46867
G1 X118.435 Y166.236 E115.55449
G1 X117.198 Y166.784 E115.64538
G1 X115.066 Y167.393 E115.79434
G1 X112.852 Y167.626 E115.9439
G1 X111.102 Y167.538 E116.06161
G1 X109.284 Y167.187 E116.186
G1 X107.291 Y166.471 E116.32827
G1 X69.148 Y146.93 E119.20743
G1 X67.685 Y146.001 E119.32386
G1 X66.59 Y145.102 E119.41904
G1 X65.693 Y144.192 E119.50488
G1 X64.619 Y142.808 E119.62257
G1 X63.925 Y141.647 E119.71344
G1 X63.358 Y140.427 E119.80382
G1 X62.819 Y138.763 E119.92133
G1 X62.56 Y137.436 E120.01216
G1 X62.443 Y136.127 E120.10045
G1 X62.465 Y134.748 E120.1931
G1 X62.699 Y133.044 E120.30865
G1 X70.402 Y98.171 E122.7079
G1 X71.105 Y96.086 E122.85572
G1 X81.721 Y72.668 E124.58305
G1 X82.599 Y71.113 E124.70302
G1 X83.573 Y69.886 E124.80826
G1 X84.076 Y70.286 F9600
G1 F1800
G1 X84.446 Y69.82 E124.84823
G1 X85.337 Y68.968 E124.93105
G1 X86.384 Y68.156 E125.02006
G1 X87.433 Y67.508 E125.10289
G1 X88.943 Y66.807 E125.21473
G1 X118.467 Y57.055 E127.30356
G1 X119.934 Y56.652 E127.40576
G1 X120.952 Y56.484 E127.47507
G1 X122.335 Y56.394 E127.56818
G1 X149.134 Y56.072 E129.36867
G1 X151.188 Y56.278 E129.50735
G1 X153.264 Y56.859 E129.65218
G1 X155.126 Y57.75 E129.79085
G1 X156.905 Y59.022 E129.93777
G1 X175.745 Y75.752 E131.63044
G1 X176.808 Y77.032 E131.74222
G1 X177.688 Y78.445 E131.85405
G1 X178.388 Y80.022 E131.96996
G1 X178.846 Y81.622 E132.08177
G1 X179.082 Y83.269 E132.19355
G1 X179.106 Y84.629 E132.28493
G1 X178.937 Y86.25 E132.39442
G1 X178.602 Y87.677 E132.49289
G1 X168.083 Y122.53 E134.93864
G1 X167.561 Y123.872 E135.03538
G1 X167.074 Y124.82 E135.10698
G1 X166.41 Y125.86 E135.18987
G1 X165.354 Y127.146 E135.30166
G1 X146.743 Y146.506 E137.10577
G1 X145.477 Y147.637 E137.21982
G1 X119.204 Y165.053 E139.33742
G1 X118.133 Y165.665 E139.42029
G1 X116.977 Y166.177 E139.50523
G1 X114.933 Y166.761 E139.64804
G1 X112.851 Y166.98 E139.78868
G1 X111.188 Y166.897 E139.90054
G1 X109.46 Y166.565 E140.01875
G1 X107.55 Y165.879 E140.15509
G1 X69.776 Y146.529 E143.00633
G1 X68.385 Y145.706 E143.11491
G1 X67.034 Y144.633 E143.23081
G1 X65.887 Y143.427 E143.34262
G1 X65.149 Y142.439 E143.42547
G1 X64.501 Y141.354 E143.51037
G1 X63.954 Y140.177 E143.59756
G1 X63.443 Y138.597 E143.70912
G1 X63.201 Y137.356 E143.79406
G1 X63.089 Y136.091 E143.87938
G1 X63.143 Y134.403 E143.99284
G1 X63.33 Y133.183 E144.07576
G1 X71.032 Y98.315 E146.47467
G1 X71.693 Y96.353 E146.61376
G1 X82.308 Y72.938 E148.34088
G1 X83.143 Y71.461 E148.45486
G1 X84.039 Y70.333 E148.55164
G1 E146.55164 F2400
G92 E0
G92 E0
G1 X75.641 Y130.428 F9600
G1 E2 F2400
;TYPE:External perimeter
;WIDTH:0.471516
G1 F1800
G1 X75.657 Y130.428 E2.00069
;WIDTH:0.459015
G1 X76.414 Y130.538 E2.03292
G1 X77.153 Y130.762 E2.06546
;WIDTH:0.460385
G1 X77.852 Y131.09 E2.0981
G1 X78.494 Y131.519 E2.13074
;WIDTH:0.462262
G1 X79.068 Y132.037 E2.16358
;WIDTH:0.462867
G1 X79.558 Y132.634 E2.19643
;WIDTH:0.463492
G1 X79.954 Y133.297 E2.22933
;WIDTH:0.466904
G1 X80.23 Y133.962 E2.26026
;WIDTH:0.46772
G1 X80.417 Y134.679 E2.29215
;WIDTH:0.469271
G1 X80.498 Y135.384 E2.32281
;WIDTH:0.470352
G1 X80.483 Y136.093 E2.35352
;WIDTH:0.470699
G1 X80.366 Y136.824 E2.38561
;WIDTH:0.471231
G1 X80.169 Y137.473 E2.41505
G1 X79.846 Y138.173 E2.44851
;WIDTH:0.471354
G1 X79.48 Y138.744 E2.47796
G1 X79 Y139.307 E2.51008
;WIDTH:0.471175
G1 X78.47 Y139.778 E2.54085
;WIDTH:0.470532
G1 X78.044 Y140.081 E2.5635
;WIDTH:0.460153
G1 X77.36 Y140.44 E2.59614
;WIDTH:0.462248
G1 X76.631 Y140.695 E2.62894
;WIDTH:0.463111
G1 X75.872 Y140.84 E2.66183
;WIDTH:0.464135
G1 X75.1 Y140.871 E2.69479
;WIDTH:0.466884
G1 X74.395 Y140.796 E2.72524
G1 X73.645 Y140.61 E2.75843
;WIDTH:0.469376
G1 X72.874 Y140.287 E2.79455
;WIDTH:0.470004
G1 X72.375 Y139.986 E2.81977
;WIDTH:0.470227
G1 X71.791 Y139.532 E2.8518
;WIDTH:0.471358
G1 X71.317 Y139.046 E2.88127
;WIDTH:0.471503
G1 X70.876 Y138.451 E2.91344
G1 X70.536 Y137.829 E2.94423
G1 X70.283 Y137.167 E2.97501
;WIDTH:0.47107
G1 X70.154 Y136.684 E2.9967
;WIDTH:0.460147
G1 X70.058 Y135.947 E3.0281
;WIDTH:0.461451
G1 X70.073 Y135.145 E3.0621
G1 X70.195 Y134.413 E3.09355
;WIDTH:0.464156
G1 X70.443 Y133.649 E3.12782
;WIDTH:0.464557
G1 X70.773 Y132.984 E3.15953
;WIDTH:0.466488
G1 X71.188 Y132.383 E3.19087
;WIDTH:0.467483
G1 X71.691 Y131.839 E3.22274
;WIDTH:0.469036
G1 X72.24 Y131.391 E3.25333
;WIDTH:0.469544
G1 X72.872 Y131.005 E3.28534
;WIDTH:0.470655
G1 X73.523 Y130.723 E3.31609
;WIDTH:0.47102
G1 X74.176 Y130.538 E3.34553
;WIDTH:0.471516
G1 X74.947 Y130.431 E3.37934
G1 X75.581 Y130.428 E3.40688
G1 X75.978 Y130.476 F9600
G1 X75.655 Y130.028
;WIDTH:0.471447
G1 F1800
G1 X76.075 Y130.06 E3.42517
G1 X76.827 Y130.22 E3.45856
;WIDTH:0.471005
G1 X77.578 Y130.493 E3.49322
;WIDTH:0.470531
G1 X78.231 Y130.837 E3.5252
;WIDTH:0.468805
G1 X78.905 Y131.323 E3.56106
;WIDTH:0.468645
G1 X79.438 Y131.831 E3.59282
;WIDTH:0.466561
G1 X79.936 Y132.458 E3.62718
;WIDTH:0.465502
G1 X80.348 Y133.167 E3.66228
;WIDTH:0.464149
G1 X80.653 Y133.94 E3.69774
;WIDTH:0.461742
G1 X80.844 Y134.749 E3.733
;WIDTH:0.469271
G1 X80.912 Y135.368 E3.7599
G1 X80.913 Y135.576 E3.76889
;WIDTH:0.460133
G1 X80.86 Y136.404 E3.80394
;WIDTH:0.470699
G1 X80.77 Y136.927 E3.82694
;WIDTH:0.471231
G1 X80.555 Y137.632 E3.85893
G1 X80.205 Y138.386 E3.89501
;WIDTH:0.471354
G1 X79.806 Y139.005 E3.92698
G1 X79.284 Y139.612 E3.96174
;WIDTH:0.471175
G1 X78.708 Y140.12 E3.99507
;WIDTH:0.470532
G1 X78.067 Y140.545 E4.02839
;WIDTH:0.469419
G1 X77.346 Y140.891 E4.06295
;WIDTH:0.468768
G1 X76.644 Y141.117 E4.09477
;WIDTH:0.465954
G1 X75.855 Y141.256 E4.1291
;WIDTH:0.465231
G1 X75.026 Y141.278 E4.16458
;WIDTH:0.464211
G1 X74.202 Y141.176 E4.20001
;WIDTH:0.461642
G1 X73.4 Y140.958 E4.23525
G1 X72.641 Y140.622 E4.27045
;WIDTH:0.459602
G1 X71.938 Y140.179 E4.30551
;WIDTH:0.460017
G1 X71.349 Y139.682 E4.33806
;WIDTH:0.471358
G1 X70.993 Y139.308 E4.36048
;WIDTH:0.471523
G1 X70.517 Y138.665 E4.39523
G1 X70.15 Y137.99 E4.4286
G1 X69.879 Y137.27 E4.46201
;WIDTH:0.47107
G1 X69.703 Y136.49 E4.4967
;WIDTH:0.470752
G1 X69.64 Y135.756 E4.52864
;WIDTH:0.469228
G1 X69.679 Y134.956 E4.56324
;WIDTH:0.468043
G1 X69.832 Y134.172 E4.59764
;WIDTH:0.46788
G1 X70.085 Y133.437 E4.63111
;WIDTH:0.465392
G1 X70.451 Y132.724 E4.66541
;WIDTH:0.463921
G1 X70.934 Y132.049 E4.7008
;WIDTH:0.461975
G1 X71.51 Y131.45 E4.73607
;WIDTH:0.461465
G1 X72.169 Y130.943 E4.77131
;WIDTH:0.459969
G1 X72.893 Y130.537 E4.80637
;WIDTH:0.459728
G1 X73.669 Y130.243 E4.84139
;WIDTH:0.459428
G1 X74.48 Y130.068 E4.87638
;WIDTH:0.463712
G1 X75.307 Y130.001 E4.91174
;WIDTH:0.471447
G1 X75.595 Y130.023 E4.92428
G1 X75.994 Y130.053 F9600
G1 E2.92428 F2400
G92 E0
G92 E0
G1 X112.982 Y149.569 F9600
G1 E2 F2400
;WIDTH:0.471516
G1 F1800
G1 X112.999 Y149.569 E2.00074
;WIDTH:0.459015
G1 X113.755 Y149.68 E2.03293
G1 X114.495 Y149.903 E2.06549
;WIDTH:0.460385
G1 X115.194 Y150.231 E2.09813
G1 X115.836 Y150.661 E2.1308
;WIDTH:0.462262
G1 X116.409 Y151.178 E2.16358
;WIDTH:0.462867
G1 X116.899 Y151.776 E2.19646
;WIDTH:0.463492
G1 X117.296 Y152.439 E2.22938
;WIDTH:0.466904
G1 X117.572 Y153.103 E2.26027
;WIDTH:0.46772
G1 X117.758 Y153.82 E2.29215
;WIDTH:0.469271
G1 X117.839 Y154.525 E2.32281
;WIDTH:0.470352
G1 X117.824 Y155.234 E2.35352
;WIDTH:0.470699
G1 X117.708 Y155.966 E2.38565
;WIDTH:0.471231
G1 X117.511 Y156.614 E2.41505
G1 X117.188 Y157.314 E2.44851
;WIDTH:0.471354
G1 X116.822 Y157.885 E2.47796
