; generated by PrusaSlicer 2.9.1 on 2026-04-04 at 16:01:00 UTC

; 

; external perimeters extrusion width = 0.70mm
; perimeters extrusion width = 0.70mm
; infill extrusion width = 0.70mm
; solid infill extrusion width = 0.70mm
; top infill extrusion width = 0.70mm
; first layer extrusion width = 0.70mm

M190 S40 ; set bed temperature and wait for it to be reached
M104 S230 ; set temperature
;TYPE:Custom
G28 ; home all axes
G1 Z5 F5000 ; lift nozzle
M109 S230 ; set temperature and wait for it to be reached
G21 ; set units to millimeters
G90 ; use absolute coordinates
M82 ; use absolute distances for extrusion
G92 E0
; Filament gcode
M107
;LAYER_CHANGE
;Z:0.25
;HEIGHT:0.25
G1 E-2 F2400
G92 E0
G1 Z.25 F9600
G1 X67.805 Y52.586
G1 E2 F2400
;TYPE:Skirt/Brim
;WIDTH:0.7
G1 F1800
G1 X68.727 Y51.427 E2.09949
G1 X69.661 Y50.445 E2.19054
G1 X71.596 Y48.848 E2.35909
G1 X72.717 Y48.131 E2.44849
G1 X74.053 Y47.435 E2.54969
G1 X76.223 Y46.615 E2.70553
G1 X77.723 Y46.248 E2.80927
G1 X79.001 Y46.054 E2.89611
G1 X81.509 Y45.973 E3.06469
G1 X82.859 Y46.093 E3.15574
G1 X84.728 Y46.454 E3.28362
G1 X86.172 Y46.897 E3.38509
G1 X87.686 Y47.528 E3.49528
G1 X149.393 Y77.124 E8.09292
G1 X150.839 Y77.914 E8.20361
G1 X152.064 Y78.747 E8.30313
G1 X153.815 Y80.27 E8.45903
G1 X155.303 Y81.995 E8.61207
G1 X186.236 Y123.786 E12.10501
G1 X187.56 Y125.892 E12.27213
G1 X188.549 Y128.198 E12.44069
G1 X189.12 Y130.382 E12.59234
G1 X192.115 Y151.841 E14.04793
G1 X192.152 Y154.161 E14.20381
G1 X191.827 Y156.586 E14.36818
G1 X191.311 Y158.449 E14.49805
G1 X190.411 Y160.562 E14.65234
G1 X189.448 Y162.191 E14.77947
G1 X188.525 Y163.429 E14.88321
G1 X187.619 Y164.437 E14.97426
G1 X186.209 Y165.716 E15.10215
G1 X156.786 Y188.066 E17.5844
G1 X155.547 Y188.921 E17.68553
G1 X154.2 Y189.675 E17.78923
G1 X152.962 Y190.227 E17.88029
G1 X151.186 Y190.812 E18.00591
G1 X149.292 Y191.196 E18.13574
G1 X147.754 Y191.336 E18.23949
G1 X145.885 Y191.305 E18.36507
G1 X144.539 Y191.147 E18.45612
G1 X143.028 Y190.829 E18.55985
G1 X141.193 Y190.228 E18.68957
G1 X139.496 Y189.438 E18.81532
G1 X137.853 Y188.421 E18.94513
G1 X123.534 Y177.736 E20.14539
G1 X122.571 Y176.946 E20.22907
G1 X60.47 Y121.232 E25.83392
G1 X59.547 Y120.326 E25.92081
G1 X58.546 Y119.15 E26.02456
G1 X57.764 Y118.043 E26.11561
G1 X56.991 Y116.706 E26.21936
G1 X56.433 Y115.504 E26.30839
G1 X55.921 Y114.082 E26.40992
G1 X55.401 Y111.821 E26.56578
G1 X55.214 Y109.33 E26.7336
G1 X55.382 Y107.068 E26.88598
G1 X65.129 Y58.625 E30.20561
G1 X65.619 Y56.837 E30.33016
G1 X66.587 Y54.561 E30.49632
G1 X67.774 Y52.637 E30.64819
G1 X68.323 Y52.976 F9600
G1 F1800
G1 X68.334 Y52.958 E30.64961
G1 X69.209 Y51.858 E30.74404
G1 X70.115 Y50.904 E30.83243
G1 X71.961 Y49.382 E30.99316
G1 X73.049 Y48.686 E31.07993
G1 X74.317 Y48.025 E31.17599
G1 X76.415 Y47.233 E31.32664
G1 X77.838 Y46.884 E31.42507
G1 X79.08 Y46.695 E31.50947
G1 X81.471 Y46.618 E31.67018
G1 X82.782 Y46.735 E31.7586
G1 X84.574 Y47.082 E31.88122
G1 X85.946 Y47.502 E31.97761
G1 X87.406 Y48.111 E32.08388
G1 X149.114 Y77.707 E36.68158
G1 X150.508 Y78.469 E36.78831
G1 X151.67 Y79.26 E36.88274
G1 X153.362 Y80.731 E37.03336
G1 X154.784 Y82.38 E37.17964
G1 X185.716 Y124.17 E40.67249
G1 X186.991 Y126.2 E40.83353
G1 X187.935 Y128.398 E40.99423
G1 X188.487 Y130.509 E41.14082
G1 X191.47 Y151.891 E42.59118
G1 X191.506 Y154.133 E42.74182
G1 X191.196 Y156.444 E42.89846
G1 X190.703 Y158.231 E43.023
G1 X189.833 Y160.273 E43.17211
G1 X188.908 Y161.837 E43.29418
G1 X188.031 Y163.012 E43.39268
G1 X187.152 Y163.991 E43.48107
G1 X185.798 Y165.217 E43.60378
G1 X156.395 Y187.551 E46.08431
G1 X155.198 Y188.377 E46.18201
G1 X153.919 Y189.093 E46.28048
G1 X152.717 Y189.629 E46.3689
G1 X151.012 Y190.19 E46.48948
G1 X149.195 Y190.557 E46.61401
G1 X147.735 Y190.69 E46.7125
G1 X145.941 Y190.661 E46.83304
G1 X144.634 Y190.508 E46.92144
G1 X143.199 Y190.205 E47.01997
G1 X141.438 Y189.63 E47.14442
G1 X139.81 Y188.873 E47.26503
G1 X138.233 Y187.898 E47.38959
G1 X123.921 Y177.218 E48.58927
G1 X123.002 Y176.464 E48.66913
G1 X60.909 Y120.758 E54.27323
G1 X60.013 Y119.877 E54.35765
G1 X59.062 Y118.761 E54.45615
G1 X58.303 Y117.687 E54.5445
G1 X57.569 Y116.417 E54.64304
G1 X57.027 Y115.25 E54.72948
G1 X56.541 Y113.9 E54.82587
G1 X56.039 Y111.715 E54.97648
G1 X55.86 Y109.34 E55.13649
G1 X56.023 Y107.153 E55.28382
G1 X65.762 Y58.753 E58.60052
G1 X66.233 Y57.037 E58.72006
G1 X67.157 Y54.867 E58.87851
G1 X68.291 Y53.027 E59.02371
G1 X68.84 Y53.366 F9600
G1 F1800
G1 X68.862 Y53.33 E59.02654
G1 X69.691 Y52.289 E59.11594
G1 X70.57 Y51.363 E59.20171
G1 X72.325 Y49.916 E59.35452
G1 X73.38 Y49.241 E59.43866
G1 X74.582 Y48.614 E59.52974
G1 X76.606 Y47.85 E59.67508
G1 X77.954 Y47.52 E59.76831
G1 X79.16 Y47.337 E59.85026
G1 X81.433 Y47.263 E60.00304
G1 X82.705 Y47.376 E60.08883
G1 X84.421 Y47.71 E60.20627
G1 X85.72 Y48.108 E60.29754
G1 X87.127 Y48.693 E60.39991
G1 X148.834 Y78.29 E64.99758
G1 X150.176 Y79.024 E65.10034
G1 X151.276 Y79.772 E65.1897
G1 X152.909 Y81.192 E65.33508
G1 X154.264 Y82.764 E65.4745
G1 X185.197 Y124.555 E68.96744
G1 X186.423 Y126.508 E69.12235
G1 X187.32 Y128.598 E69.27514
G1 X187.853 Y130.636 E69.41666
G1 X190.826 Y151.941 E70.8618
G1 X190.861 Y154.104 E71.00713
G1 X190.566 Y156.302 E71.15612
G1 X190.094 Y158.014 E71.27542
G1 X189.255 Y159.984 E71.41927
G1 X188.368 Y161.482 E71.53622
G1 X187.537 Y162.595 E71.62953
G1 X186.684 Y163.545 E71.7153
G1 X185.388 Y164.718 E71.83273
G1 X156.004 Y187.036 E74.31159
G1 X154.849 Y187.833 E74.40586
G1 X153.638 Y188.511 E74.4991
G1 X152.471 Y189.031 E74.58493
G1 X150.839 Y189.567 E74.70033
G1 X149.097 Y189.918 E74.81971
G1 X147.715 Y190.044 E74.91294
G1 X145.997 Y190.017 E75.02837
G1 X144.728 Y189.868 E75.11421
G1 X143.37 Y189.582 E75.20744
G1 X141.683 Y189.032 E75.32664
G1 X140.123 Y188.308 E75.44218
G1 X138.612 Y187.374 E75.56152
G1 X124.308 Y176.7 E76.76053
G1 X61.349 Y120.284 E82.43978
G1 X60.479 Y119.429 E82.52173
G1 X59.578 Y118.373 E82.61499
G1 X58.842 Y117.33 E82.70075
G1 X58.147 Y116.128 E82.79403
G1 X57.621 Y114.996 E82.87789
G1 X57.161 Y113.717 E82.9692
G1 X56.676 Y111.608 E83.11458
G1 X56.506 Y109.35 E83.2667
G1 X56.664 Y107.239 E83.40891
G1 X66.396 Y58.88 E86.72281
G1 X66.848 Y57.237 E86.83729
G1 X67.727 Y55.172 E86.98806
G1 X68.809 Y53.417 E87.12657
G1 X69.358 Y53.755 F9600
G1 F1800
G1 X69.391 Y53.702 E87.13076
G1 X70.172 Y52.72 E87.21505
G1 X71.025 Y51.823 E87.29821
G1 X72.69 Y50.45 E87.44319
G1 X73.712 Y49.796 E87.5247
G1 X74.846 Y49.204 E87.61064
G1 X76.797 Y48.467 E87.75075
G1 X78.069 Y48.156 E87.83872
G1 X79.239 Y47.978 E87.91823
G1 X81.396 Y47.909 E88.06321
G1 X82.628 Y48.018 E88.1463
G1 X84.268 Y48.338 E88.25855
G1 X85.494 Y48.714 E88.3447
G1 X86.847 Y49.276 E88.44312
G1 X148.555 Y78.872 E93.04082
G1 X149.845 Y79.579 E93.13964
G1 X150.883 Y80.285 E93.22397
G1 X152.456 Y81.653 E93.36402
G1 X153.745 Y83.149 E93.49668
G1 X184.677 Y124.939 E96.98953
G1 X185.854 Y126.815 E97.13831
G1 X186.705 Y128.798 E97.28328
G1 X187.219 Y130.763 E97.41973
G1 X190.181 Y151.99 E98.85958
G1 X190.215 Y154.075 E98.99967
G1 X189.935 Y156.16 E99.141
G1 X189.485 Y157.797 E99.25505
G1 X188.677 Y159.695 E99.39363
G1 X187.827 Y161.128 E99.50556
G1 X187.044 Y162.177 E99.5935
G1 X186.216 Y163.098 E99.6767
G1 X184.977 Y164.219 E99.78895
G1 X155.614 Y186.521 E102.26604
G1 X154.5 Y187.289 E102.35694
G1 X153.357 Y187.929 E102.44494
G1 X152.226 Y188.433 E102.52812
G1 X150.665 Y188.945 E102.63849
G1 X149 Y189.279 E102.75257
G1 X147.695 Y189.397 E102.8406
G1 X146.053 Y189.373 E102.95092
G1 X144.37 Y189.148 E103.06499
G1 X143.167 Y188.856 E103.14815
G1 X141.59 Y188.295 E103.2606
G1 X140.096 Y187.554 E103.37263
G1 X138.991 Y186.851 E103.46061
G1 X124.694 Y176.182 E104.65904
G1 X61.789 Y119.81 E110.33362
G1 X60.944 Y118.981 E110.41314
G1 X60.095 Y117.984 E110.50111
G1 X59.381 Y116.973 E110.58426
G1 X58.725 Y115.839 E110.67227
G1 X58.216 Y114.742 E110.75351
G1 X57.781 Y113.535 E110.8397
G1 X57.314 Y111.502 E110.97983
G1 X57.153 Y109.359 E111.1242
G1 X57.304 Y107.325 E111.26122
G1 X67.03 Y59.008 E114.57228
G1 X67.463 Y57.436 E114.68182
G1 X68.296 Y55.477 E114.82483
G1 X69.327 Y53.806 E114.95674
G1 X69.876 Y54.145 F9600
G1 F1800
G1 X69.92 Y54.074 E114.96235
G1 X70.654 Y53.151 E115.04157
G1 X71.48 Y52.282 E115.12211
G1 X73.054 Y50.984 E115.25917
G1 X74.043 Y50.35 E115.33809
G1 X75.11 Y49.794 E115.41892
G1 X76.989 Y49.085 E115.55384
G1 X78.185 Y48.792 E115.63656
G1 X79.318 Y48.62 E115.71355
G1 X81.358 Y48.554 E115.85067
G1 X82.552 Y48.66 E115.9312
G1 X84.115 Y48.965 E116.03818
G1 X85.268 Y49.319 E116.11921
G1 X86.567 Y49.859 E116.21372
G1 X148.275 Y79.455 E120.81142
G1 X149.513 Y80.134 E120.90628
G1 X150.489 Y80.797 E120.98555
G1 X152.004 Y82.114 E121.12041
G1 X153.225 Y83.533 E121.24617
G1 X184.158 Y125.324 E124.73911
G1 X185.286 Y127.123 E124.88176
G1 X186.091 Y128.998 E125.01884
G1 X186.585 Y130.89 E125.15021
G1 X189.537 Y152.04 E126.58485
G1 X189.569 Y154.047 E126.7197
G1 X189.305 Y156.018 E126.85329
G1 X188.876 Y157.58 E126.96211
G1 X188.099 Y159.406 E127.09543
G1 X187.287 Y160.773 E127.20225
G1 X186.55 Y161.76 E127.285
G1 X185.749 Y162.652 E127.36554
G1 X184.567 Y163.719 E127.47252
G1 X155.223 Y186.007 E129.94802
G1 X154.15 Y186.746 E130.03555
G1 X153.076 Y187.347 E130.11823
G1 X151.981 Y187.835 E130.19877
G1 X150.491 Y188.322 E130.30408
G1 X148.903 Y188.64 E130.41288
G1 X147.676 Y188.751 E130.49565
G1 X146.108 Y188.729 E130.601
G1 X144.503 Y188.515 E130.70978
G1 X143.338 Y188.233 E130.79031
G1 X141.835 Y187.697 E130.89751
G1 X140.41 Y186.988 E131.00444
G1 X139.37 Y186.327 E131.08723
G1 X125.081 Y175.664 E132.28499
G1 X62.228 Y119.337 E137.95495
G1 X61.41 Y118.533 E138.032
G1 X60.611 Y117.595 E138.11478
G1 X59.919 Y116.616 E138.19532
G1 X59.303 Y115.55 E138.27803
G1 X58.81 Y114.488 E138.35669
G1 X58.401 Y113.352 E138.4378
G1 X57.951 Y111.395 E138.5727
G1 X57.799 Y109.369 E138.70919
G1 X57.945 Y107.411 E138.84109
G1 X67.663 Y59.136 E142.14927
G1 X68.078 Y57.636 E142.25383
G1 X68.866 Y55.783 E142.3891
G1 X69.844 Y54.196 E142.51433
G1 X70.394 Y54.535 F9600
G1 F1800
G1 X70.448 Y54.446 E142.52132
G1 X71.935 Y52.741 E142.6733
G1 X73.418 Y51.517 E142.80248
G1 X74.375 Y50.905 E142.87879
G1 X75.375 Y50.384 E142.95454
G1 X77.18 Y49.702 E143.08417
G1 X78.3 Y49.428 E143.16163
G1 X79.398 Y49.261 E143.23624
G1 X81.32 Y49.199 E143.36543
G1 X82.475 Y49.302 E143.44333
G1 X83.962 Y49.593 E143.54512
G1 X85.043 Y49.925 E143.62109
G1 X86.288 Y50.442 E143.71165
G1 X147.996 Y80.038 E148.30935
G1 X149.182 Y80.689 E148.40024
G1 X150.095 Y81.31 E148.47442
G1 X151.551 Y82.576 E148.60404
G1 X152.706 Y83.918 E148.72299
G1 X183.638 Y125.708 E152.21584
G1 X184.718 Y127.431 E152.35245
G1 X185.476 Y129.198 E152.48162
G1 X186.014 Y131.385 E152.63292
G1 X188.892 Y152.089 E154.03719
G1 X188.923 Y154.018 E154.1668
G1 X188.674 Y155.876 E154.29274
G1 X188.268 Y157.362 E154.39623
G1 X187.521 Y159.116 E154.52431
G1 X186.746 Y160.419 E154.62616
G1 X186.056 Y161.343 E154.70363
G1 X185.281 Y162.206 E154.78155
G1 X184.156 Y163.22 E154.8833
G1 X154.832 Y185.492 E157.35708
G1 X153.134 Y186.588 E157.49285
G1 X151.736 Y187.237 E157.59639
G1 X150.317 Y187.7 E157.69666
G1 X148.805 Y188.001 E157.80023
G1 X147.656 Y188.105 E157.87774
G1 X146.164 Y188.085 E157.97798
G1 X144.636 Y187.883 E158.08152
G1 X143.509 Y187.609 E158.15944
G1 X142.08 Y187.099 E158.26137
G1 X140.723 Y186.423 E158.36322
G1 X139.75 Y185.804 E158.44069
G1 X125.468 Y175.146 E159.63787
G1 X62.668 Y118.863 E165.30321
G1 X61.127 Y117.206 E165.45523
G1 X60.458 Y116.259 E165.53312
G1 X59.881 Y115.261 E165.61056
G1 X59.404 Y114.234 E165.68663
G1 X59.021 Y113.169 E165.76266
G1 X58.589 Y111.289 E165.89225
G1 X58.445 Y109.379 E166.02093
G1 X58.586 Y107.496 E166.14778
G1 X68.297 Y59.264 E169.45304
G1 X68.579 Y58.184 E169.52803
G1 X69.436 Y56.088 E169.68016
G1 X70.362 Y54.586 E169.7987
G1 E167.7987 F2400
G92 E0
G92 E0
G1 X142.223 Y174.479 F9600
G1 E2 F2400
;TYPE:Perimeter
;WIDTH:0.606548
G1 F1800
G1 X142.449 Y173.67 E2.04827
G1 X142.643 Y173.187 E2.07818
;WIDTH:0.599253
G1 X142.909 Y172.715 E2.1089
;WIDTH:0.587272
G1 X142.957 Y172.643 E2.1137
;WIDTH:0.59309
G1 X143.34 Y172.131 E2.14955
;WIDTH:0.595439
G1 X144.15 Y171.385 E2.21156
;WIDTH:0.608175
G1 X144.645 Y171.081 E2.24504
G1 X145.136 Y170.826 E2.27693
;WIDTH:0.602837
G1 X145.46 Y170.704 E2.29669
G1 X146.22 Y170.501 E2.34159
;WIDTH:0.608702
G1 X146.902 Y170.442 E2.38108
G1 X147.438 Y170.438 E2.412
;WIDTH:0.592875
G1 X148.134 Y170.537 E2.4514
G1 X148.857 Y170.759 E2.49379
;WIDTH:0.590062
G1 X149.831 Y171.267 E2.55504
;WIDTH:0.608843
G1 X150.423 Y171.75 E2.59913
G1 X150.83 Y172.15 E2.63206
;WIDTH:0.607908
G1 X151.172 Y172.628 E2.66592
G1 X151.447 Y173.067 E2.69576
;WIDTH:0.588252
G1 X151.7 Y173.629 E2.73001
;WIDTH:0.598439
G1 X151.9 Y174.297 E2.76949
;WIDTH:0.601325
G1 X151.982 Y174.822 E2.79974
G1 X152.011 Y175.279 E2.82581
;WIDTH:0.595857
G1 X151.944 Y176.201 E2.87791
;WIDTH:0.602388
G1 X151.658 Y177.197 E2.93701
G1 X151.44 Y177.669 E2.96666
;WIDTH:0.600994
G1 X151.182 Y178.105 E2.99548
;WIDTH:0.588754
G1 X150.81 Y178.597 E3.02979
;WIDTH:0.60858
G1 X150.299 Y179.087 E3.07062
G1 X149.892 Y179.427 E3.10121
;WIDTH:0.595771
G1 X149.33 Y179.757 E3.13793
;WIDTH:0.594551
G1 X148.634 Y180.053 E3.18045
G1 X147.899 Y180.232 E3.22298
;WIDTH:0.595499
G1 X146.803 Y180.295 E3.28481
;WIDTH:0.608333
G1 X146.229 Y180.215 E3.31822
G1 X145.688 Y180.099 E3.35012
;WIDTH:0.593648
G1 X144.947 Y179.822 E3.39452
;WIDTH:0.599088
G1 X144.025 Y179.248 E3.45609
;WIDTH:0.601177
G1 X143.636 Y178.902 E3.48572
G1 X143.323 Y178.567 E3.51181
;WIDTH:0.58698
G1 X142.792 Y177.812 E3.56298
;WIDTH:0.593103
G1 X142.451 Y177.099 E3.60729
G1 X142.249 Y176.394 E3.64841
;WIDTH:0.59347
G1 X142.143 Y175.626 E3.69191
;WIDTH:0.598107
G1 X142.207 Y174.537 E3.75364
G1 X142.804 Y174.569 F9600
;TYPE:External perimeter
;WIDTH:0.699999
G1 F1800
G1 X143.02 Y173.851 E3.80401
G1 X143.167 Y173.471 E3.83138
G1 X143.428 Y172.998 E3.86767
G1 X143.813 Y172.489 E3.91054
G1 X144.545 Y171.828 E3.9768
G1 X145.417 Y171.344 E4.0438
G1 X146.377 Y171.072 E4.11083
G1 X147.434 Y171.029 E4.1819
G1 X148.044 Y171.123 E4.22336
G1 X148.679 Y171.32 E4.26803
G1 X149.548 Y171.786 E4.33427
G1 X150.348 Y172.499 E4.40626
G1 X150.879 Y173.254 E4.46827
G1 X151.161 Y173.871 E4.51384
G1 X151.326 Y174.455 E4.55461
G1 X151.422 Y175.172 E4.60321
G1 X151.34 Y176.221 E4.6739
G1 X151.088 Y177.016 E4.72993
G1 X150.741 Y177.707 E4.78188
G1 X150.34 Y178.239 E4.82664
G1 X149.558 Y178.935 E4.89697
G1 X149.029 Y179.25 E4.93833
G1 X148.412 Y179.503 E4.98313
G1 X147.765 Y179.658 E5.02783
G1 X146.78 Y179.701 E5.09407
G1 X145.8 Y179.52 E5.16102
G1 X145.169 Y179.272 E5.20657
G1 X144.349 Y178.748 E5.27194
G1 X143.846 Y178.275 E5.31833
G1 X143.244 Y177.419 E5.38863
G1 X142.992 Y176.856 E5.43007
G1 X142.817 Y176.237 E5.47328
G1 X142.732 Y175.555 E5.51945
G1 X142.797 Y174.629 E5.58181
G1 X142.904 Y174.243 F9600
G1 E3.58181 F2400
G92 E0
G1 X147.248 Y169.9 F9600
G1 E2 F2400
;TYPE:Perimeter
;WIDTH:0.608702
G1 F1800
G1 X147.355 Y169.903 E2.00618
;WIDTH:0.601455
G1 X147.927 Y169.947 E2.03884
G1 X148.526 Y170.076 E2.07373
;WIDTH:0.604632
G1 X149.472 Y170.436 E2.1317
G1 X150.358 Y170.971 E2.19097
;WIDTH:0.608843
G1 X150.808 Y171.351 E2.22496
G1 X151.27 Y171.827 E2.26324
;WIDTH:0.607908
G1 X151.621 Y172.302 E2.29726
G1 X151.815 Y172.633 E2.31936
;WIDTH:0.6002
G1 X152.104 Y173.181 E2.35455
G1 X152.256 Y173.608 E2.3803
;WIDTH:0.595416
G1 X152.443 Y174.237 E2.41725
;WIDTH:0.601325
G1 X152.528 Y174.786 E2.44887
G1 X152.543 Y175.295 E2.47786
;WIDTH:0.608812
G1 X152.538 Y175.807 E2.50741
G1 X152.418 Y176.563 E2.55158
;WIDTH:0.602388
G1 X152.183 Y177.356 E2.59875
G1 X152.037 Y177.691 E2.61959
;WIDTH:0.592842
G1 X151.714 Y178.261 E2.65631
;WIDTH:0.599943
G1 X151.382 Y178.755 E2.69011
G1 X151.061 Y179.108 E2.7172
;WIDTH:0.60858
G1 X150.654 Y179.514 E2.75036
G1 X150.132 Y179.914 E2.78829
;WIDTH:0.600071
G1 X149.277 Y180.386 E2.84376
G1 X148.618 Y180.621 E2.8835
;WIDTH:0.59906
G1 X147.712 Y180.808 E2.93594
G1 X146.711 Y180.837 E2.99271
;WIDTH:0.608333
G1 X146.102 Y180.754 E3.02815
G1 X145.118 Y180.485 E3.08696
;WIDTH:0.600912
