; generated by PrusaSlicer 2.9.1 on 2025-11-20 at 12:35:28 UTC

; 

; external perimeters extrusion width = 0.70mm
; perimeters extrusion width = 0.70mm
; infill extrusion width = 0.70mm
; solid infill extrusion width = 0.70mm
; top infill extrusion width = 0.70mm
; support material extrusion width = 0.70mm
; first layer extrusion width = 0.70mm

M190 S100 ; set bed temperature and wait for it to be reached
M104 S255 ; set temperature
;TYPE:Custom
G28 ; home all axes
G1 Z5 F5000 ; lift nozzle
M109 S255 ; set temperature and wait for it to be reached
G21 ; set units to millimeters
G90 ; use absolute coordinates
M82 ; use absolute distances for extrusion
G92 E0
; Filament gcode
M107
;LAYER_CHANGE
;Z:0.25
;HEIGHT:0.25
G1 E-2 F2400
G92 E0
G1 Z2.25 F9600
G1 X79.144 Y77.902
G1 Z.25
G1 E2 F2400
;TYPE:Skirt/Brim
;WIDTH:0.7
G1 F1800
G1 X79.412 Y77.63 E2.02565
G1 X81.619 Y75.646 E2.22502
G1 X83.929 Y73.8 E2.42367
G1 X86.652 Y71.881 E2.64746
G1 X89.228 Y70.293 E2.85076
G1 X91.892 Y68.861 E3.05395
G1 X94.637 Y67.586 E3.25728
G1 X97.442 Y66.479 E3.45986
G1 X100.611 Y65.446 E3.68378
G1 X103.561 Y64.684 E3.88847
G1 X106.568 Y64.094 E4.09433
G1 X109.566 Y63.688 E4.29757
G1 X112.581 Y63.458 E4.50071
G1 X115.948 Y63.412 E4.72693
G1 X118.902 Y63.551 E4.9256
G1 X121.969 Y63.877 E5.1328
G1 X124.934 Y64.37 E5.33472
G1 X127.85 Y65.031 E5.53559
G1 X131.054 Y65.967 E5.75983
G1 X133.903 Y66.994 E5.96328
G1 X136.685 Y68.185 E6.16658
G1 X139.392 Y69.538 E6.36989
G1 X142.007 Y71.041 E6.57252
G1 X144.838 Y72.913 E6.80053
G1 X147.237 Y74.72 E7.0023
G1 X149.525 Y76.664 E7.204
G1 X151.699 Y78.74 E7.40594
G1 X153.74 Y80.933 E7.6072
G1 X155.861 Y83.506 E7.83121
G1 X157.65 Y85.975 E8.03604
G1 X159.289 Y88.544 E8.24076
G1 X160.764 Y91.187 E8.4441
G1 X162.09 Y93.931 E8.64884
G1 X163.359 Y97.037 E8.87425
G1 X164.323 Y99.88 E9.07592
G1 X165.12 Y102.783 E9.27816
G1 X165.75 Y105.742 E9.4814
G1 X166.203 Y108.716 E9.6835
G1 X166.502 Y112.039 E9.90764
G1 X166.587 Y114.994 E10.10624
G1 X166.502 Y117.961 E10.30565
G1 X166.203 Y121.284 E10.52979
G1 X165.75 Y124.258 E10.73189
G1 X165.12 Y127.217 E10.93513
G1 X164.323 Y130.12 E11.13737
G1 X163.359 Y132.963 E11.33904
G1 X162.091 Y136.067 E11.5643
G1 X160.793 Y138.758 E11.76501
G1 X159.331 Y141.386 E11.96704
G1 X157.534 Y144.192 E12.19089
G1 X155.757 Y146.629 E12.39351
G1 X153.833 Y148.964 E12.59677
G1 X151.776 Y151.182 E12.79999
G1 X149.591 Y153.276 E13.0033
G1 X147.048 Y155.429 E13.22714
G1 X144.631 Y157.234 E13.4298
G1 X142.105 Y158.899 E13.63305
G1 X139.487 Y160.412 E13.83619
G1 X136.782 Y161.77 E14.03953
G1 X133.718 Y163.079 E14.26337
G1 X130.933 Y164.073 E14.46203
G1 X128.086 Y164.908 E14.66135
G1 X124.836 Y165.649 E14.88529
G1 X121.87 Y166.137 E15.08723
G1 X118.862 Y166.452 E15.29041
G1 X115.855 Y166.591 E15.49264
G1 X112.853 Y166.553 E15.69433
G1 X109.508 Y166.306 E15.91966
G1 X106.545 Y165.902 E16.12056
G1 X103.593 Y165.323 E16.32265
G1 X100.537 Y164.53 E16.53475
G1 X97.67 Y163.604 E16.73715
G1 X94.63 Y162.411 E16.95654
G1 X91.903 Y161.145 E17.15852
G1 X89.268 Y159.73 E17.35945
G1 X86.417 Y157.963 E17.58478
G1 X83.966 Y156.229 E17.78648
G1 X81.585 Y154.325 E17.99129
G1 X79.352 Y152.313 E18.19322
G1 X77.226 Y150.159 E18.39654
G1 X75.205 Y147.854 E18.60248
G1 X73.322 Y145.431 E18.80863
G1 X71.441 Y142.673 E19.0329
G1 X69.922 Y140.123 E19.2323
G1 X68.557 Y137.5 E19.43095
G1 X67.182 Y134.407 E19.65835
G1 X66.133 Y131.593 E19.8601
G1 X65.247 Y128.71 E20.06272
G1 X64.534 Y125.794 E20.26439
G1 X63.994 Y122.847 E20.46567
G1 X63.592 Y119.537 E20.68967
G1 X63.414 Y116.493 E20.89452
G1 X63.415 Y113.447 E21.09915
G1 X63.597 Y110.407 E21.30374
G1 X63.955 Y107.396 E21.50744
G1 X64.579 Y104.019 E21.73815
G1 X65.274 Y101.192 E21.93372
G1 X66.185 Y98.255 E22.1403
G1 X67.237 Y95.455 E22.34124
G1 X68.448 Y92.725 E22.54188
G1 X69.984 Y89.766 E22.76585
G1 X71.53 Y87.187 E22.96785
G1 X73.235 Y84.688 E23.17109
G1 X75.095 Y82.279 E23.37555
G1 X77.075 Y80.004 E23.57816
G1 X79.081 Y77.966 E23.77027
G1 X79.541 Y78.419 F9600
G1 F1800
G1 X79.852 Y78.104 E23.80001
G1 X82.03 Y76.145 E23.99681
G1 X84.325 Y74.311 E24.19417
G1 X86.999 Y72.426 E24.41396
G1 X89.543 Y70.858 E24.61472
G1 X92.173 Y69.443 E24.81535
G1 X94.9 Y68.176 E25.01736
G1 X97.67 Y67.084 E25.21739
G1 X100.782 Y66.069 E25.43729
G1 X103.695 Y65.316 E25.63942
G1 X106.665 Y64.733 E25.84275
G1 X109.624 Y64.332 E26.04335
G1 X112.62 Y64.104 E26.2452
G1 X115.927 Y64.058 E26.46739
G1 X118.844 Y64.195 E26.66357
G1 X121.872 Y64.516 E26.86813
G1 X124.8 Y65.002 E27.06752
G1 X127.697 Y65.659 E27.26708
G1 X130.845 Y66.579 E27.48741
G1 X133.657 Y67.592 E27.6882
G1 X136.422 Y68.776 E27.89027
G1 X139.094 Y70.111 E28.09093
G1 X141.676 Y71.596 E28.29103
G1 X144.458 Y73.436 E28.51511
G1 X146.826 Y75.219 E28.71425
G1 X149.1 Y77.151 E28.91471
G1 X151.246 Y79.201 E29.11409
G1 X153.26 Y81.366 E29.31274
G1 X155.344 Y83.893 E29.53279
G1 X157.11 Y86.331 E29.73503
G1 X158.739 Y88.883 E29.93842
G1 X160.195 Y91.493 E30.1392
G1 X161.504 Y94.203 E30.34138
G1 X162.75 Y97.254 E30.56278
G1 X163.702 Y100.061 E30.76191
G1 X164.494 Y102.945 E30.96283
G1 X165.116 Y105.867 E31.16353
G1 X165.563 Y108.803 E31.36304
G1 X165.856 Y112.067 E31.5832
G1 X165.941 Y115.003 E31.78052
G1 X165.856 Y117.932 E31.97737
G1 X165.563 Y121.197 E32.19759
G1 X165.116 Y124.133 E32.3971
G1 X164.494 Y127.055 E32.5978
G1 X163.702 Y129.939 E32.79872
G1 X162.75 Y132.746 E32.99785
G1 X161.505 Y135.795 E33.2191
G1 X160.215 Y138.469 E33.41855
G1 X158.771 Y141.063 E33.618
G1 X157.006 Y143.819 E33.83786
G1 X155.252 Y146.225 E34.03789
G1 X153.353 Y148.531 E34.23858
G1 X151.309 Y150.735 E34.44052
G1 X149.151 Y152.803 E34.64132
G1 X146.653 Y154.917 E34.86116
G1 X144.268 Y156.699 E35.06117
G1 X141.757 Y158.354 E35.2632
G1 X139.172 Y159.847 E35.46374
G1 X136.501 Y161.188 E35.66452
G1 X133.491 Y162.473 E35.88439
G1 X130.725 Y163.461 E36.08171
G1 X127.914 Y164.285 E36.2785
G1 X124.721 Y165.013 E36.49851
G1 X121.793 Y165.495 E36.69786
G1 X118.823 Y165.807 E36.89848
G1 X115.835 Y165.944 E37.09943
G1 X112.871 Y165.906 E37.29857
G1 X109.585 Y165.664 E37.51992
G1 X106.642 Y165.263 E37.71946
G1 X103.727 Y164.691 E37.91902
G1 X100.708 Y163.907 E38.12856
G1 X97.878 Y162.992 E38.32837
G1 X94.893 Y161.821 E38.54378
G1 X92.2 Y160.571 E38.74324
G1 X89.583 Y159.165 E38.94282
G1 X86.782 Y157.43 E39.16417
G1 X84.362 Y155.718 E39.36332
G1 X82.011 Y153.838 E39.56555
G1 X79.805 Y151.852 E39.76496
G1 X77.705 Y149.726 E39.96571
G1 X75.709 Y147.45 E40.16908
G1 X73.838 Y145.043 E40.37389
G1 X71.991 Y142.333 E40.59421
G1 X70.491 Y139.816 E40.79105
G1 X69.134 Y137.21 E40.98844
G1 X67.784 Y134.172 E41.21178
G1 X66.748 Y131.394 E41.41096
G1 X65.872 Y128.548 E41.61101
G1 X65.168 Y125.668 E41.81019
G1 X64.632 Y122.74 E42.01016
G1 X64.236 Y119.489 E42.23018
G1 X64.06 Y116.484 E42.4324
G1 X64.061 Y113.476 E42.63448
G1 X64.24 Y110.473 E42.83658
G1 X64.596 Y107.482 E43.03893
G1 X65.208 Y104.164 E43.26559
G1 X65.894 Y101.374 E43.45861
G1 X66.793 Y98.473 E43.66264
G1 X67.832 Y95.709 E43.86101
G1 X69.035 Y92.997 E44.06032
G1 X70.543 Y90.09 E44.28033
G1 X72.08 Y87.528 E44.48104
G1 X73.763 Y85.061 E44.68167
G1 X75.601 Y82.681 E44.88369
G1 X77.556 Y80.436 E45.08368
G1 X79.478 Y78.483 E45.26776
G1 X79.938 Y78.936 F9600
G1 F1800
G1 X80.291 Y78.578 E45.30154
G1 X82.455 Y76.632 E45.49705
G1 X84.721 Y74.822 E45.69188
G1 X87.347 Y72.97 E45.90776
G1 X89.858 Y71.423 E46.10589
G1 X92.471 Y70.017 E46.30523
G1 X95.164 Y68.767 E46.50469
G1 X97.898 Y67.689 E46.70212
G1 X100.954 Y66.693 E46.91805
G1 X103.829 Y65.949 E47.11756
G1 X106.761 Y65.372 E47.31831
G1 X109.702 Y64.974 E47.51769
G1 X112.659 Y64.749 E47.71692
G1 X115.907 Y64.705 E47.93514
G1 X118.785 Y64.839 E48.12869
G1 X121.776 Y65.155 E48.33074
G1 X124.685 Y65.638 E48.52884
G1 X127.544 Y66.287 E48.72579
G1 X130.635 Y67.19 E48.94212
G1 X133.412 Y68.19 E49.14041
G1 X136.141 Y69.358 E49.33983
G1 X138.797 Y70.685 E49.53929
G1 X141.345 Y72.152 E49.73681
G1 X144.077 Y73.958 E49.95682
G1 X146.415 Y75.718 E50.15342
G1 X148.674 Y77.637 E50.35255
G1 X150.792 Y79.662 E50.54941
G1 X152.781 Y81.799 E50.74554
G1 X154.826 Y84.281 E50.96159
G1 X156.571 Y86.687 E51.16126
G1 X158.179 Y89.207 E51.36208
G1 X159.626 Y91.8 E51.56157
G1 X160.917 Y94.475 E51.76111
G1 X162.141 Y97.471 E51.97853
G1 X163.081 Y100.241 E52.17504
G1 X163.869 Y103.107 E52.37472
G1 X164.481 Y105.992 E52.57285
G1 X164.922 Y108.891 E52.76985
G1 X165.211 Y112.096 E52.98604
G1 X165.294 Y114.994 E53.18081
G1 X165.211 Y117.904 E53.37638
G1 X164.922 Y121.109 E53.59257
G1 X164.478 Y124.026 E53.79079
G1 X163.864 Y126.911 E53.98895
G1 X163.081 Y129.759 E54.18738
G1 X162.141 Y132.529 E54.38389
G1 X160.918 Y135.523 E54.60116
G1 X159.645 Y138.163 E54.79806
G1 X158.211 Y140.74 E54.99618
G1 X156.478 Y143.446 E55.21205
G1 X154.747 Y145.822 E55.40954
G1 X152.86 Y148.113 E55.60894
G1 X150.841 Y150.288 E55.80831
G1 X148.711 Y152.329 E56.00649
G1 X146.258 Y154.405 E56.22238
G1 X143.904 Y156.165 E56.41984
G1 X141.41 Y157.809 E56.62051
G1 X138.857 Y159.283 E56.81855
G1 X136.22 Y160.605 E57.01672
G1 X133.264 Y161.868 E57.23267
G1 X130.534 Y162.843 E57.42742
G1 X127.742 Y163.662 E57.62289
G1 X124.607 Y164.377 E57.83891
G1 X121.716 Y164.853 E58.03574
G1 X118.784 Y165.161 E58.2338
G1 X115.814 Y165.298 E58.43354
G1 X112.889 Y165.26 E58.63006
G1 X109.663 Y165.022 E58.84737
G1 X106.757 Y164.627 E59.04439
G1 X103.861 Y164.059 E59.24265
G1 X100.88 Y163.284 E59.44957
G1 X98.086 Y162.38 E59.64685
G1 X95.157 Y161.23 E59.85824
G1 X92.498 Y159.997 E60.05514
G1 X89.898 Y158.6 E60.25343
G1 X87.147 Y156.896 E60.47082
G1 X84.758 Y155.208 E60.66733
G1 X82.436 Y153.351 E60.86707
G1 X80.245 Y151.378 E61.06515
G1 X78.172 Y149.278 E61.26339
G1 X76.201 Y147.031 E61.46419
G1 X74.355 Y144.654 E61.66638
G1 X72.541 Y141.994 E61.88268
G1 X71.051 Y139.494 E62.0782
G1 X69.712 Y136.921 E62.27306
G1 X68.386 Y133.936 E62.49249
G1 X67.363 Y131.195 E62.68904
G1 X66.493 Y128.367 E62.88781
G1 X65.798 Y125.524 E63.08443
G1 X65.269 Y122.633 E63.28187
G1 X64.881 Y119.441 E63.49789
G1 X64.706 Y116.475 E63.69749
G1 X64.708 Y113.486 E63.89829
G1 X64.884 Y110.522 E64.09776
G1 X65.236 Y107.569 E64.29755
G1 X65.838 Y104.309 E64.52026
G1 X66.514 Y101.556 E64.7107
G1 X67.408 Y98.674 E64.91341
G1 X68.434 Y95.945 E65.10927
G1 X69.622 Y93.268 E65.30603
G1 X71.103 Y90.413 E65.5221
G1 X72.619 Y87.884 E65.72019
G1 X74.28 Y85.448 E65.91826
G1 X76.106 Y83.084 E66.11893
G1 X78.037 Y80.868 E66.31639
G1 X79.875 Y79.001 E66.4924
G1 X80.335 Y79.453 F9600
G1 F1800
G1 X80.731 Y79.052 E66.53026
G1 X82.866 Y77.131 E66.7232
G1 X85.116 Y75.333 E66.91669
G1 X87.695 Y73.515 E67.12867
G1 X90.173 Y71.987 E67.32425
G1 X92.752 Y70.599 E67.52101
G1 X95.427 Y69.357 E67.71914
G1 X98.126 Y68.294 E67.91402
G1 X101.125 Y67.316 E68.12594
G1 X103.982 Y66.577 E68.32419
G1 X106.876 Y66.009 E68.52232
G1 X109.779 Y65.615 E68.71913
G1 X112.698 Y65.394 E68.91579
G1 X115.887 Y65.351 E69.13005
G1 X118.727 Y65.482 E69.32104
G1 X121.679 Y65.794 E69.52046
G1 X124.551 Y66.271 E69.71604
G1 X127.392 Y66.915 E69.91174
G1 X130.425 Y67.802 E70.12403
G1 X133.184 Y68.795 E70.32102
G1 X135.878 Y69.948 E70.51788
G1 X138.499 Y71.259 E70.71476
G1 X141.013 Y72.707 E70.90966
G1 X143.696 Y74.48 E71.1257
G1 X146.004 Y76.217 E71.31976
G1 X148.234 Y78.111 E71.51631
G1 X150.325 Y80.109 E71.7106
G1 X152.301 Y82.233 E71.90549
G1 X154.309 Y84.668 E72.11752
G1 X156.042 Y87.058 E72.31585
G1 X157.629 Y89.546 E72.5141
G1 X159.056 Y92.106 E72.711
G1 X160.331 Y94.747 E72.90802
G1 X161.532 Y97.688 E73.12144
G1 X162.461 Y100.422 E73.31542
G1 X163.238 Y103.251 E73.51251
G1 X163.844 Y106.098 E73.70806
G1 X164.282 Y108.978 E73.90376
G1 X164.565 Y112.124 E74.11596
G1 X164.648 Y115.003 E74.30945
G1 X164.565 Y117.875 E74.50247
G1 X164.282 Y121.022 E74.71474
G1 X163.844 Y123.901 E74.91038
G1 X163.238 Y126.749 E75.10599
G1 X162.461 Y129.578 E75.30308
G1 X161.532 Y132.312 E75.49706
G1 X160.332 Y135.251 E75.71033
G1 X159.067 Y137.873 E75.90591
G1 X157.651 Y140.417 E76.10151
G1 X155.95 Y143.074 E76.31345
G1 X154.242 Y145.418 E76.50829
G1 X152.367 Y147.695 E76.70645
G1 X150.374 Y149.842 E76.90325
G1 X148.272 Y151.855 E77.09877
G1 X145.864 Y153.893 E77.3107
G1 X143.54 Y155.631 E77.50566
G1 X141.062 Y157.264 E77.70503
G1 X138.542 Y158.718 E77.90048
G1 X135.94 Y160.023 E78.09604
G1 X133.038 Y161.262 E78.30802
G1 X130.343 Y162.225 E78.50028
G1 X127.569 Y163.039 E78.6945
G1 X124.492 Y163.741 E78.90653
G1 X121.62 Y164.214 E79.10207
G1 X118.726 Y164.518 E79.29756
G1 X115.794 Y164.652 E79.49474
G1 X112.908 Y164.614 E79.68864
G1 X109.74 Y164.381 E79.90204
G1 X106.854 Y163.988 E80.09771
G1 X103.995 Y163.426 E80.29345
G1 X101.052 Y162.661 E80.49773
G1 X98.295 Y161.768 E80.69242
G1 X95.42 Y160.64 E80.8999
G1 X92.778 Y159.414 E81.09557
G1 X90.212 Y158.036 E81.29124
G1 X87.512 Y156.362 E81.50466
G1 X85.154 Y154.697 E81.69858
G1 X82.862 Y152.865 E81.8957
G1 X80.698 Y150.917 E82.0913
G1 X78.639 Y148.831 E82.28821
G1 X76.694 Y146.613 E82.48639
G1 X74.872 Y144.266 E82.686
G1 X73.091 Y141.655 E82.89833
G1 X71.62 Y139.187 E83.09135
G1 X70.29 Y136.631 E83.28492
G1 X68.988 Y133.701 E83.50032
G1 X67.978 Y130.996 E83.6943
G1 X67.114 Y128.186 E83.8918
G1 X66.428 Y125.38 E84.08586
G1 X65.907 Y122.527 E84.28069
G1 X65.526 Y119.393 E84.49278
G1 X65.353 Y116.465 E84.68983
G1 X65.353 Y113.514 E84.88808
G1 X65.527 Y110.588 E85.085
G1 X65.877 Y107.656 E85.28337
G1 X66.468 Y104.454 E85.50211
G1 X67.135 Y101.738 E85.68999
G1 X68.016 Y98.892 E85.89014
G1 X69.035 Y96.181 E86.08471
G1 X70.208 Y93.539 E86.27891
G1 X71.662 Y90.737 E86.49098
G1 X73.158 Y88.24 E86.68653
G1 X74.809 Y85.82 E86.88334
G1 X76.612 Y83.487 E87.08142
G1 X78.518 Y81.3 E87.27631
G1 X80.272 Y79.518 E87.44429
G1 X80.732 Y79.971 F9600
G1 F1800
G1 X81.17 Y79.526 E87.48624
G1 X83.291 Y77.618 E87.6779
G1 X85.512 Y75.844 E87.86886
G1 X88.043 Y74.06 E88.07689
G1 X90.487 Y72.552 E88.26982
G1 X93.033 Y71.181 E88.46408
G1 X95.69 Y69.947 E88.66089
G1 X98.354 Y68.899 E88.85321
G1 X101.297 Y67.939 E89.06117
G1 X104.116 Y67.209 E89.2568
G1 X106.991 Y66.645 E89.45362
G1 X109.856 Y66.257 E89.64785
G1 X112.736 Y66.039 E89.84188
G1 X115.866 Y65.997 E90.05217
G1 X118.669 Y66.126 E90.24068
G1 X121.583 Y66.434 E90.43753
G1 X124.418 Y66.903 E90.63057
G1 X127.239 Y67.543 E90.8249
G1 X130.216 Y68.413 E91.03326
G1 X132.938 Y69.393 E91.22762
G1 X135.597 Y70.531 E91.42192
G1 X138.202 Y71.833 E91.61757
G1 X140.682 Y73.262 E91.80986
G1 X143.315 Y75.003 E92.02192
G1 X145.593 Y76.716 E92.2134
G1 X147.795 Y78.585 E92.40743
G1 X149.872 Y80.57 E92.60044
G1 X151.821 Y82.666 E92.79272
G1 X153.792 Y85.056 E93.00084
G1 X155.502 Y87.414 E93.19652
G1 X157.069 Y89.869 E93.39218
G1 X158.479 Y92.396 E93.58658
G1 X159.745 Y95.019 E93.78225
G1 X160.923 Y97.905 E93.99166
G1 X161.84 Y100.603 E94.1831
G1 X162.608 Y103.395 E94.37763
G1 X163.206 Y106.205 E94.57063
G1 X163.641 Y109.065 E94.76498
G1 X163.919 Y112.153 E94.97327
G1 X164.002 Y114.994 E95.16421
G1 X163.919 Y117.846 E95.35589
G1 X163.641 Y120.935 E95.56425
G1 X163.21 Y123.776 E95.75729
G1 X162.608 Y126.605 E95.9516
G1 X161.84 Y129.397 E96.14613
G1 X160.923 Y132.095 E96.33757
G1 X159.745 Y134.979 E96.54686
G1 X158.498 Y137.567 E96.73985
G1 X157.091 Y140.094 E96.93416
G1 X155.422 Y142.701 E97.14212
G1 X153.737 Y145.015 E97.33442
G1 X151.887 Y147.262 E97.52995
G1 X149.92 Y149.381 E97.72418
G1 X147.832 Y151.382 E97.91847
G1 X145.469 Y153.382 E98.12644
G1 X143.177 Y155.096 E98.31871
G1 X140.731 Y156.709 E98.51555
G1 X138.244 Y158.145 E98.70848
G1 X135.659 Y159.441 E98.90274
G1 X132.811 Y160.657 E99.11078
G1 X130.134 Y161.614 E99.30177
G1 X127.397 Y162.416 E99.49337
G1 X124.377 Y163.105 E99.70147
G1 X121.543 Y163.572 E99.89443
G1 X118.668 Y163.874 E100.08864
G1 X115.774 Y164.006 E100.28326
G1 X112.926 Y163.968 E100.47461
G1 X109.817 Y163.739 E100.68404
G1 X106.969 Y163.352 E100.87713
G1 X104.13 Y162.794 E101.0715
G1 X101.224 Y162.038 E101.27322
G1 X98.503 Y161.156 E101.46538
G1 X95.683 Y160.05 E101.66888
G1 X93.059 Y158.832 E101.86323
G1 X90.527 Y157.471 E102.05635
G1 X87.877 Y155.829 E102.26578
G1 X85.55 Y154.186 E102.45715
G1 X83.287 Y152.378 E102.65174
G1 X81.138 Y150.443 E102.84601
