; generated by PrusaSlicer 2.9.1 on 2025-12-30 at 15:21:57 UTC

; 

; external perimeters extrusion width = 0.70mm
; perimeters extrusion width = 0.70mm
; infill extrusion width = 0.70mm
; solid infill extrusion width = 0.70mm
; top infill extrusion width = 0.70mm
; first layer extrusion width = 0.70mm

M190 S80 ; set bed temperature and wait for it to be reached
M104 S245 ; set temperature
;TYPE:Custom
G28 ; home all axes
G1 Z5 F5000 ; lift nozzle
M109 S245 ; set temperature and wait for it to be reached
G21 ; set units to millimeters
G90 ; use absolute coordinates
M82 ; use absolute distances for extrusion
G92 E0
; Filament gcode
M107
;LAYER_CHANGE
;Z:0.25
;HEIGHT:0.25
G1 E-2 F2400
G92 E0
G1 Z.25 F9600
G1 X103.187 Y95.818
G1 E2 F2400
;TYPE:Skirt/Brim
;WIDTH:0.7
G1 F1800
G1 X104.415 Y94.669 E2.11298
G1 X105.681 Y94.035 E2.2081
G1 X106.592 Y93.828 E2.27086
G1 X123.338 Y93.819 E3.39586
G1 X124.267 Y94.02 E3.45971
G1 X125.096 Y94.373 E3.52024
G1 X125.834 Y94.862 E3.57971
G1 X126.955 Y95.987 E3.6864
G1 X127.455 Y96.746 E3.74746
G1 X127.82 Y97.638 E3.81221
G1 X128.011 Y98.679 E3.88331
G1 X128.011 Y106.445 E4.40503
G1 X128.978 Y105.842 E4.48159
G1 X129.753 Y105.518 E4.53802
G1 X130.813 Y105.306 E4.61064
G1 X147.29 Y105.312 E5.71757
G1 X148.283 Y105.52 E5.78573
G1 X149.007 Y105.819 E5.83835
G1 X149.683 Y106.231 E5.89153
G1 X150.834 Y107.324 E5.99816
G1 X151.531 Y108.365 E6.08232
G1 X151.87 Y109.261 E6.14668
G1 X152.026 Y110.178 E6.20917
G1 X152.026 Y142.822 E8.4022
G1 X151.87 Y143.739 E8.46469
G1 X151.531 Y144.635 E8.52905
G1 X150.969 Y145.513 E8.59908
G1 X149.782 Y146.691 E8.71143
G1 X148.949 Y147.21 E8.77736
G1 X148.141 Y147.523 E8.83557
G1 X147.151 Y147.7 E8.90313
G1 X130.884 Y147.7 E9.99595
G1 X129.842 Y147.509 E10.06712
G1 X128.949 Y147.143 E10.13196
G1 X128.083 Y146.554 E10.20232
G1 X126.927 Y145.346 E10.31465
G1 X126.519 Y144.672 E10.36758
G1 X126.2 Y143.88 E10.42494
G1 X126.01 Y142.889 E10.49273
G1 X126.006 Y135.054 E11.01909
G1 X125.037 Y135.658 E11.0958
G1 X124.257 Y135.984 E11.15259
G1 X123.136 Y136.2 E11.22928
G1 X106.745 Y136.189 E12.33043
G1 X105.876 Y136.024 E12.38985
G1 X105.048 Y135.703 E12.44951
G1 X104.176 Y135.144 E12.51909
G1 X102.998 Y133.956 E12.63148
G1 X102.479 Y133.123 E12.69741
G1 X102.167 Y132.315 E12.7556
G1 X101.989 Y131.325 E12.82317
G1 X101.989 Y98.678 E15.0164
G1 X102.162 Y97.698 E15.08325
G1 X102.518 Y96.798 E15.14827
G1 X103.153 Y95.867 E15.22398
G1 X103.656 Y96.263 F9600
G1 F1800
G1 X104.775 Y95.207 E15.32734
G1 X105.901 Y94.644 E15.41191
G1 X106.697 Y94.466 E15.46671
G1 X123.239 Y94.459 E16.57801
G1 X124.047 Y94.628 E16.63347
G1 X124.769 Y94.931 E16.68607
G1 X125.403 Y95.345 E16.73694
G1 X126.434 Y96.371 E16.83466
G1 X126.897 Y97.074 E16.89121
G1 X127.208 Y97.847 E16.94719
G1 X127.365 Y98.708 E17.00599
G1 X127.365 Y108.058 E17.63413
G1 X128.676 Y106.794 E17.75647
G1 X129.254 Y106.427 E17.80247
G1 X129.972 Y106.127 E17.85475
G1 X130.845 Y105.952 E17.91457
G1 X147.256 Y105.959 E19.01706
G1 X148.064 Y106.129 E19.07253
G1 X148.736 Y106.406 E19.12136
G1 X149.313 Y106.762 E19.16691
G1 X150.361 Y107.766 E19.26441
G1 X150.942 Y108.631 E19.33441
G1 X151.24 Y109.405 E19.39013
G1 X151.38 Y110.207 E19.44482
G1 X151.38 Y142.793 E21.63395
G1 X151.24 Y143.595 E21.68864
G1 X150.941 Y144.37 E21.74445
G1 X150.448 Y145.131 E21.80536
G1 X149.355 Y146.204 E21.90826
G1 X148.684 Y146.62 E21.9613
G1 X147.991 Y146.893 E22.01134
G1 X147.12 Y147.054 E22.07085
G1 X130.912 Y147.054 E23.15971
G1 X130.051 Y146.897 E23.21851
G1 X129.279 Y146.586 E23.27442
G1 X128.523 Y146.08 E23.33553
G1 X127.459 Y144.977 E23.43849
G1 X127.108 Y144.405 E23.48358
G1 X126.811 Y143.668 E23.53696
G1 X126.656 Y142.858 E23.59236
G1 X126.651 Y133.441 E24.225
G1 X125.339 Y134.706 E24.34744
G1 X124.761 Y135.073 E24.39344
G1 X124.039 Y135.374 E24.44599
G1 X123.105 Y135.554 E24.50989
G1 X106.836 Y135.548 E25.60285
G1 X106.028 Y135.395 E25.6581
G1 X105.317 Y135.114 E25.70946
G1 X104.559 Y134.622 E25.77017
G1 X103.485 Y133.529 E25.87311
G1 X103.07 Y132.859 E25.92606
G1 X102.796 Y132.165 E25.97619
G1 X102.635 Y131.294 E26.0357
G1 X102.635 Y98.708 E28.22483
G1 X102.792 Y97.847 E28.28363
G1 X103.104 Y97.073 E28.33969
G1 X103.622 Y96.313 E28.40148
G1 X104.129 Y96.705 F9600
G1 F1800
G1 X105.138 Y95.743 E28.49514
G1 X106.121 Y95.252 E28.56896
G1 X106.8 Y95.105 E28.61563
G1 X123.143 Y95.099 E29.71356
G1 X123.831 Y95.238 E29.76071
G1 X124.447 Y95.492 E29.80547
G1 X124.974 Y95.83 E29.84753
G1 X125.913 Y96.756 E29.93613
G1 X126.338 Y97.4 E29.98797
G1 X126.595 Y98.053 E30.03511
G1 X126.719 Y98.737 E30.08181
G1 X126.719 Y110.106 E30.84558
G1 X127.3 Y110.165 E30.88481
G1 X127.436 Y109.498 E30.93054
G1 X127.706 Y108.846 E30.97795
G1 X128.143 Y108.205 E31.03007
G1 X129.099 Y107.284 E31.11925
G1 X130.136 Y106.753 E31.19752
G1 X130.879 Y106.598 E31.24851
G1 X147.221 Y106.605 E32.34637
G1 X147.844 Y106.737 E32.38915
G1 X148.463 Y106.993 E32.43415
G1 X148.94 Y107.291 E32.47193
G1 X149.887 Y108.206 E32.56039
G1 X150.353 Y108.902 E32.61666
G1 X150.61 Y109.553 E32.66368
G1 X150.734 Y110.237 E32.71038
G1 X150.734 Y142.763 E34.89548
G1 X150.61 Y143.447 E34.94218
G1 X150.353 Y144.1 E34.98932
G1 X149.928 Y144.744 E35.04116
G1 X148.931 Y145.715 E35.13466
G1 X148.417 Y146.031 E35.17519
G1 X147.837 Y146.265 E35.21721
G1 X147.089 Y146.408 E35.26837
G1 X130.941 Y146.408 E36.3532
G1 X130.257 Y146.284 E36.3999
G1 X129.604 Y146.027 E36.44704
G1 X128.96 Y145.602 E36.49888
G1 X127.988 Y144.605 E36.59242
G1 X127.695 Y144.133 E36.62974
G1 X127.439 Y143.509 E36.67505
G1 X127.303 Y142.825 E36.7219
G1 X127.296 Y131.394 E37.48984
G1 X126.715 Y131.335 E37.52907
G1 X126.579 Y132.002 E37.5748
G1 X126.309 Y132.654 E37.62221
G1 X125.872 Y133.295 E37.67433
G1 X124.916 Y134.216 E37.76351
G1 X123.879 Y134.747 E37.84178
G1 X123.073 Y134.908 E37.897
G1 X106.869 Y134.902 E38.98559
G1 X106.185 Y134.767 E39.03243
G1 X105.591 Y134.528 E39.07544
G1 X104.945 Y134.102 E39.12743
G1 X103.974 Y133.105 E39.22093
G1 X103.658 Y132.591 E39.26146
G1 X103.424 Y132.011 E39.30348
G1 X103.281 Y131.263 E39.35464
G1 X103.281 Y98.737 E41.53974
G1 X103.405 Y98.053 E41.58644
G1 X103.661 Y97.402 E41.63343
G1 X104.095 Y96.755 E41.68577
G1 E39.68577 F2400
G92 E0
G1 X128.263 Y109.175 F9600
G1 E2 F2400
G1 F1800
G1 X128.618 Y108.646 E2.0428
G1 X129.52 Y107.776 E2.12699
G1 X130.354 Y107.362 E2.18954
G1 X130.913 Y107.245 E2.22791
G1 X147.125 Y107.245 E3.31704
G1 X147.628 Y107.347 E3.35152
G1 X148.563 Y107.817 E3.42182
G1 X149.412 Y108.645 E3.50149
G1 X149.767 Y109.175 E3.54434
G1 X149.981 Y109.707 E3.58286
G1 X150.087 Y110.269 E3.62128
G1 X150.087 Y142.731 E5.80208
G1 X149.981 Y143.293 E5.8405
G1 X149.767 Y143.825 E5.87902
G1 X149.412 Y144.354 E5.92182
G1 X148.51 Y145.224 E6.00601
G1 X148.147 Y145.443 E6.03449
G1 X147.677 Y145.638 E6.06867
G1 X147.056 Y145.761 E6.1112
G1 X130.973 Y145.761 E7.19166
G1 X130.411 Y145.655 E7.23008
G1 X129.879 Y145.441 E7.2686
G1 X129.35 Y145.086 E7.3114
G1 X128.48 Y144.184 E7.39559
G1 X128.261 Y143.821 E7.42407
G1 X128.066 Y143.351 E7.45825
G1 X127.943 Y142.73 E7.50078
G1 X127.943 Y110.269 E9.68152
G1 X128.049 Y109.707 E9.71994
G1 X128.24 Y109.231 E9.7544
G1 X128.847 Y109.453 F9600
G1 F1800
G1 X129.094 Y109.084 E9.78423
G1 X129.891 Y108.306 E9.85905
G1 X130.571 Y107.971 E9.90998
G1 X131.006 Y107.885 E9.93977
G1 X147.088 Y107.891 E11.02016
G1 X147.46 Y107.972 E11.04574
G1 X148.139 Y108.306 E11.09658
G1 X148.936 Y109.084 E11.1714
G1 X149.183 Y109.453 E11.20123
G1 X149.441 Y110.302 E11.26084
G1 X149.441 Y142.698 E13.43721
G1 X149.183 Y143.547 E13.49682
G1 X148.936 Y143.916 E13.52665
G1 X148.139 Y144.694 E13.60147
G1 X147.459 Y145.029 E13.6524
G1 X147.024 Y145.115 E13.68219
G1 X131.006 Y145.115 E14.75828
G1 X130.157 Y144.857 E14.81789
G1 X129.788 Y144.61 E14.84772
G1 X129.01 Y143.813 E14.92254
G1 X128.676 Y143.133 E14.97344
G1 X128.589 Y142.698 E15.00324
G1 X128.589 Y110.302 E17.17961
G1 X128.829 Y109.511 E17.23514
G1 X129.467 Y109.775 F9600
G1 F1800
G1 X129.572 Y109.52 E17.25367
G1 X130.269 Y108.832 E17.31946
G1 X131.038 Y108.531 E17.37494
G1 X147.051 Y108.537 E18.4507
G1 X147.761 Y108.832 E18.50235
G1 X148.598 Y109.73 E18.58482
G1 X148.795 Y110.334 E18.6275
G1 X148.795 Y142.666 E20.79957
G1 X148.458 Y143.48 E20.85876
G1 X147.6 Y144.271 E20.93716
G1 X146.992 Y144.469 E20.98012
G1 X131.038 Y144.469 E22.05191
G1 X130.224 Y144.132 E22.1111
G1 X129.433 Y143.274 E22.1895
G1 X129.235 Y142.666 E22.23246
G1 X129.235 Y110.334 E24.40453
G1 X129.444 Y109.83 E24.44118
G1 X130.004 Y110.041 F9600
G1 F1800
G1 X130.017 Y110.007 E24.44363
G1 X130.658 Y109.348 E24.50539
G1 X131.069 Y109.178 E24.53527
G1 X147.023 Y109.19 E25.60706
G1 X147.372 Y109.348 E25.6328
G1 X147.978 Y109.954 E25.69037
G1 X148.148 Y110.365 E25.72025
G1 X148.148 Y142.635 E27.88816
G1 X148.013 Y142.993 E27.91386
G1 X147.372 Y143.652 E27.97562
G1 X146.961 Y143.822 E28.0055
G1 X131.069 Y143.822 E29.07313
G1 X130.711 Y143.687 E29.09883
G1 X130.052 Y143.046 E29.16059
G1 X129.882 Y142.635 E29.19047
G1 X129.882 Y110.365 E31.35838
G1 X129.983 Y110.097 E31.37762
G1 X130.577 Y110.343 F9600
G1 F1800
G1 X131.166 Y109.824 E31.43036
G1 X146.864 Y109.824 E32.48496
G1 X147.502 Y110.461 E32.54553
G1 X147.453 Y142.657 E34.70847
G1 X146.864 Y143.176 E34.76121
G1 X131.047 Y143.127 E35.8238
G1 X130.528 Y142.539 E35.87649
G1 X130.577 Y110.403 E38.0354
G1 X131.174 Y110.66 F9600
G1 F1800
G1 X131.364 Y110.47 E38.05345
G1 X146.666 Y110.47 E39.08144
G1 X146.856 Y110.66 E39.09949
G1 X146.856 Y142.34 E41.22776
G1 X146.666 Y142.53 E41.24581
G1 X131.364 Y142.53 E42.2738
G1 X131.174 Y142.34 E42.29185
G1 X131.174 Y110.72 E44.41609
G1 E42.41609 F2400
G92 E0
G1 X126.072 Y110.72 F9600
G1 E2 F2400
G1 F1800
G1 X126.072 Y131.231 E3.37793
G1 X125.966 Y131.793 E3.41635
G1 X125.752 Y132.325 E3.45487
G1 X125.397 Y132.854 E3.49767
G1 X124.495 Y133.724 E3.58186
G1 X124.132 Y133.943 E3.61034
G1 X123.662 Y134.138 E3.64452
G1 X123.041 Y134.261 E3.68705
G1 X106.958 Y134.261 E4.76751
G1 X106.396 Y134.155 E4.80593
G1 X105.864 Y133.941 E4.84445
G1 X105.335 Y133.586 E4.88725
G1 X104.465 Y132.684 E4.97144
G1 X104.246 Y132.321 E4.99992
G1 X104.051 Y131.851 E5.0341
G1 X103.928 Y131.23 E5.07663
G1 X103.928 Y98.769 E7.25737
G1 X104.034 Y98.207 E7.29579
G1 X104.248 Y97.675 E7.33431
G1 X104.603 Y97.146 E7.37711
G1 X105.505 Y96.276 E7.4613
G1 X106.34 Y95.862 E7.52391
G1 X106.898 Y95.745 E7.56221
G1 X123.11 Y95.745 E8.65134
G1 X123.613 Y95.847 E8.68582
G1 X124.548 Y96.317 E8.75612
G1 X125.397 Y97.145 E8.83579
G1 X125.752 Y97.675 E8.87864
G1 X125.966 Y98.207 E8.91716
G1 X126.072 Y98.769 E8.95558
G1 X126.072 Y110.66 E9.75442
G1 X125.426 Y110.66 F9600
G1 F1800
G1 X125.426 Y131.198 E11.13417
G1 X125.168 Y132.047 E11.19378
G1 X124.921 Y132.416 E11.22361
G1 X124.124 Y133.194 E11.29843
G1 X123.444 Y133.529 E11.34936
G1 X123.009 Y133.615 E11.37915
G1 X106.991 Y133.615 E12.45524
G1 X106.142 Y133.357 E12.51485
G1 X105.773 Y133.11 E12.54468
G1 X104.995 Y132.313 E12.6195
G1 X104.661 Y131.633 E12.6704
G1 X104.574 Y131.198 E12.7002
G1 X104.574 Y98.802 E14.87657
G1 X104.832 Y97.953 E14.93618
G1 X105.079 Y97.584 E14.96601
G1 X105.876 Y96.806 E15.04083
G1 X106.556 Y96.471 E15.09176
G1 X106.991 Y96.385 E15.12155
G1 X123.073 Y96.391 E16.20194
G1 X123.445 Y96.472 E16.22752
G1 X124.124 Y96.806 E16.27836
G1 X124.921 Y97.584 E16.35318
G1 X125.168 Y97.953 E16.38301
G1 X125.426 Y98.802 E16.44262
G1 X125.426 Y110.6 E17.23521
G1 X124.78 Y110.6 F9600
G1 F1800
G1 X124.78 Y131.166 E18.61684
G1 X124.443 Y131.98 E18.67603
G1 X123.585 Y132.771 E18.75443
G1 X122.977 Y132.969 E18.79739
G1 X107.023 Y132.969 E19.86918
G1 X106.209 Y132.632 E19.92837
G1 X105.418 Y131.774 E20.00677
G1 X105.22 Y131.166 E20.04973
G1 X105.22 Y98.834 E22.2218
G1 X105.557 Y98.02 E22.28099
G1 X106.254 Y97.332 E22.34678
G1 X107.023 Y97.031 E22.40226
G1 X123.036 Y97.037 E23.47802
G1 X123.746 Y97.332 E23.52967
G1 X124.583 Y98.23 E23.61214
G1 X124.78 Y98.834 E23.65482
G1 X124.78 Y110.54 E24.44123
G1 X124.133 Y110.54 F9600
G1 F1800
G1 X124.133 Y131.135 E25.82481
G1 X123.998 Y131.493 E25.85051
G1 X123.357 Y132.152 E25.91227
G1 X122.946 Y132.322 E25.94215
G1 X107.054 Y132.322 E27.00978
G1 X106.696 Y132.187 E27.03548
G1 X106.037 Y131.546 E27.09724
G1 X105.867 Y131.135 E27.12712
G1 X105.867 Y98.865 E29.29503
G1 X106.002 Y98.507 E29.32073
G1 X106.643 Y97.848 E29.38249
G1 X107.054 Y97.678 E29.41237
G1 X123.008 Y97.69 E30.48416
G1 X123.357 Y97.848 E30.5099
G1 X123.963 Y98.454 E30.56747
G1 X124.133 Y98.865 E30.59735
G1 X124.133 Y110.48 E31.37765
G1 X123.469 Y110.479 F9600
G1 F1800
G1 X123.438 Y131.157 E32.7668
G1 X122.849 Y131.676 E32.81954
G1 X107.032 Y131.627 E33.88213
G1 X106.513 Y131.039 E33.93482
G1 X106.562 Y98.843 E36.09776
G1 X107.151 Y98.324 E36.1505
G1 X122.849 Y98.324 E37.2051
G1 X123.487 Y98.961 E37.26567
G1 X123.469 Y110.419 E38.03542
G1 X122.841 Y110.419 F9600
G1 F1800
G1 X122.841 Y130.84 E39.40731
G1 X122.651 Y131.03 E39.42536
G1 X107.349 Y131.03 E40.45335
G1 X107.159 Y130.84 E40.4714
G1 X107.159 Y99.16 E42.59967
G1 X107.349 Y98.97 E42.61772
G1 X122.651 Y98.97 E43.64571
G1 X122.841 Y99.16 E43.66376
G1 X122.841 Y110.359 E44.41611
G1 E42.41611 F2400
G92 E0
G92 E0
G1 X111.017 Y105.947 F9600
G1 E2 F2400
;TYPE:Perimeter
;WIDTH:0.699999
G1 F1800
G1 X110.986 Y105.791 E2.01069
G1 X110.986 Y104.155 E2.1206
G1 X111.038 Y103.841 E2.14198
G1 X111.234 Y103.318 E2.1795
G1 X111.605 Y102.658 E2.23036
G1 X112.265 Y101.918 E2.29697
G1 X113.085 Y101.359 E2.36364
;WIDTH:0.711909
G1 X114.013 Y101.01 E2.43147
;WIDTH:0.716312
G1 X114.246 Y100.96 E2.44788
G1 X114.992 Y100.914 E2.49936
;WIDTH:0.720389
G1 X115.489 Y100.964 E2.53398
;WIDTH:0.754705
G1 X115.986 Y101.014 E2.57038
G1 X116.446 Y101.211 E2.60684
;WIDTH:0.727352
G1 X116.905 Y101.409 E2.64184
;WIDTH:0.699999
G1 X117.71 Y101.989 E2.70849
G1 X118.35 Y102.747 E2.77514
G1 X118.788 Y103.637 E2.84178
G1 X118.997 Y104.606 E2.90837
G1 X118.966 Y105.598 E2.97505
G1 X118.695 Y106.552 E3.04168
G1 X118.201 Y107.412 E3.10831
G1 X117.513 Y108.127 E3.17497
G1 X116.673 Y108.654 E3.24159
G1 X115.73 Y108.963 E3.30826
G1 X114.741 Y109.033 E3.37487
G1 X113.764 Y108.862 E3.4415
G1 X112.857 Y108.46 E3.50815
G1 X112.075 Y107.85 E3.57478
G1 X111.464 Y107.068 E3.64145
G1 X111.059 Y106.159 E3.7083
G1 X111.029 Y106.005 E3.71884
G1 X111.643 Y105.843 F9600
;TYPE:External perimeter
G1 F1800
G1 X111.633 Y105.791 E3.7224
G1 X111.633 Y104.155 E3.83231
G1 X111.797 Y103.635 E3.86894
G1 X112.168 Y102.975 E3.9198
G1 X112.735 Y102.361 E3.97595
G1 X113.433 Y101.903 E4.03204
G1 X114.221 Y101.628 E4.08811
G1 X115.044 Y101.552 E4.14363
G1 X115.878 Y101.679 E4.2003
G1 X116.648 Y102.002 E4.2564
G1 X117.317 Y102.502 E4.31251
G1 X117.845 Y103.149 E4.36861
G1 X118.2 Y103.905 E4.42472
G1 X118.362 Y104.724 E4.48081
G1 X118.32 Y105.558 E4.53691
G1 X118.078 Y106.357 E4.59299
G1 X117.65 Y107.074 E4.64909
G1 X117.061 Y107.666 E4.70519
G1 X116.346 Y108.097 E4.76128
G1 X115.547 Y108.343 E4.81744
G1 X114.713 Y108.387 E4.87355
G1 X113.894 Y108.229 E4.92959
G1 X113.136 Y107.877 E4.98574
G1 X112.487 Y107.352 E5.04182
G1 X111.984 Y106.685 E5.09794
G1 X111.657 Y105.914 E5.1542
G1 X111.654 Y105.902 E5.15503
G1 X111.635 Y105.502 F9600
G1 E3.15503 F2400
G92 E0
G1 X111.017 Y126.001 F9600
G1 E2 F2400
;TYPE:Perimeter
G1 F1800
G1 X110.986 Y125.845 E2.01069
G1 X110.986 Y124.209 E2.1206
G1 X111.038 Y123.896 E2.14192
G1 X111.234 Y123.372 E2.1795
G1 X111.605 Y122.713 E2.23031
G1 X112.265 Y121.972 E2.29697
G1 X113.085 Y121.414 E2.3636
G1 X114.015 Y121.07 E2.43021
G1 X114.94 Y120.966 E2.49274
G1 X115.226 Y120.972 E2.51196
G1 X115.982 Y121.095 E2.56342
G1 X116.905 Y121.464 E2.6302
G1 X117.71 Y122.044 E2.69685
G1 X118.345 Y122.793 E2.76282
G1 X118.787 Y123.689 E2.82994
G1 X118.997 Y124.661 E2.89675
G1 X118.966 Y125.652 E2.96336
G1 X118.695 Y126.607 E3.03005
G1 X118.399 Y127.143 E3.07118
G1 X118.053 Y127.652 E3.11253
G1 X117.513 Y128.182 E3.16336
G1 X116.673 Y128.709 E3.22998
;WIDTH:0.708304
G1 X115.731 Y129.021 E3.2975
G1 X114.74 Y129.082 E3.36506
;WIDTH:0.700698
G1 X114.505 Y129.069 E3.38089
G1 X113.764 Y128.917 E3.43176
;WIDTH:0.699999
G1 X112.857 Y128.514 E3.49844
