; generated by PrusaSlicer 2.9.1 on 2025-11-20 at 23:29:26 UTC

; 

; external perimeters extrusion width = 0.70mm
; perimeters extrusion width = 0.70mm
; infill extrusion width = 0.70mm
; solid infill extrusion width = 0.70mm
; top infill extrusion width = 0.70mm
; first layer extrusion width = 0.70mm

M190 S40 ; set bed temperature and wait for it to be reached
M104 S230 ; set temperature
;TYPE:Custom
G28 ; home all axes
G1 Z5 F5000 ; lift nozzle
M109 S230 ; set temperature and wait for it to be reached
G21 ; set units to millimeters
G90 ; use absolute coordinates
M82 ; use absolute distances for extrusion
G92 E0
; Filament gcode
M107
;LAYER_CHANGE
;Z:0.25
;HEIGHT:0.25
G1 E-2 F2400
G92 E0
G1 E.00001
G1 Z.25 F9600
G1 X76.309 Y74.988
G1 E2 F2400
;COLOR_CHANGE,T0,#2D1ECA
M600
;TYPE:Skirt/Brim
;WIDTH:0.7
G1 F1800
G1 X76.468 Y74.826 E2.01525
G1 X78.926 Y72.606 E2.23776
G1 X81.339 Y70.671 E2.44555
G1 X84.581 Y68.386 E2.71201
G1 X87.028 Y66.876 E2.90518
G1 X89.939 Y65.299 E3.12759
G1 X92.94 Y63.897 E3.35011
G1 X95.891 Y62.725 E3.56342
G1 X99.662 Y61.497 E3.82985
G1 X102.365 Y60.795 E4.01746
G1 X105.611 Y60.14 E4.23992
G1 X109.512 Y59.616 E4.50434
G1 X112.615 Y59.393 E4.71334
G1 X115.982 Y59.351 E4.93955
G1 X119.136 Y59.496 E5.15166
G1 X122.145 Y59.807 E5.35488
G1 X126.06 Y60.457 E5.62149
G1 X129.031 Y61.142 E5.82632
G1 X132.157 Y62.055 E6.0451
G1 X135.287 Y63.175 E6.26843
G1 X138.093 Y64.367 E6.47324
G1 X141.643 Y66.142 E6.73988
G1 X144.259 Y67.659 E6.94303
G1 X147.142 Y69.568 E7.17532
G1 X149.597 Y71.409 E7.38147
G1 X152.034 Y73.463 E7.59558
G1 X154.839 Y76.146 E7.85634
G1 X156.721 Y78.175 E8.04226
G1 X158.845 Y80.733 E8.26563
G1 X161.172 Y83.942 E8.53193
G1 X162.908 Y86.691 E8.75035
G1 X164.513 Y89.603 E8.97373
G1 X165.941 Y92.605 E9.19706
G1 X166.993 Y95.171 E9.38337
G1 X168.282 Y98.958 E9.65212
G1 X169.075 Y101.859 E9.85416
G1 X169.751 Y105.044 E10.0729
G1 X170.247 Y108.331 E10.29622
G1 X170.525 Y111.353 E10.5001
G1 X170.644 Y115.32 E10.76672
G1 X170.547 Y118.357 E10.97085
G1 X170.247 Y121.669 E11.19426
G1 X169.763 Y124.889 E11.41301
G1 X169.134 Y127.881 E11.61841
G1 X168.06 Y131.762 E11.88894
G1 X167.142 Y134.443 E12.07932
G1 X165.944 Y137.389 E12.29297
G1 X164.52 Y140.382 E12.51564
G1 X162.915 Y143.297 E12.73919
G1 X160.807 Y146.595 E13.00214
G1 X158.89 Y149.212 E13.22007
G1 X156.778 Y151.763 E13.44256
G1 X154.517 Y154.183 E13.66505
G1 X152.452 Y156.159 E13.85706
G1 X149.425 Y158.722 E14.12352
G1 X146.931 Y160.58 E14.33245
G1 X144.164 Y162.399 E14.55491
G1 X141.294 Y164.051 E14.77738
G1 X138.665 Y165.369 E14.97495
G1 X135.018 Y166.926 E15.24135
G1 X132.165 Y167.942 E15.44481
G1 X128.986 Y168.87 E15.66729
G1 X125.758 Y169.607 E15.88973
G1 X122.777 Y170.108 E16.0928
G1 X118.784 Y170.525 E16.36251
G1 X115.682 Y170.654 E16.57108
G1 X112.705 Y170.61 E16.7711
G1 X109.436 Y170.378 E16.99126
G1 X106.207 Y169.957 E17.21002
G1 X102.326 Y169.195 E17.47572
G1 X99.652 Y168.5 E17.66133
G1 X96.485 Y167.489 E17.88467
G1 X92.863 Y166.068 E18.14605
G1 X89.853 Y164.656 E18.36941
G1 X86.933 Y163.067 E18.59274
G1 X84.226 Y161.383 E18.80691
G1 X81.907 Y159.755 E18.99726
G1 X78.758 Y157.246 E19.26775
G1 X76.49 Y155.195 E19.47318
G1 X74.205 Y152.875 E19.69194
G1 X72.017 Y150.372 E19.91528
G1 X70.153 Y147.972 E20.11943
G1 X68.07 Y144.94 E20.36656
G1 X66.399 Y142.144 E20.58538
G1 X64.987 Y139.437 E20.79049
G1 X63.355 Y135.767 E21.06032
G1 X62.274 Y132.856 E21.26893
G1 X61.37 Y129.925 E21.47499
G1 X60.606 Y126.83 E21.68915
G1 X60.011 Y123.643 E21.90695
G1 X59.534 Y119.703 E22.17357
G1 X59.368 Y116.945 E22.35919
G1 X59.352 Y113.621 E22.5825
G1 X59.593 Y109.659 E22.84916
G1 X59.997 Y106.438 E23.06724
G1 X60.606 Y103.17 E23.29056
G1 X61.37 Y100.075 E23.50472
G1 X62.203 Y97.366 E23.69512
G1 X63.615 Y93.598 E23.96544
G1 X64.856 Y90.824 E24.1696
G1 X66.383 Y87.885 E24.3921
G1 X68.082 Y85.042 E24.6146
G1 X69.773 Y82.551 E24.81686
G1 X72.199 Y79.413 E25.08333
G1 X74.147 Y77.188 E25.282
G1 X76.309 Y74.988 E25.48922
G1 X76.77 Y75.441 F9600
G1 F1800
G1 X76.92 Y75.289 E25.50357
G1 X79.35 Y73.094 E25.72356
G1 X81.742 Y71.176 E25.92953
G1 X84.921 Y68.936 E26.19079
G1 X87.36 Y67.43 E26.38336
G1 X90.24 Y65.871 E26.60337
G1 X93.206 Y64.486 E26.82328
G1 X96.127 Y63.327 E27.0344
G1 X99.825 Y62.122 E27.29569
G1 X102.525 Y61.421 E27.48309
G1 X105.735 Y60.774 E27.70308
G1 X109.66 Y60.253 E27.96908
G1 X112.635 Y60.039 E28.16946
G1 X115.962 Y59.997 E28.39299
G1 X119.087 Y60.141 E28.60315
G1 X122.078 Y60.45 E28.80516
G1 X125.917 Y61.087 E29.06659
G1 X128.868 Y61.767 E29.27003
G1 X131.957 Y62.67 E29.48623
G1 X135.051 Y63.776 E29.70697
G1 X137.839 Y64.961 E29.91048
G1 X141.32 Y66.702 E30.17195
G1 X143.921 Y68.21 E30.37393
G1 X146.762 Y70.091 E30.60283
G1 X149.2 Y71.919 E30.80754
G1 X151.615 Y73.955 E31.01974
G1 X154.365 Y76.586 E31.27542
G1 X156.247 Y78.614 E31.46129
G1 X158.346 Y81.143 E31.68208
G1 X160.627 Y84.29 E31.94319
G1 X162.344 Y87.006 E32.15905
G1 X163.931 Y89.884 E32.37984
G1 X165.343 Y92.851 E32.60058
G1 X166.395 Y95.416 E32.78683
G1 X167.659 Y99.13 E33.05039
G1 X168.446 Y102.011 E33.25103
G1 X169.114 Y105.158 E33.46716
G1 X169.606 Y108.408 E33.68798
G1 X169.882 Y111.411 E33.89057
G1 X169.998 Y115.301 E34.15202
G1 X169.902 Y118.319 E34.35487
G1 X169.606 Y121.592 E34.57565
G1 X169.127 Y124.774 E34.79183
G1 X168.501 Y127.747 E34.99594
G1 X167.449 Y131.553 E35.26122
G1 X166.534 Y134.224 E35.4509
G1 X165.346 Y137.143 E35.66262
G1 X163.938 Y140.102 E35.88276
G1 X162.35 Y142.982 E36.1037
G1 X160.283 Y146.218 E36.36166
G1 X158.388 Y148.805 E36.57709
G1 X156.3 Y151.327 E36.79705
G1 X154.066 Y153.721 E37.01703
G1 X152.006 Y155.692 E37.20856
G1 X149.038 Y158.205 E37.46982
G1 X146.567 Y160.046 E37.67683
G1 X143.831 Y161.845 E37.89681
G1 X140.993 Y163.478 E38.11678
G1 X138.376 Y164.791 E38.31348
G1 X134.799 Y166.318 E38.57476
G1 X131.969 Y167.326 E38.77658
G1 X128.826 Y168.244 E38.99655
G1 X125.634 Y168.973 E39.21651
G1 X122.671 Y169.47 E39.41835
G1 X118.755 Y169.88 E39.68287
G1 X115.682 Y170.007 E39.88949
G1 X112.726 Y169.964 E40.0881
G1 X109.485 Y169.734 E40.30638
G1 X106.308 Y169.318 E40.52163
G1 X102.489 Y168.57 E40.78307
G1 X99.815 Y167.875 E40.96868
G1 X96.685 Y166.874 E41.18945
G1 X93.134 Y165.481 E41.44571
G1 X90.159 Y164.086 E41.66645
G1 X87.272 Y162.516 E41.88722
G1 X84.589 Y160.849 E42.09942
G1 X82.279 Y159.226 E42.28908
G1 X79.191 Y156.766 E42.55431
G1 X76.937 Y154.728 E42.75845
G1 X74.679 Y152.435 E42.97465
G1 X72.516 Y149.962 E43.19537
G1 X70.664 Y147.576 E43.39828
G1 X68.614 Y144.591 E43.64155
G1 X66.964 Y141.829 E43.85769
G1 X65.561 Y139.14 E44.06145
G1 X63.96 Y135.54 E44.32614
G1 X62.889 Y132.656 E44.53282
G1 X61.991 Y129.744 E44.73754
G1 X61.234 Y126.678 E44.9497
G1 X60.647 Y123.528 E45.16496
G1 X60.179 Y119.665 E45.42637
G1 X60.014 Y116.907 E45.61198
G1 X59.998 Y113.621 E45.83274
G1 X60.235 Y109.737 E46.09415
G1 X60.633 Y106.552 E46.30978
G1 X61.234 Y103.322 E46.5305
G1 X61.991 Y100.256 E46.74266
G1 X62.82 Y97.557 E46.93234
G1 X64.205 Y93.86 E47.19756
G1 X65.439 Y91.104 E47.40042
G1 X66.948 Y88.198 E47.6204
G1 X68.628 Y85.388 E47.84034
G1 X70.307 Y82.915 E48.04115
G1 X72.686 Y79.838 E48.30244
G1 X74.625 Y77.624 E48.50015
G1 X76.77 Y75.441 E48.70575
G1 X77.231 Y75.894 F9600
G1 F1800
G1 X77.371 Y75.751 E48.71919
G1 X79.774 Y73.582 E48.93666
G1 X82.145 Y71.682 E49.14078
G1 X85.261 Y69.486 E49.39688
G1 X87.693 Y67.984 E49.58891
G1 X90.54 Y66.444 E49.80636
G1 X93.473 Y65.075 E50.02381
G1 X96.363 Y63.929 E50.23267
G1 X99.987 Y62.748 E50.48873
G1 X102.685 Y62.047 E50.676
G1 X105.859 Y61.409 E50.8935
G1 X109.709 Y60.898 E51.15441
G1 X112.655 Y60.685 E51.35284
G1 X115.941 Y60.643 E51.57361
G1 X119.037 Y60.785 E51.78182
G1 X122.01 Y61.092 E51.98261
G1 X125.773 Y61.717 E52.23887
G1 X128.705 Y62.393 E52.44101
G1 X131.757 Y63.285 E52.65462
G1 X134.816 Y64.378 E52.87285
G1 X137.585 Y65.555 E53.07498
G1 X140.997 Y67.262 E53.33128
G1 X143.582 Y68.76 E53.53199
G1 X146.383 Y70.614 E53.75765
G1 X148.804 Y72.43 E53.96096
G1 X151.196 Y74.447 E54.17116
G1 X153.891 Y77.026 E54.42175
G1 X155.772 Y79.053 E54.60752
G1 X157.846 Y81.553 E54.82574
G1 X160.082 Y84.638 E55.0817
G1 X161.78 Y87.322 E55.29507
G1 X163.349 Y90.165 E55.51322
G1 X164.746 Y93.097 E55.73141
G1 X165.797 Y95.661 E55.91757
G1 X167.036 Y99.302 E56.17595
G1 X167.818 Y102.163 E56.3752
G1 X168.478 Y105.273 E56.58878
G1 X168.964 Y108.484 E56.80695
G1 X169.238 Y111.469 E57.00833
G1 X169.352 Y115.281 E57.26454
G1 X169.257 Y118.281 E57.46618
G1 X168.964 Y121.516 E57.6844
G1 X168.49 Y124.66 E57.898
G1 X167.869 Y127.613 E58.10072
G1 X166.837 Y131.344 E58.36078
G1 X165.925 Y134.005 E58.54975
G1 X164.748 Y136.897 E58.75951
G1 X163.356 Y139.821 E58.97707
G1 X161.786 Y142.667 E59.19543
G1 X159.758 Y145.841 E59.44847
G1 X157.885 Y148.399 E59.66146
G1 X155.822 Y150.892 E59.87885
G1 X153.614 Y153.258 E60.09626
G1 X151.559 Y155.225 E60.28737
G1 X148.65 Y157.688 E60.54344
G1 X146.202 Y159.513 E60.74857
G1 X143.498 Y161.291 E60.96598
G1 X140.693 Y162.906 E61.18342
G1 X138.087 Y164.212 E61.37925
G1 X134.581 Y165.71 E61.63538
G1 X131.772 Y166.711 E61.83571
G1 X128.666 Y167.618 E62.05309
G1 X125.51 Y168.338 E62.27056
G1 X122.565 Y168.832 E62.47117
G1 X118.726 Y169.234 E62.73049
G1 X115.682 Y169.361 E62.93516
G1 X112.746 Y169.318 E63.13242
G1 X109.06 Y169.039 E63.38075
G1 X106.314 Y168.667 E63.56691
G1 X103.125 Y168.053 E63.78508
G1 X99.443 Y167.091 E64.04074
G1 X96.423 Y166.094 E64.25439
G1 X93.405 Y164.895 E64.47255
G1 X90.464 Y163.517 E64.69074
G1 X87.61 Y161.966 E64.90896
G1 X84.953 Y160.314 E65.11915
G1 X82.651 Y158.697 E65.30814
G1 X79.623 Y156.285 E65.56821
G1 X77.385 Y154.262 E65.77088
G1 X75.154 Y151.996 E65.98451
G1 X73.016 Y149.551 E66.20271
G1 X71.175 Y147.181 E66.40432
G1 X69.159 Y144.243 E66.64369
G1 X67.528 Y141.514 E66.85727
G1 X66.134 Y138.842 E67.05974
G1 X64.565 Y135.313 E67.31919
G1 X63.503 Y132.456 E67.52396
G1 X62.611 Y129.564 E67.72728
G1 X61.862 Y126.526 E67.93748
G1 X61.283 Y123.413 E68.1502
G1 X60.824 Y119.626 E68.40647
G1 X60.659 Y116.869 E68.59202
G1 X60.644 Y113.621 E68.81022
G1 X60.876 Y109.814 E69.06645
G1 X61.269 Y106.667 E69.27951
G1 X61.862 Y103.474 E69.49768
G1 X62.611 Y100.436 E69.70788
G1 X63.438 Y97.747 E69.89688
G1 X64.796 Y94.123 E70.15687
G1 X66.021 Y91.384 E70.35844
G1 X67.513 Y88.512 E70.57586
G1 X69.174 Y85.734 E70.7933
G1 X70.842 Y83.279 E70.99269
G1 X73.173 Y80.263 E71.24877
G1 X75.102 Y78.059 E71.44554
G1 X77.231 Y75.894 E71.64953
G1 X77.692 Y76.347 F9600
G1 F1800
G1 X77.823 Y76.213 E71.66212
G1 X80.198 Y74.07 E71.87702
G1 X82.548 Y72.187 E72.07932
G1 X85.601 Y70.036 E72.33021
G1 X88.026 Y68.538 E72.5217
G1 X90.84 Y67.016 E72.73663
G1 X93.739 Y65.664 E72.95152
G1 X96.6 Y64.53 E73.15827
G1 X100.15 Y63.374 E73.40909
G1 X102.846 Y62.673 E73.59623
G1 X105.982 Y62.043 E73.81112
G1 X109.758 Y61.542 E74.06702
G1 X112.676 Y61.331 E74.26356
G1 X115.921 Y61.289 E74.48158
G1 X118.988 Y61.43 E74.68784
G1 X121.942 Y61.735 E74.88735
G1 X125.629 Y62.348 E75.13844
G1 X128.542 Y63.018 E75.33925
G1 X131.558 Y63.899 E75.55033
G1 X134.58 Y64.98 E75.76595
G1 X137.331 Y66.15 E75.96678
G1 X140.673 Y67.821 E76.2178
G1 X143.243 Y69.311 E76.41737
G1 X146.003 Y71.137 E76.63969
G1 X148.408 Y72.941 E76.84166
G1 X150.777 Y74.94 E77.0499
G1 X153.417 Y77.465 E77.29532
G1 X155.298 Y79.492 E77.48109
G1 X157.347 Y81.963 E77.69674
G1 X159.538 Y84.986 E77.94756
G1 X161.215 Y87.637 E78.1583
G1 X162.767 Y90.446 E78.3739
G1 X164.148 Y93.344 E78.58956
G1 X165.199 Y95.906 E78.7756
G1 X166.413 Y99.474 E79.02879
G1 X167.19 Y102.315 E79.22666
G1 X167.842 Y105.387 E79.43763
G1 X168.322 Y108.561 E79.65328
G1 X168.594 Y111.527 E79.85337
G1 X168.706 Y115.262 E80.1044
G1 X168.611 Y118.242 E80.3047
G1 X168.322 Y121.439 E80.52035
G1 X167.854 Y124.545 E80.73137
G1 X167.237 Y127.478 E80.93272
G1 X166.225 Y131.135 E81.18763
G1 X165.317 Y133.786 E81.37588
G1 X164.151 Y136.651 E81.58368
G1 X162.773 Y139.541 E81.79877
G1 X161.221 Y142.353 E82.01454
G1 X159.233 Y145.464 E82.26257
G1 X157.383 Y147.992 E82.47302
G1 X155.345 Y150.457 E82.68789
G1 X153.163 Y152.796 E82.90278
G1 X151.112 Y154.758 E83.09346
G1 X148.262 Y157.171 E83.34433
G1 X145.838 Y158.979 E83.54748
G1 X143.165 Y160.737 E83.76241
G1 X140.393 Y162.333 E83.97729
G1 X137.798 Y163.634 E84.17231
G1 X134.363 Y165.101 E84.42324
G1 X131.576 Y166.095 E84.62202
G1 X128.505 Y166.991 E84.83693
G1 X125.387 Y167.704 E85.0518
G1 X122.459 Y168.195 E85.25125
G1 X118.697 Y168.588 E85.50536
G1 X115.682 Y168.715 E85.70809
G1 X112.766 Y168.672 E85.90401
G1 X109.146 Y168.398 E86.1479
G1 X106.402 Y168.026 E86.33393
G1 X103.251 Y167.419 E86.54951
G1 X99.642 Y166.476 E86.8001
G1 X96.659 Y165.493 E87.0111
G1 X93.676 Y164.308 E87.22673
G1 X90.769 Y162.947 E87.44237
G1 X87.949 Y161.415 E87.65797
G1 X85.316 Y159.78 E87.86618
G1 X83.023 Y158.169 E88.05444
G1 X80.056 Y155.805 E88.3093
G1 X77.832 Y153.795 E88.51069
G1 X75.628 Y151.557 E88.72171
G1 X73.515 Y149.141 E88.93733
G1 X71.687 Y146.785 E89.13766
G1 X69.703 Y143.895 E89.37316
G1 X68.092 Y141.198 E89.58421
G1 X66.708 Y138.544 E89.78529
G1 X65.17 Y135.086 E90.03954
G1 X64.118 Y132.257 E90.24231
G1 X63.232 Y129.384 E90.44429
G1 X62.491 Y126.374 E90.65254
G1 X61.919 Y123.297 E90.86279
G1 X61.469 Y119.587 E91.11386
G1 X61.304 Y116.83 E91.29941
G1 X61.291 Y113.621 E91.51499
G1 X61.518 Y109.891 E91.76604
G1 X61.905 Y106.781 E91.97658
G1 X62.491 Y103.626 E92.19216
G1 X63.232 Y100.616 E92.40041
G1 X64.056 Y97.938 E92.58864
G1 X65.386 Y94.386 E92.84344
G1 X66.604 Y91.664 E93.04378
G1 X68.078 Y88.826 E93.25862
G1 X69.72 Y86.08 E93.47356
G1 X71.376 Y83.643 E93.6715
G1 X73.659 Y80.689 E93.92231
G1 X75.58 Y78.495 E94.11822
G1 X77.692 Y76.347 E94.32059
G1 X78.153 Y76.8 F9600
G1 F1800
G1 X78.275 Y76.676 E94.33228
G1 X80.622 Y74.558 E94.54466
G1 X82.951 Y72.692 E94.74515
G1 X85.94 Y70.586 E94.99079
G1 X88.359 Y69.092 E95.18179
G1 X91.14 Y67.588 E95.39419
G1 X94.005 Y66.253 E95.60653
G1 X96.836 Y65.132 E95.81108
G1 X100.313 Y63.999 E96.05675
G1 X103.006 Y63.299 E96.24368
G1 X106.106 Y62.678 E96.45608
G1 X109.807 Y62.187 E96.70689
G1 X112.696 Y61.977 E96.90149
G1 X115.901 Y61.935 E97.11682
G1 X118.938 Y62.074 E97.32106
G1 X121.875 Y62.378 E97.51942
G1 X125.485 Y62.978 E97.76527
G1 X128.379 Y63.644 E97.96477
G1 X131.358 Y64.514 E98.17326
G1 X134.344 Y65.582 E98.38631
G1 X137.077 Y66.744 E98.58582
G1 X140.35 Y68.381 E98.83167
G1 X142.905 Y69.861 E99.03003
G1 X145.623 Y71.66 E99.249
G1 X148.012 Y73.452 E99.44963
G1 X150.358 Y75.432 E99.65586
G1 X152.943 Y77.905 E99.89619
G1 X154.824 Y79.932 E100.08196
G1 X156.847 Y82.374 E100.295
G1 X158.993 Y85.334 E100.54062
G1 X160.651 Y87.952 E100.7488
G1 X162.185 Y90.728 E100.96187
G1 X163.551 Y93.59 E101.17492
G1 X164.601 Y96.151 E101.36087
G1 X165.79 Y99.646 E101.60888
G1 X166.562 Y102.466 E101.8053
G1 X167.206 Y105.502 E102.0138
G1 X167.68 Y108.637 E102.2268
G1 X167.95 Y111.585 E102.42568
G1 X168.06 Y115.243 E102.67154
G1 X167.966 Y118.204 E102.87056
G1 X167.68 Y121.363 E103.08365
G1 X167.218 Y124.431 E103.29208
G1 X166.605 Y127.344 E103.49206
G1 X165.614 Y130.926 E103.74174
G1 X164.709 Y133.567 E103.92929
G1 X163.553 Y136.405 E104.13516
G1 X162.191 Y139.26 E104.34767
G1 X160.657 Y142.038 E104.56086
G1 X158.708 Y145.087 E104.80397
G1 X156.881 Y147.585 E105.01188
G1 X154.867 Y150.021 E105.22422
G1 X152.711 Y152.334 E105.43664
G1 X150.666 Y154.291 E105.6268
G1 X147.875 Y156.653 E105.87243
G1 X145.473 Y158.445 E106.07376
G1 X142.832 Y160.183 E106.28615
G1 X140.093 Y161.761 E106.49851
G1 X137.509 Y163.056 E106.69268
G1 X134.145 Y164.493 E106.93843
G1 X131.38 Y165.479 E107.13564
G1 X128.345 Y166.365 E107.34804
G1 X125.263 Y167.069 E107.56042
G1 X122.353 Y167.557 E107.75864
G1 X118.668 Y167.942 E108.00755
G1 X115.682 Y168.068 E108.20833
G1 X112.786 Y168.026 E108.4029
G1 X109.233 Y167.758 E108.64227
G1 X106.49 Y167.386 E108.82823
G1 X103.376 Y166.785 E109.04129
G1 X99.907 Y165.882 E109.2821
G1 X96.895 Y164.891 E109.49512
G1 X93.947 Y163.721 E109.70819
G1 X91.075 Y162.377 E109.92121
G1 X88.288 Y160.864 E110.13425
G1 X85.679 Y159.245 E110.34053
G1 X83.395 Y157.64 E110.52807
G1 X80.488 Y155.325 E110.77772
