; generated by PrusaSlicer 2.9.1 on 2025-11-21 at 15:29:30 UTC

; 

; external perimeters extrusion width = 0.70mm
; perimeters extrusion width = 0.70mm
; infill extrusion width = 0.70mm
; solid infill extrusion width = 0.70mm
; top infill extrusion width = 0.70mm
; first layer extrusion width = 0.70mm

; external perimeters extrusion width = 0.70mm
; perimeters extrusion width = 0.70mm
; infill extrusion width = 0.70mm
; solid infill extrusion width = 0.70mm
; top infill extrusion width = 0.70mm
; first layer extrusion width = 0.70mm

; external perimeters extrusion width = 0.70mm
; perimeters extrusion width = 0.70mm
; infill extrusion width = 0.70mm
; solid infill extrusion width = 0.70mm
; top infill extrusion width = 0.70mm
; first layer extrusion width = 0.70mm

M190 S40 ; set bed temperature and wait for it to be reached
M104 S230 ; set temperature
;TYPE:Custom
G28 ; home all axes
G1 Z5 F5000 ; lift nozzle
M109 S230 ; set temperature and wait for it to be reached
G21 ; set units to millimeters
G90 ; use absolute coordinates
M82 ; use absolute distances for extrusion
G92 E0
; Filament gcode
M107
;LAYER_CHANGE
;Z:0.25
;HEIGHT:0.25
G1 E-2 F2400
G92 E0
G1 E.7
G1 Z.25 F9600
G1 X98.932 Y75.287
G1 E3.4 F2400
;COLOR_CHANGE,T0,#2D1ECA
M600
;TYPE:Skirt/Brim
;WIDTH:0.7
G1 F1800
G1 X99.793 Y74.271 E3.48947
G1 X101.209 Y72.834 E3.625
G1 X102.211 Y71.958 E3.71441
G1 X103.79 Y70.775 E3.84696
G1 X106.073 Y69.409 E4.02569
G1 X107.904 Y68.561 E4.16125
G1 X110.422 Y67.702 E4.33998
G1 X111.715 Y67.388 E4.42937
G1 X113.662 Y67.064 E4.56197
G1 X114.987 Y66.944 E4.65135
G1 X117.005 Y66.914 E4.78693
G1 X118.973 Y67.062 E4.91951
G1 X120.964 Y67.392 E5.05509
G1 X122.411 Y67.753 E5.15528
G1 X124.133 Y68.318 E5.27703
G1 X125.989 Y69.111 E5.41262
G1 X127.17 Y69.725 E5.50204
G1 X128.849 Y70.762 E5.63462
G1 X130.463 Y71.973 E5.77018
G1 X132.371 Y73.738 E5.94479
G1 X156.835 Y99.826 E8.34743
G1 X157.966 Y101.141 E8.46395
G1 X159.497 Y103.317 E8.64269
G1 X160.711 Y105.561 E8.81409
G1 X172.518 Y131.431 E10.72449
G1 X173.416 Y133.934 E10.90314
G1 X173.895 Y135.895 E11.03875
G1 X174.251 Y138.532 E11.21751
G1 X174.31 Y140.504 E11.35005
G1 X174.112 Y143.158 E11.52884
G1 X173.599 Y145.767 E11.70747
G1 X172.779 Y148.298 E11.8862
G1 X171.958 Y150.142 E12.0218
G1 X170.627 Y152.445 E12.2005
G1 X169.03 Y154.572 E12.37919
G1 X167.687 Y156.019 E12.51182
G1 X165.685 Y157.77 E12.6905
G1 X164.082 Y158.903 E12.82237
G1 X127.227 Y181.889 E15.74038
G1 X124.83 Y183.045 E15.91916
G1 X122.313 Y183.906 E16.09787
G1 X121.02 Y184.222 E16.18729
G1 X119.03 Y184.553 E16.32282
G1 X116.374 Y184.711 E16.50157
G1 X115.044 Y184.67 E16.59096
G1 X113.081 Y184.464 E16.72356
G1 X111.102 Y184.074 E16.85907
G1 X109.207 Y183.52 E16.99171
G1 X107.329 Y182.783 E17.12724
G1 X106.13 Y182.205 E17.21666
G1 X104.421 Y181.218 E17.34924
G1 X103.321 Y180.469 E17.43864
G1 X102.268 Y179.656 E17.52801
G1 X100.768 Y178.306 E17.66358
G1 X99.426 Y176.859 E17.79616
G1 X98.192 Y175.263 E17.93169
G1 X97.459 Y174.151 E18.02116
G1 X96.498 Y172.428 E18.1537
G1 X95.938 Y171.221 E18.24309
G1 X95.229 Y169.331 E18.3787
G1 X94.561 Y166.757 E18.55735
G1 X94.207 Y164.153 E18.7339
G1 X92.779 Y141.389 E20.2662
G1 X92.758 Y114.678 E22.06065
G1 X94.21 Y86.81 E23.93537
G1 X94.504 Y84.858 E24.06798
G1 X94.983 Y82.898 E24.20353
G1 X95.621 Y81.03 E24.33614
G1 X96.441 Y79.186 E24.47172
G1 X97.773 Y76.883 E24.65045
G1 X98.897 Y75.335 E24.77897
G1 X99.42 Y75.715 F9600
G1 F1800
G1 X99.444 Y75.682 E24.78171
G1 X100.279 Y74.696 E24.86851
G1 X101.641 Y73.314 E24.99886
G1 X102.614 Y72.464 E25.08566
G1 X104.162 Y71.303 E25.21565
G1 X105.251 Y70.608 E25.30244
G1 X106.96 Y69.688 E25.43283
G1 X108.14 Y69.163 E25.51959
G1 X110.585 Y68.328 E25.69316
G1 X112.471 Y67.897 E25.82313
G1 X115.036 Y67.589 E25.99669
G1 X116.976 Y67.56 E26.12703
G1 X118.906 Y67.704 E26.25705
G1 X120.82 Y68.022 E26.3874
G1 X122.23 Y68.374 E26.48503
G1 X123.915 Y68.927 E26.60417
G1 X125.7 Y69.689 E26.73456
G1 X126.847 Y70.285 E26.8214
G1 X128.493 Y71.302 E26.95138
G1 X130.045 Y72.466 E27.08171
G1 X131.899 Y74.181 E27.25138
G1 X156.363 Y100.268 E29.65397
G1 X157.455 Y101.537 E29.76644
G1 X158.942 Y103.649 E29.93996
G1 X160.123 Y105.83 E30.10658
G1 X171.927 Y131.694 E32.01653
G1 X172.799 Y134.125 E32.19003
G1 X173.259 Y136.011 E32.32045
G1 X173.605 Y138.571 E32.494
G1 X173.663 Y140.504 E32.62392
G1 X173.47 Y143.08 E32.79746
G1 X172.971 Y145.614 E32.97096
G1 X172.173 Y148.071 E33.14451
G1 X171.384 Y149.844 E33.27488
G1 X170.092 Y152.08 E33.44837
G1 X168.543 Y154.147 E33.6219
G1 X167.227 Y155.566 E33.75191
G1 X165.282 Y157.265 E33.92541
G1 X163.739 Y158.355 E34.05232
G1 X126.903 Y181.33 E36.96886
G1 X124.576 Y182.451 E37.14238
G1 X122.132 Y183.286 E37.31589
G1 X120.877 Y183.592 E37.40267
G1 X118.962 Y183.91 E37.53308
G1 X116.384 Y184.064 E37.70658
G1 X115.092 Y184.026 E37.79341
G1 X113.168 Y183.823 E37.92338
G1 X111.264 Y183.448 E38.05375
G1 X109.407 Y182.906 E38.18371
G1 X108.197 Y182.452 E38.27053
G1 X106.436 Y181.636 E38.40092
G1 X104.761 Y180.669 E38.53085
G1 X103.693 Y179.941 E38.61768
G1 X102.671 Y179.151 E38.70446
G1 X101.229 Y177.852 E38.83484
G1 X99.913 Y176.434 E38.96481
G1 X98.726 Y174.899 E39.09517
G1 X98.014 Y173.82 E39.18202
G1 X97.072 Y172.13 E39.312
G1 X96.528 Y170.958 E39.3988
G1 X95.847 Y169.141 E39.52916
G1 X95.197 Y166.641 E39.70269
G1 X94.852 Y164.113 E39.8741
G1 X93.424 Y141.35 E41.40633
G1 X93.405 Y114.678 E43.19816
G1 X94.852 Y86.887 E45.06769
G1 X95.14 Y84.973 E45.19772
G1 X95.6 Y83.088 E45.32807
G1 X96.226 Y81.257 E45.45807
G1 X97.015 Y79.484 E45.58844
G1 X98.307 Y77.247 E45.76199
G1 X99.385 Y75.764 E45.88516
G1 X99.907 Y76.143 F9600
G1 F1800
G1 X99.955 Y76.078 E45.89059
G1 X100.766 Y75.121 E45.97486
G1 X102.074 Y73.794 E46.10004
G1 X103.017 Y72.969 E46.18421
G1 X104.534 Y71.832 E46.31157
G1 X105.591 Y71.157 E46.39582
G1 X107.232 Y70.275 E46.52098
G1 X108.377 Y69.764 E46.60521
G1 X110.748 Y68.953 E46.77355
G1 X111.965 Y68.656 E46.85771
G1 X113.836 Y68.345 E46.98513
G1 X115.084 Y68.233 E47.06931
G1 X116.947 Y68.205 E47.19448
G1 X118.838 Y68.347 E47.32188
G1 X120.676 Y68.652 E47.44705
G1 X122.048 Y68.994 E47.54204
G1 X123.697 Y69.535 E47.65863
G1 X125.411 Y70.267 E47.78384
G1 X126.523 Y70.844 E47.868
G1 X128.136 Y71.841 E47.99539
G1 X129.627 Y72.959 E48.12059
G1 X131.428 Y74.623 E48.28532
G1 X155.892 Y100.71 E50.68791
G1 X156.944 Y101.932 E50.79623
G1 X158.387 Y103.98 E50.96454
G1 X159.535 Y106.098 E51.12638
G1 X171.337 Y131.957 E53.03597
G1 X172.181 Y134.316 E53.20429
G1 X172.623 Y136.126 E53.32946
G1 X172.96 Y138.609 E53.4978
G1 X173.017 Y140.504 E53.62516
G1 X172.829 Y143.003 E53.79352
G1 X172.344 Y145.461 E53.96183
G1 X171.568 Y147.844 E54.13019
G1 X170.81 Y149.546 E54.25536
G1 X169.558 Y151.716 E54.42366
G1 X168.056 Y153.722 E54.59201
G1 X166.766 Y155.112 E54.71941
G1 X164.879 Y156.76 E54.88772
G1 X163.397 Y157.806 E55.00958
G1 X126.58 Y180.77 E57.92464
G1 X124.322 Y181.856 E58.09297
G1 X121.951 Y182.665 E58.26127
G1 X120.733 Y182.962 E58.34549
G1 X118.895 Y183.267 E58.47066
G1 X116.394 Y183.418 E58.63898
G1 X115.141 Y183.381 E58.72319
G1 X113.255 Y183.183 E58.85059
G1 X111.427 Y182.823 E58.97575
G1 X109.607 Y182.291 E59.10313
G1 X108.433 Y181.85 E59.18738
G1 X106.743 Y181.067 E59.31251
G1 X105.101 Y180.119 E59.43988
G1 X104.065 Y179.412 E59.52414
G1 X103.074 Y178.645 E59.60833
G1 X101.689 Y177.398 E59.73353
G1 X100.4 Y176.008 E59.86088
G1 X99.26 Y174.535 E59.98601
G1 X98.569 Y173.488 E60.07029
G1 X97.646 Y171.833 E60.1976
G1 X97.119 Y170.695 E60.28185
G1 X96.464 Y168.95 E60.40707
G1 X95.833 Y166.526 E60.57534
G1 X95.497 Y164.072 E60.74174
G1 X94.069 Y141.311 E62.27384
G1 X94.051 Y114.678 E64.06305
G1 X95.494 Y86.964 E65.9274
G1 X95.776 Y85.088 E66.05485
G1 X96.218 Y83.279 E66.17995
G1 X96.831 Y81.484 E66.30738
G1 X97.589 Y79.782 E66.43255
G1 X98.841 Y77.611 E66.60091
G1 X99.872 Y76.192 E66.71874
G1 X100.395 Y76.572 F9600
G1 F1800
G1 X100.466 Y76.473 E66.72692
G1 X101.253 Y75.547 E66.80856
G1 X102.506 Y74.275 E66.92851
G1 X103.42 Y73.474 E67.01016
G1 X104.907 Y72.36 E67.13498
G1 X106.992 Y71.117 E67.29805
G1 X108.613 Y70.366 E67.41807
G1 X110.91 Y69.579 E67.58119
G1 X112.09 Y69.29 E67.66281
G1 X113.922 Y68.986 E67.78757
G1 X115.132 Y68.878 E67.86918
G1 X116.918 Y68.851 E67.98918
G1 X118.77 Y68.99 E68.11395
G1 X120.532 Y69.283 E68.23395
G1 X121.713 Y69.569 E68.31558
G1 X123.479 Y70.144 E68.44035
G1 X125.121 Y70.845 E68.56029
G1 X126.2 Y71.404 E68.64193
G1 X127.78 Y72.381 E68.76673
G1 X129.209 Y73.452 E68.8867
G1 X130.956 Y75.065 E69.04644
G1 X155.42 Y101.152 E71.44903
G1 X156.432 Y102.327 E71.55321
G1 X157.832 Y104.312 E71.71639
G1 X158.947 Y106.367 E71.87346
G1 X170.746 Y132.22 E73.7826
G1 X171.563 Y134.506 E73.94569
G1 X171.987 Y136.242 E74.06574
G1 X172.315 Y138.648 E74.22887
G1 X172.371 Y140.504 E74.35361
G1 X172.187 Y142.926 E74.51679
G1 X171.716 Y145.308 E74.67991
G1 X170.963 Y147.617 E74.84307
G1 X170.237 Y149.249 E74.96307
G1 X169.024 Y151.352 E75.12617
G1 X167.57 Y153.297 E75.28931
G1 X166.306 Y154.658 E75.41409
G1 X164.476 Y156.254 E75.57722
G1 X163.055 Y157.258 E75.69411
G1 X126.257 Y180.21 E78.60766
G1 X124.068 Y181.262 E78.77082
G1 X121.769 Y182.045 E78.93398
G1 X120.589 Y182.332 E79.01556
G1 X118.827 Y182.624 E79.13555
G1 X116.403 Y182.772 E79.2987
G1 X115.189 Y182.736 E79.38029
G1 X113.342 Y182.542 E79.50505
G1 X111.589 Y182.197 E79.62508
G1 X109.806 Y181.676 E79.74987
G1 X108.67 Y181.248 E79.83142
G1 X107.049 Y180.498 E79.95141
G1 X105.44 Y179.569 E80.07623
G1 X104.437 Y178.884 E80.15783
G1 X103.477 Y178.14 E80.23942
G1 X102.15 Y176.945 E80.35939
G1 X100.886 Y175.583 E80.48422
G1 X99.794 Y174.17 E80.60419
G1 X99.124 Y173.157 E80.68578
G1 X98.219 Y171.535 E80.81056
G1 X97.709 Y170.432 E80.8922
G1 X97.082 Y168.76 E81.01216
G1 X96.469 Y166.411 E81.17525
G1 X96.142 Y164.032 E81.33657
G1 X94.715 Y141.273 E82.86853
G1 X94.697 Y114.678 E84.65519
G1 X96.135 Y87.041 E86.51436
G1 X96.412 Y85.204 E86.63917
G1 X96.836 Y83.469 E86.75916
G1 X97.436 Y81.711 E86.88395
G1 X98.163 Y80.079 E87.00397
G1 X99.375 Y77.975 E87.16709
G1 X100.359 Y76.62 E87.27959
G1 X100.895 Y77.02 F9600
G1 F1800
G1 X101.316 Y76.456 E87.32687
G1 X102.215 Y75.467 E87.41666
G1 X103.417 Y74.325 E87.52804
G1 X104.326 Y73.579 E87.60704
G1 X105.723 Y72.595 E87.72183
G1 X107.298 Y71.686 E87.844
G1 X109.448 Y70.733 E88.00199
G1 X111.073 Y70.205 E88.11678
G1 X112.373 Y69.893 E88.20659
G1 X114.009 Y69.626 E88.31795
G1 X115.181 Y69.522 E88.39699
G1 X116.889 Y69.497 E88.51175
G1 X118.703 Y69.633 E88.63396
G1 X120.388 Y69.913 E88.74871
G1 X121.686 Y70.235 E88.83855
G1 X123.261 Y70.752 E88.94991
G1 X124.832 Y71.424 E89.0647
G1 X126.434 Y72.285 E89.18688
G1 X127.86 Y73.227 E89.30169
G1 X129.282 Y74.361 E89.42388
G1 X130.485 Y75.507 E89.5355
G1 X154.949 Y101.594 E91.93809
G1 X156.315 Y103.232 E92.08137
G1 X157.277 Y104.643 E92.1961
G1 X158.359 Y106.635 E92.34839
G1 X170.156 Y132.483 E94.25717
G1 X170.946 Y134.697 E94.41509
G1 X171.351 Y136.357 E94.52988
G1 X171.67 Y138.686 E94.6878
G1 X171.724 Y140.504 E94.80999
G1 X171.545 Y142.849 E94.96799
G1 X171.088 Y145.154 E95.12585
G1 X170.358 Y147.389 E95.2838
G1 X169.663 Y148.951 E95.39865
G1 X168.49 Y150.988 E95.55656
G1 X167.083 Y152.871 E95.71447
G1 X165.846 Y154.205 E95.83669
G1 X164.073 Y155.749 E95.99463
G1 X162.712 Y156.71 E96.10656
G1 X125.934 Y179.65 E99.01855
G1 X123.814 Y180.668 E99.17654
G1 X121.588 Y181.424 E99.33447
G1 X120.445 Y181.702 E99.4135
G1 X118.76 Y181.982 E99.52825
G1 X116.413 Y182.125 E99.68621
G1 X115.237 Y182.092 E99.76525
G1 X113.428 Y181.902 E99.88745
G1 X111.752 Y181.572 E100.00221
G1 X110.006 Y181.062 E100.12441
G1 X108.906 Y180.647 E100.20339
G1 X107.355 Y179.928 E100.31824
G1 X105.78 Y179.019 E100.44041
G1 X104.809 Y178.355 E100.51944
G1 X103.88 Y177.635 E100.5984
G1 X102.61 Y176.491 E100.71323
G1 X101.373 Y175.158 E100.8354
G1 X100.328 Y173.806 E100.9502
G1 X99.678 Y172.825 E101.02926
G1 X98.793 Y171.237 E101.15139
G1 X98.3 Y170.169 E101.23041
G1 X97.699 Y168.569 E101.34523
G1 X97.105 Y166.295 E101.50312
G1 X96.788 Y163.991 E101.65936
G1 X95.36 Y141.234 E103.19119
G1 X95.344 Y114.678 E104.97523
G1 X96.777 Y87.118 E106.82922
G1 X97.048 Y85.319 E106.95144
G1 X97.453 Y83.66 E107.06616
G1 X97.815 Y82.54 E107.14523
G1 X98.505 Y80.858 E107.26737
G1 X99.292 Y79.341 E107.38218
G1 X99.909 Y78.339 E107.46123
G1 X100.859 Y77.068 E107.56783
G1 X101.376 Y77.454 F9600
G1 F1800
G1 X101.803 Y76.882 E107.61578
G1 X102.563 Y76.035 E107.69223
G1 X103.849 Y74.805 E107.81178
G1 X106.063 Y73.145 E107.99768
G1 X107.605 Y72.255 E108.11729
G1 X108.63 Y71.764 E108.19364
G1 X111.235 Y70.83 E108.37955
G1 X112.971 Y70.434 E108.49917
G1 X114.096 Y70.267 E108.57558
G1 X116.86 Y70.143 E108.76145
G1 X118.635 Y70.276 E108.88103
G1 X120.245 Y70.543 E108.99067
G1 X121.504 Y70.855 E109.07781
G1 X123.043 Y71.36 E109.18662
G1 X124.543 Y72.002 E109.29623
G1 X126.111 Y72.845 E109.41583
G1 X127.472 Y73.744 E109.52541
G1 X128.864 Y74.854 E109.64502
G1 X130.013 Y75.949 E109.75165
G1 X154.477 Y102.036 E112.15424
G1 X155.803 Y103.627 E112.29338
G1 X156.722 Y104.975 E112.40298
G1 X157.771 Y106.904 E112.55049
G1 X169.565 Y132.746 E114.45882
G1 X170.328 Y134.887 E114.61151
G1 X170.715 Y136.472 E114.72112
G1 X171.025 Y138.725 E114.8739
G1 X171.078 Y140.504 E114.99347
G1 X170.903 Y142.772 E115.14629
G1 X170.46 Y145.001 E115.29896
G1 X169.753 Y147.162 E115.45171
G1 X169.089 Y148.653 E115.56136
G1 X167.956 Y150.624 E115.71409
G1 X166.596 Y152.446 E115.86683
G1 X165.385 Y153.751 E115.98643
G1 X163.67 Y155.244 E116.13919
G1 X162.37 Y156.162 E116.2461
G1 X125.611 Y179.091 E119.15661
G1 X123.56 Y180.073 E119.30938
G1 X121.407 Y180.804 E119.46213
G1 X118.692 Y181.339 E119.64803
G1 X116.423 Y181.479 E119.80075
G1 X115.286 Y181.447 E119.87716
G1 X113.515 Y181.261 E119.99679
G1 X111.915 Y180.946 E120.10634
G1 X110.206 Y180.447 E120.22594
G1 X107.661 Y179.359 E120.41188
G1 X106.12 Y178.469 E120.53143
G1 X104.786 Y177.53 E120.64102
G1 X103.428 Y176.379 E120.76061
G1 X102.283 Y175.217 E120.8702
G1 X101.546 Y174.351 E120.94659
G1 X100.5 Y172.911 E121.06616
G1 X99.152 Y170.494 E121.25208
G1 X98.477 Y168.847 E121.37166
G1 X98.128 Y167.764 E121.4481
G1 X97.741 Y166.18 E121.55764
G1 X97.433 Y163.951 E121.70881
G1 X96.005 Y141.195 E123.24057
G1 X95.99 Y114.678 E125.02199
G1 X97.419 Y87.195 E126.8708
G1 X97.684 Y85.435 E126.99037
G1 X98.071 Y83.85 E127.09998
G1 X98.42 Y82.767 E127.17642
G1 X99.095 Y81.121 E127.29594
G1 X100.443 Y78.704 E127.48186
G1 X101.34 Y77.502 E127.58262
G1 X101.857 Y77.888 F9600
G1 F1800
G1 X102.29 Y77.307 E127.6313
G1 X103.023 Y76.489 E127.70509
G1 X104.282 Y75.285 E127.82212
G1 X106.403 Y73.695 E128.0002
G1 X107.911 Y72.824 E128.11719
G1 X108.902 Y72.35 E128.19099
G1 X111.398 Y71.456 E128.3691
G1 X112.465 Y71.193 E128.44293
G1 X114.183 Y70.907 E128.55993
G1 X116.831 Y70.788 E128.738
G1 X118.568 Y70.918 E128.85502
G1 X120.101 Y71.173 E128.95942
G1 X121.323 Y71.476 E129.044
G1 X122.825 Y71.969 E129.1502
G1 X124.254 Y72.58 E129.25461
G1 X125.788 Y73.405 E129.37162
G1 X127.085 Y74.261 E129.47602
G1 X128.446 Y75.347 E129.59299
G1 X129.542 Y76.391 E129.69468
G1 X154.006 Y102.479 E132.09732
G1 X155.292 Y104.022 E132.23226
G1 X156.167 Y105.306 E132.33664
G1 X157.184 Y107.172 E132.47941
G1 X168.975 Y133.008 E134.38729
G1 X169.71 Y135.078 E134.53486
G1 X170.079 Y136.588 E134.63929
G1 X170.379 Y138.764 E134.78686
G1 X170.431 Y140.504 E134.90381
G1 X170.262 Y142.694 E135.05137
G1 X169.832 Y144.848 E135.19893
G1 X169.148 Y146.935 E135.34647
G1 X168.516 Y148.355 E135.45089
G1 X167.422 Y150.26 E135.59847
G1 X166.109 Y152.021 E135.74604
G1 X164.595 Y153.613 E135.89363
G1 X162.902 Y155.012 E136.04117
G1 X125.287 Y178.531 E139.02145
G1 X123.306 Y179.479 E139.16899
G1 X121.226 Y180.184 E139.31653
G1 X118.624 Y180.696 E139.49468
G1 X116.432 Y180.833 E139.64223
G1 X115.334 Y180.803 E139.71602
G1 X113.602 Y180.621 E139.83302
G1 X112.077 Y180.32 E139.93745
G1 X110.406 Y179.832 E140.0544
G1 X107.968 Y178.79 E140.23252
G1 X106.46 Y177.919 E140.34951
G1 X105.189 Y177.025 E140.4539
G1 X103.86 Y175.899 E140.57092
G1 X102.77 Y174.792 E140.67529
