; generated by PrusaSlicer 2.9.1 on 2025-12-20 at 18:33:10 UTC

; 

; external perimeters extrusion width = 0.70mm
; perimeters extrusion width = 0.70mm
; infill extrusion width = 0.70mm
; solid infill extrusion width = 0.70mm
; top infill extrusion width = 0.70mm
; first layer extrusion width = 0.70mm

M190 S40 ; set bed temperature and wait for it to be reached
M104 S230 ; set temperature
;TYPE:Custom
G28 ; home all axes
G1 Z5 F5000 ; lift nozzle
M109 S230 ; set temperature and wait for it to be reached
G21 ; set units to millimeters
G90 ; use absolute coordinates
M82 ; use absolute distances for extrusion
G92 E0
; Filament gcode
M107
;LAYER_CHANGE
;Z:0.25
;HEIGHT:0.25
G1 E-2 F2400
G92 E0
G1 E.00001
G1 Z.25 F9600
G1 X76.216 Y75.093
G1 E2 F2400
;COLOR_CHANGE,T0,#2D1ECA
M600
;TYPE:Skirt/Brim
;WIDTH:0.7
G1 F1800
G1 X76.487 Y74.818 E2.02594
G1 X79.018 Y72.537 E2.25484
G1 X81.301 Y70.709 E2.45132
G1 X84.6 Y68.381 E2.72257
G1 X87.42 Y66.658 E2.94458
G1 X90.348 Y65.102 E3.16733
G1 X93.138 Y63.815 E3.37374
G1 X95.946 Y62.708 E3.57651
G1 X99.647 Y61.504 E3.83797
G1 X102.659 Y60.727 E4.04694
G1 X105.818 Y60.104 E4.26325
G1 X108.898 Y59.68 E4.47212
G1 X112.192 Y59.415 E4.69413
G1 X115.903 Y59.349 E4.94348
G1 X119.151 Y59.497 E5.16191
G1 X122.109 Y59.801 E5.36168
G1 X125.995 Y60.442 E5.62627
G1 X129.227 Y61.193 E5.84918
G1 X132.359 Y62.119 E6.06859
G1 X135.432 Y63.228 E6.28807
G1 X138.114 Y64.372 E6.48395
G1 X141.694 Y66.165 E6.75293
G1 X144.265 Y67.657 E6.95263
G1 X146.98 Y69.447 E7.1711
G1 X149.586 Y71.393 E7.3896
G1 X151.916 Y73.353 E7.59415
G1 X154.771 Y76.064 E7.85864
G1 X156.987 Y78.464 E8.07809
G1 X158.837 Y80.709 E8.27352
G1 X161.159 Y83.905 E8.53891
G1 X162.723 Y86.358 E8.73435
G1 X164.306 Y89.182 E8.95184
G1 X165.727 Y92.102 E9.17
G1 X166.996 Y95.153 E9.39199
G1 X168.297 Y98.976 E9.66328
G1 X169.069 Y101.797 E9.85976
G1 X169.776 Y105.129 E10.08859
G1 X170.253 Y108.297 E10.30382
G1 X170.534 Y111.338 E10.50899
G1 X170.653 Y115.345 E10.7783
G1 X170.549 Y118.48 E10.98903
G1 X170.253 Y121.703 E11.20646
G1 X169.776 Y124.871 E11.42169
G1 X169.156 Y127.826 E11.62453
G1 X168.085 Y131.719 E11.89578
G1 X167.16 Y134.418 E12.08745
G1 X165.936 Y137.431 E12.30593
G1 X164.32 Y140.792 E12.55647
G1 X162.931 Y143.287 E12.74831
G1 X160.803 Y146.616 E13.01374
G1 X159.04 Y149.034 E13.21478
G1 X156.987 Y151.536 E13.43221
G1 X154.791 Y153.915 E13.64971
G1 X152.453 Y156.168 E13.86784
G1 X149.374 Y158.769 E14.13861
G1 X146.98 Y160.553 E14.33918
G1 X144.265 Y162.343 E14.55765
G1 X141.45 Y163.971 E14.77611
G1 X138.742 Y165.336 E14.97984
G1 X135.062 Y166.914 E15.24883
G1 X132.172 Y167.943 E15.45492
G1 X128.839 Y168.91 E15.68807
G1 X125.759 Y169.609 E15.90025
G1 X122.828 Y170.102 E16.09992
G1 X118.813 Y170.524 E16.37113
G1 X115.903 Y170.651 E16.56681
G1 X112.651 Y170.608 E16.7853
G1 X108.898 Y170.32 E17.03817
G1 X105.822 Y169.897 E17.24676
G1 X102.611 Y169.262 E17.46665
G1 X99.417 Y168.433 E17.68833
G1 X96.537 Y167.503 E17.89165
G1 X92.853 Y166.059 E18.15747
G1 X89.846 Y164.647 E18.38064
G1 X86.977 Y163.087 E18.60003
G1 X84.215 Y161.369 E18.81855
G1 X81.881 Y159.728 E19.01022
G1 X78.726 Y157.209 E19.28144
G1 X76.487 Y155.182 E19.48434
G1 X74.239 Y152.9 E19.69954
G1 X72.105 Y150.466 E19.917
G1 X70.178 Y147.991 E20.12772
G1 X68.015 Y144.836 E20.3847
G1 X66.359 Y142.054 E20.6022
G1 X65.014 Y139.472 E20.79778
G1 X63.372 Y135.784 E21.06899
G1 X62.352 Y133.055 E21.26471
G1 X61.388 Y129.949 E21.48319
G1 X60.607 Y126.792 E21.70167
G1 X60.011 Y123.588 E21.92061
G1 X59.541 Y119.66 E22.18638
G1 X59.366 Y116.648 E22.38907
G1 X59.366 Y113.352 E22.6105
G1 X59.556 Y110.12 E22.828
G1 X59.918 Y107.042 E23.03621
G1 X60.607 Y103.208 E23.29791
G1 X61.388 Y100.051 E23.51639
G1 X62.226 Y97.323 E23.70811
G1 X63.648 Y93.544 E23.97936
G1 X64.884 Y90.789 E24.18221
G1 X66.359 Y87.946 E24.39738
G1 X68.015 Y85.164 E24.61488
G1 X69.797 Y82.532 E24.82841
G1 X72.225 Y79.395 E25.0949
G1 X74.239 Y77.1 E25.30003
G1 X76.216 Y75.093 E25.48929
G1 X76.677 Y75.547 F9600
G1 F1800
G1 X76.934 Y75.286 E25.5139
G1 X79.682 Y72.826 E25.76168
G1 X81.953 Y71.021 E25.95657
G1 X84.581 Y69.164 E26.17275
G1 X87.313 Y67.465 E26.38888
G1 X90.146 Y65.926 E26.60547
G1 X93.646 Y64.305 E26.86459
G1 X96.681 Y63.131 E27.0832
G1 X99.81 Y62.13 E27.3039
G1 X102.744 Y61.37 E27.50751
G1 X105.686 Y60.785 E27.70902
G1 X109.662 Y60.253 E27.97851
G1 X112.668 Y60.038 E28.18097
G1 X115.885 Y59.995 E28.39711
G1 X119.1 Y60.141 E28.61332
G1 X122.041 Y60.444 E28.81194
G1 X125.852 Y61.072 E29.07142
G1 X129.049 Y61.814 E29.2919
G1 X132.148 Y62.73 E29.509
G1 X135.188 Y63.826 E29.7261
G1 X137.86 Y64.966 E29.92126
G1 X141.371 Y66.724 E30.18505
G1 X143.929 Y68.209 E30.38376
G1 X146.615 Y69.98 E30.5999
G1 X149.192 Y71.906 E30.81603
G1 X151.498 Y73.847 E31.01852
G1 X154.302 Y76.509 E31.27826
G1 X156.495 Y78.882 E31.49533
G1 X158.338 Y81.12 E31.6901
G1 X160.614 Y84.253 E31.95025
G1 X162.173 Y86.697 E32.145
G1 X163.739 Y89.492 E32.36023
G1 X165.144 Y92.382 E32.57611
G1 X166.398 Y95.398 E32.79554
G1 X167.674 Y99.148 E33.06165
G1 X168.441 Y101.947 E33.25662
G1 X169.14 Y105.245 E33.4831
G1 X169.612 Y108.379 E33.69602
G1 X169.89 Y111.395 E33.89949
G1 X170.007 Y115.325 E34.16363
G1 X169.904 Y118.43 E34.37234
G1 X169.612 Y121.621 E34.58761
G1 X169.14 Y124.755 E34.80053
G1 X168.524 Y127.692 E35.00213
G1 X167.473 Y131.51 E35.26816
G1 X166.551 Y134.202 E35.45932
G1 X165.339 Y137.183 E35.6755
G1 X163.753 Y140.484 E35.92153
G1 X162.366 Y142.973 E36.11295
G1 X160.28 Y146.236 E36.37313
G1 X158.527 Y148.641 E36.57306
G1 X156.495 Y151.118 E36.78829
G1 X154.321 Y153.471 E37.00351
G1 X152.007 Y155.701 E37.2194
G1 X148.986 Y158.252 E37.48503
G1 X146.615 Y160.02 E37.68372
G1 X143.929 Y161.791 E37.89986
G1 X141.143 Y163.402 E38.11606
G1 X138.453 Y164.758 E38.31844
G1 X134.844 Y166.305 E38.58223
G1 X131.972 Y167.328 E38.78705
G1 X128.687 Y168.281 E39.01684
G1 X125.636 Y168.974 E39.22703
G1 X122.722 Y169.464 E39.42554
G1 X118.784 Y169.879 E39.69156
G1 X115.885 Y170.005 E39.8865
G1 X112.668 Y169.962 E40.10264
G1 X108.984 Y169.679 E40.35086
G1 X105.933 Y169.26 E40.55775
G1 X102.753 Y168.632 E40.77551
G1 X99.595 Y167.811 E40.99472
G1 X96.737 Y166.888 E41.19649
G1 X93.125 Y165.473 E41.4571
G1 X90.152 Y164.078 E41.67772
G1 X87.313 Y162.535 E41.89479
G1 X84.581 Y160.836 E42.11092
G1 X82.253 Y159.2 E42.30207
G1 X79.158 Y156.728 E42.56817
G1 X76.934 Y154.714 E42.76974
G1 X74.709 Y152.457 E42.98266
G1 X72.597 Y150.047 E43.19794
G1 X70.69 Y147.596 E43.40657
G1 X68.565 Y144.497 E43.65901
G1 X66.926 Y141.744 E43.87425
G1 X65.588 Y139.175 E44.06884
G1 X63.977 Y135.557 E44.3349
G1 X62.961 Y132.839 E44.52984
G1 X62.008 Y129.766 E44.74598
G1 X61.236 Y126.643 E44.9621
G1 X60.647 Y123.473 E45.17871
G1 X60.186 Y119.621 E45.43933
G1 X60.012 Y116.631 E45.64054
G1 X60.012 Y113.369 E45.85968
G1 X60.201 Y110.17 E46.07496
G1 X60.559 Y107.119 E46.28133
G1 X61.236 Y103.357 E46.53812
G1 X62.008 Y100.234 E46.75424
G1 X62.844 Y97.514 E46.94541
G1 X64.238 Y93.807 E47.21147
G1 X65.466 Y91.069 E47.41306
G1 X66.926 Y88.256 E47.62598
G1 X68.565 Y85.503 E47.84122
G1 X70.329 Y82.899 E48.05252
G1 X72.712 Y79.82 E48.31408
G1 X74.709 Y77.543 E48.51755
G1 X76.677 Y75.547 E48.70586
G1 X77.137 Y76 F9600
G1 F1800
G1 X77.38 Y75.753 E48.72914
G1 X80.085 Y73.332 E48.97302
G1 X82.347 Y71.533 E49.16718
G1 X84.947 Y69.697 E49.38101
G1 X87.65 Y68.017 E49.59481
G1 X90.452 Y66.495 E49.80903
G1 X93.882 Y64.907 E50.06296
G1 X96.881 Y63.745 E50.27903
G1 X99.973 Y62.755 E50.49714
G1 X102.866 Y62.005 E50.69792
G1 X105.811 Y61.419 E50.89964
G1 X109.71 Y60.898 E51.1639
G1 X112.685 Y60.684 E51.36428
G1 X115.868 Y60.642 E51.57813
G1 X119.048 Y60.785 E51.79198
G1 X121.974 Y61.087 E51.98959
G1 X125.754 Y61.711 E52.24697
G1 X128.871 Y62.435 E52.46195
G1 X131.937 Y63.341 E52.67673
G1 X134.945 Y64.425 E52.89153
G1 X137.606 Y65.56 E53.08588
G1 X141.048 Y67.284 E53.3445
G1 X143.592 Y68.76 E53.54209
G1 X146.249 Y70.513 E53.75594
G1 X148.799 Y72.418 E53.96978
G1 X151.08 Y74.34 E54.17016
G1 X153.833 Y76.953 E54.42515
G1 X156.003 Y79.301 E54.63994
G1 X157.838 Y81.53 E54.8339
G1 X160.069 Y84.601 E55.08891
G1 X161.622 Y87.036 E55.28293
G1 X163.172 Y89.802 E55.49594
G1 X164.562 Y92.662 E55.70957
G1 X165.8 Y95.644 E55.92648
G1 X167.051 Y99.32 E56.18734
G1 X167.812 Y102.096 E56.38071
G1 X168.504 Y105.361 E56.60493
G1 X168.971 Y108.462 E56.8156
G1 X169.246 Y111.453 E57.01738
G1 X169.361 Y115.306 E57.27634
G1 X169.26 Y118.381 E57.48303
G1 X168.971 Y121.538 E57.696
G1 X168.504 Y124.639 E57.90667
G1 X167.892 Y127.557 E58.10697
G1 X166.861 Y131.301 E58.36786
G1 X165.942 Y133.986 E58.55851
G1 X164.743 Y136.934 E58.77231
G1 X163.185 Y140.175 E59.01389
G1 X161.802 Y142.658 E59.20483
G1 X159.757 Y145.856 E59.45984
G1 X158.014 Y148.248 E59.65867
G1 X156.003 Y150.699 E59.87166
G1 X153.851 Y153.028 E60.08469
G1 X151.56 Y155.233 E60.29831
G1 X148.598 Y157.735 E60.55879
G1 X146.249 Y159.487 E60.75566
G1 X143.592 Y161.24 E60.96951
G1 X140.837 Y162.833 E61.1833
G1 X138.164 Y164.18 E61.38438
G1 X134.626 Y165.697 E61.64299
G1 X131.773 Y166.713 E61.84645
G1 X128.536 Y167.653 E62.0729
G1 X125.512 Y168.34 E62.28123
G1 X122.617 Y168.826 E62.47844
G1 X118.755 Y169.233 E62.73933
G1 X115.868 Y169.358 E62.93346
G1 X112.685 Y169.316 E63.14731
G1 X109.071 Y169.039 E63.39081
G1 X106.043 Y168.623 E63.59614
G1 X102.895 Y168.001 E63.81171
G1 X99.773 Y167.19 E64.02841
G1 X96.936 Y166.274 E64.22869
G1 X93.397 Y164.886 E64.48407
G1 X90.458 Y163.508 E64.70214
G1 X87.65 Y161.983 E64.91681
G1 X84.947 Y160.303 E65.13061
G1 X82.625 Y158.671 E65.32128
G1 X79.591 Y156.248 E65.58213
G1 X77.38 Y154.247 E65.78246
G1 X75.179 Y152.013 E65.99314
G1 X73.09 Y149.628 E66.20614
G1 X71.201 Y147.2 E66.41281
G1 X69.116 Y144.158 E66.66057
G1 X67.493 Y141.434 E66.87359
G1 X66.162 Y138.877 E67.06725
G1 X64.582 Y135.33 E67.32811
G1 X63.57 Y132.623 E67.52226
G1 X62.627 Y129.583 E67.73609
G1 X61.865 Y126.493 E67.9499
G1 X61.283 Y123.358 E68.16411
G1 X60.831 Y119.582 E68.41959
G1 X60.658 Y116.615 E68.61925
G1 X60.658 Y113.385 E68.83624
G1 X60.845 Y110.219 E69.0493
G1 X61.201 Y107.196 E69.25379
G1 X61.865 Y103.507 E69.5056
G1 X62.627 Y100.417 E69.71941
G1 X63.462 Y97.704 E69.91011
G1 X64.829 Y94.07 E70.17094
G1 X66.049 Y91.349 E70.37127
G1 X67.493 Y88.566 E70.5819
G1 X69.116 Y85.842 E70.79492
G1 X70.861 Y83.265 E71.004
G1 X73.198 Y80.246 E71.26048
G1 X75.179 Y77.987 E71.46233
G1 X77.137 Y76 E71.64974
G1 X77.597 Y76.453 F9600
G1 F1800
G1 X77.826 Y76.221 E71.67164
G1 X80.488 Y73.837 E71.91171
G1 X82.741 Y72.046 E72.10506
G1 X85.313 Y70.23 E72.31658
G1 X87.987 Y68.568 E72.52809
G1 X90.758 Y67.064 E72.7399
G1 X94.118 Y65.508 E72.98866
G1 X97.081 Y64.36 E73.20213
G1 X100.136 Y63.381 E73.41765
G1 X103.014 Y62.635 E73.61738
G1 X105.936 Y62.053 E73.81754
G1 X109.759 Y61.542 E74.07665
G1 X112.703 Y61.331 E74.27494
G1 X115.851 Y61.288 E74.48644
G1 X118.996 Y61.43 E74.69794
G1 X121.906 Y61.73 E74.89447
G1 X125.584 Y62.336 E75.14489
G1 X128.693 Y63.057 E75.3593
G1 X131.726 Y63.952 E75.57174
G1 X134.701 Y65.024 E75.78418
G1 X137.352 Y66.155 E75.97781
G1 X140.724 Y67.844 E76.23117
G1 X143.255 Y69.312 E76.42773
G1 X145.883 Y71.046 E76.63925
G1 X148.405 Y72.931 E76.85077
G1 X150.662 Y74.833 E77.04906
G1 X153.364 Y77.398 E77.29935
G1 X155.51 Y79.72 E77.51176
G1 X157.339 Y81.941 E77.70505
G1 X159.525 Y84.949 E77.95485
G1 X161.072 Y87.375 E78.14815
G1 X162.605 Y90.112 E78.3589
G1 X163.979 Y92.942 E78.57024
G1 X165.202 Y95.889 E78.78459
G1 X166.428 Y99.491 E79.04021
G1 X167.183 Y102.246 E79.23212
G1 X167.868 Y105.477 E79.454
G1 X168.33 Y108.544 E79.66237
G1 X168.603 Y111.511 E79.86254
G1 X168.715 Y115.287 E80.11632
G1 X168.616 Y118.331 E80.32092
G1 X168.33 Y121.456 E80.53174
G1 X167.868 Y124.523 E80.74011
G1 X167.26 Y127.423 E80.93917
G1 X166.25 Y131.092 E81.19482
G1 X165.333 Y133.77 E81.38498
G1 X164.146 Y136.686 E81.59649
G1 X162.617 Y139.866 E81.83353
G1 X161.237 Y142.343 E82.02402
G1 X159.234 Y145.476 E82.27383
G1 X157.501 Y147.855 E82.47156
G1 X155.51 Y150.28 E82.68235
G1 X153.381 Y152.584 E82.8931
G1 X151.114 Y154.766 E83.10448
G1 X148.211 Y157.218 E83.35976
G1 X145.883 Y158.954 E83.55485
G1 X143.255 Y160.688 E83.76637
G1 X140.53 Y162.264 E83.97785
G1 X137.874 Y163.602 E84.17764
G1 X134.408 Y165.088 E84.43098
G1 X131.573 Y166.099 E84.63318
G1 X128.385 Y167.024 E84.85618
G1 X125.383 Y167.707 E85.06301
G1 X122.511 Y168.189 E85.25865
G1 X118.726 Y168.587 E85.51433
G1 X115.851 Y168.712 E85.70766
G1 X112.703 Y168.669 E85.91916
G1 X109.157 Y168.398 E86.15808
G1 X106.179 Y167.991 E86.36
G1 X103.037 Y167.37 E86.57516
G1 X99.951 Y166.568 E86.78936
G1 X97.136 Y165.659 E86.98809
G1 X93.668 Y164.3 E87.23832
G1 X90.765 Y162.939 E87.45371
G1 X87.987 Y161.432 E87.66603
G1 X85.313 Y159.77 E87.87754
G1 X82.997 Y158.143 E88.06768
G1 X80.023 Y155.768 E88.32336
G1 X77.826 Y153.779 E88.52246
G1 X75.65 Y151.57 E88.73077
G1 X73.582 Y149.209 E88.94162
G1 X71.712 Y146.805 E89.14623
G1 X69.666 Y143.82 E89.38935
G1 X68.061 Y141.124 E89.60013
G1 X66.735 Y138.579 E89.79292
G1 X65.187 Y135.103 E90.04855
G1 X64.179 Y132.407 E90.24191
G1 X63.247 Y129.4 E90.4534
G1 X62.493 Y126.343 E90.66492
G1 X61.919 Y123.242 E90.87678
G1 X61.476 Y119.544 E91.12699
G1 X61.304 Y116.598 E91.32524
G1 X61.304 Y113.402 E91.53995
G1 X61.49 Y110.269 E91.7508
G1 X61.843 Y107.273 E91.95346
G1 X62.493 Y103.657 E92.20028
G1 X63.247 Y100.6 E92.4118
G1 X64.079 Y97.895 E92.60192
G1 X65.419 Y94.333 E92.85759
G1 X66.631 Y91.629 E93.05666
G1 X68.061 Y88.876 E93.26507
G1 X69.666 Y86.18 E93.47585
G1 X71.394 Y83.632 E93.68268
G1 X73.685 Y80.671 E93.93419
G1 X75.65 Y78.43 E94.13442
G1 X77.597 Y76.453 E94.32083
G1 X78.057 Y76.907 F9600
G1 F1800
G1 X78.273 Y76.688 E94.34149
G1 X80.891 Y74.342 E94.57765
G1 X83.134 Y72.558 E94.77019
G1 X85.678 Y70.763 E94.97936
G1 X88.323 Y69.12 E95.18854
G1 X91.065 Y67.633 E95.39809
G1 X94.355 Y66.11 E95.64165
G1 X97.281 Y64.975 E95.85249
G1 X100.299 Y64.006 E96.06543
G1 X103.135 Y63.27 E96.26226
G1 X106.061 Y62.688 E96.46268
G1 X109.807 Y62.187 E96.71658
G1 X112.72 Y61.977 E96.91278
G1 X115.833 Y61.934 E97.12193
G1 X118.944 Y62.074 E97.33114
G1 X121.839 Y62.372 E97.52665
G1 X125.441 Y62.966 E97.7719
G1 X128.515 Y63.678 E97.98388
G1 X131.515 Y64.562 E98.19399
G1 X134.457 Y65.622 E98.40407
G1 X137.098 Y66.749 E98.59697
G1 X140.401 Y68.404 E98.84516
G1 X142.919 Y69.864 E99.0407
G1 X145.517 Y71.579 E99.24983
G1 X148.011 Y73.443 E99.459
G1 X150.244 Y75.326 E99.65523
G1 X152.894 Y77.842 E99.90072
G1 X155.018 Y80.139 E100.11089
G1 X156.84 Y82.351 E100.30341
G1 X158.98 Y85.297 E100.54803
G1 X160.521 Y87.713 E100.74054
G1 X162.038 Y90.422 E100.94912
G1 X163.397 Y93.222 E101.15821
G1 X164.604 Y96.134 E101.36998
G1 X165.805 Y99.663 E101.62041
G1 X166.554 Y102.396 E101.81078
G1 X167.232 Y105.593 E102.03033
G1 X167.689 Y108.627 E102.23645
G1 X167.959 Y111.569 E102.43492
G1 X168.069 Y115.267 E102.68346
G1 X167.971 Y118.281 E102.88605
G1 X167.689 Y121.373 E103.09463
G1 X167.232 Y124.407 E103.30075
G1 X166.627 Y127.288 E103.49852
G1 X165.638 Y130.883 E103.74901
G1 X164.724 Y133.554 E103.93866
G1 X163.549 Y136.437 E104.14781
G1 X162.049 Y139.557 E104.38038
G1 X160.672 Y142.028 E104.57042
G1 X158.712 Y145.096 E104.815
G1 X156.988 Y147.462 E105.01167
G1 X155.018 Y149.861 E105.22021
G1 X152.91 Y152.141 E105.42882
G1 X150.668 Y154.298 E105.63783
G1 X147.823 Y156.7 E105.88797
G1 X145.517 Y158.421 E106.08127
G1 X142.918 Y160.136 E106.29046
G1 X140.223 Y161.696 E106.49966
G1 X137.585 Y163.024 E106.69807
G1 X134.19 Y164.48 E106.94624
G1 X131.373 Y165.484 E107.14715
G1 X128.234 Y166.396 E107.36675
G1 X125.257 Y167.073 E107.57185
G1 X122.405 Y167.551 E107.76612
G1 X118.697 Y167.942 E108.01661
G1 X115.833 Y168.066 E108.20919
G1 X112.72 Y168.023 E108.41834
G1 X109.243 Y167.758 E108.6526
G1 X106.287 Y167.353 E108.85304
G1 X103.179 Y166.74 E109.06586
G1 X100.129 Y165.947 E109.27757
G1 X97.336 Y165.044 E109.47477
G1 X93.94 Y163.713 E109.71981
G1 X91.071 Y162.37 E109.93262
G1 X88.323 Y160.88 E110.14262
G1 X85.678 Y159.237 E110.3518
G1 X83.369 Y157.614 E110.54141
G1 X80.456 Y155.287 E110.79188
G1 X78.273 Y153.312 E110.98965
