; generated by PrusaSlicer 2.9.1 on 2025-12-17 at 16:20:16 UTC

; 

; external perimeters extrusion width = 0.70mm
; perimeters extrusion width = 0.70mm
; infill extrusion width = 0.70mm
; solid infill extrusion width = 0.70mm
; top infill extrusion width = 0.70mm
; first layer extrusion width = 0.70mm

; external perimeters extrusion width = 0.70mm
; perimeters extrusion width = 0.70mm
; infill extrusion width = 0.70mm
; solid infill extrusion width = 0.70mm
; top infill extrusion width = 0.70mm
; first layer extrusion width = 0.70mm

M190 S40 ; set bed temperature and wait for it to be reached
M104 S230 ; set temperature
;TYPE:Custom
G28 ; home all axes
G1 Z5 F5000 ; lift nozzle
M109 S230 ; set temperature and wait for it to be reached
G21 ; set units to millimeters
G90 ; use absolute coordinates
M82 ; use absolute distances for extrusion
G92 E0
; Filament gcode
M107
;LAYER_CHANGE
;Z:0.25
;HEIGHT:0.25
G1 E-2 F2400
G92 E0
G1 E.00001
G1 Z.25 F9600
G1 X52.588 Y72
G1 E2 F2400
;COLOR_CHANGE,T0,#2D1ECA
M600
;TYPE:Skirt/Brim
;WIDTH:0.7
G1 F1800
G1 X54.397 Y70.803 E2.14573
G1 X56.373 Y69.91 E2.2914
G1 X58.467 Y69.344 E2.43712
G1 X128.91 Y59.68 E7.21382
G1 X132.662 Y59.392 E7.46662
G1 X135.914 Y59.349 E7.68511
G1 X139.549 Y59.531 E7.92962
G1 X142.551 Y59.855 E8.13247
G1 X145.391 Y60.322 E8.32582
G1 X148.745 Y61.065 E8.55661
G1 X152.371 Y62.119 E8.81029
G1 X155.444 Y63.228 E9.02977
G1 X158.753 Y64.664 E9.2721
G1 X161.706 Y66.165 E9.49464
G1 X164.277 Y67.657 E9.69434
G1 X166.721 Y69.263 E9.8908
G1 X169.598 Y71.393 E10.13128
G1 X172.085 Y73.488 E10.34974
G1 X174.783 Y76.064 E10.60034
G1 X177.14 Y78.632 E10.83451
G1 X179.234 Y81.208 E11.05753
G1 X180.989 Y83.632 E11.25858
G1 X182.618 Y86.172 E11.4613
G1 X184.318 Y89.182 E11.69353
G1 X185.948 Y92.569 E11.94605
G1 X187.261 Y95.834 E12.18247
G1 X188.217 Y98.661 E12.38295
G1 X188.997 Y101.468 E12.57867
G1 X189.76 Y104.978 E12.81998
G1 X190.265 Y108.297 E13.04552
G1 X190.56 Y111.52 E13.26295
G1 X190.666 Y115.303 E13.51719
G1 X190.546 Y118.662 E13.74299
G1 X190.265 Y121.703 E13.94816
G1 X189.835 Y124.582 E14.14372
G1 X189.081 Y128.203 E14.3922
G1 X188.217 Y131.339 E14.61073
G1 X187.172 Y134.418 E14.82917
G1 X185.738 Y137.898 E15.08203
G1 X184.252 Y140.938 E15.30935
G1 X182.735 Y143.642 E15.51764
G1 X181.17 Y146.095 E15.71312
G1 X179.088 Y148.987 E15.95252
G1 X177.037 Y151.492 E16.17002
G1 X174.803 Y153.915 E16.39143
G1 X172.465 Y156.168 E16.60956
G1 X169.385 Y158.769 E16.88039
G1 X166.992 Y160.553 E17.08091
G1 X164.277 Y162.343 E17.29938
G1 X161.462 Y163.971 E17.51784
G1 X158.753 Y165.336 E17.72163
G1 X155.063 Y166.918 E17.99135
G1 X152.371 Y167.881 E18.18342
G1 X149.239 Y168.807 E18.40283
G1 X145.655 Y169.631 E18.64989
G1 X142.841 Y170.101 E18.84155
G1 X138.825 Y170.524 E19.11284
G1 X135.914 Y170.651 E19.30859
G1 X132.929 Y170.614 E19.50914
G1 X128.91 Y170.32 E19.77986
G1 X59.328 Y160.793 E24.49801
G1 X58.467 Y160.656 E24.55658
G1 X56.373 Y160.09 E24.7023
G1 X54.397 Y159.197 E24.84797
G1 X52.588 Y158 E24.9937
G1 X50.993 Y156.529 E25.13947
G1 X49.654 Y154.823 E25.28517
G1 X48.882 Y153.501 E25.38802
G1 X36.085 Y126.111 E27.41901
G1 X35.129 Y123.655 E27.59606
G1 X34.26 Y120.413 E27.82155
G1 X33.93 Y118.403 E27.95839
G1 X33.725 Y115.661 E28.14311
G1 X33.85 Y112.307 E28.36859
G1 X34.26 Y109.587 E28.55338
G1 X34.739 Y107.608 E28.69017
G1 X35.848 Y104.44 E28.91566
G1 X48.882 Y76.499 E30.98693
G1 X49.654 Y75.177 E31.08978
G1 X50.993 Y73.471 E31.23548
G1 X52.588 Y72 E31.38125
G1 X52.974 Y72.518 F9600
G1 F1800
G1 X54.696 Y71.376 E31.52006
G1 X56.577 Y70.523 E31.65881
G1 X58.57 Y69.982 E31.79755
G1 X128.996 Y60.321 E36.57309
G1 X132.68 Y60.038 E36.82131
G1 X135.897 Y59.995 E37.03745
G1 X139.481 Y60.174 E37.27852
G1 X142.464 Y60.496 E37.48008
G1 X145.285 Y60.96 E37.67214
G1 X148.601 Y61.695 E37.90032
G1 X152.16 Y62.73 E38.14932
G1 X155.2 Y63.826 E38.36642
G1 X158.464 Y65.242 E38.60544
G1 X161.382 Y66.724 E38.82531
G1 X163.94 Y68.209 E39.02402
G1 X166.365 Y69.803 E39.21898
G1 X169.204 Y71.906 E39.45633
G1 X171.664 Y73.979 E39.67245
G1 X174.313 Y76.509 E39.91854
G1 X176.641 Y79.042 E40.14966
G1 X178.711 Y81.588 E40.3701
G1 X180.457 Y83.999 E40.57008
G1 X182.073 Y86.52 E40.77125
G1 X183.751 Y89.492 E41.00054
G1 X185.351 Y92.817 E41.24843
G1 X186.649 Y96.043 E41.48204
G1 X187.598 Y98.845 E41.68078
G1 X188.374 Y101.64 E41.87565
G1 X189.124 Y105.093 E42.11303
G1 X189.624 Y108.379 E42.33633
G1 X189.916 Y111.57 E42.5516
G1 X190.02 Y115.287 E42.80141
G1 X189.902 Y118.605 E43.02445
G1 X189.624 Y121.621 E43.22792
G1 X189.196 Y124.486 E43.42253
G1 X188.452 Y128.053 E43.66732
G1 X187.598 Y131.155 E43.88347
G1 X186.563 Y134.202 E44.09966
G1 X185.156 Y137.618 E44.34785
G1 X183.687 Y140.624 E44.57262
G1 X182.184 Y143.303 E44.77899
G1 X180.626 Y145.747 E44.9737
G1 X178.575 Y148.594 E45.20943
G1 X176.545 Y151.073 E45.42468
G1 X174.333 Y153.471 E45.64385
G1 X172.018 Y155.701 E45.85979
G1 X168.998 Y158.252 E46.12537
G1 X166.626 Y160.02 E46.32412
G1 X163.94 Y161.791 E46.54026
G1 X161.155 Y163.402 E46.7564
G1 X158.464 Y164.758 E46.95884
G1 X154.845 Y166.309 E47.22335
G1 X152.16 Y167.27 E47.41493
G1 X149.061 Y168.186 E47.63203
G1 X145.537 Y168.996 E47.87495
G1 X142.735 Y169.464 E48.0658
G1 X138.796 Y169.879 E48.33189
G1 X135.897 Y170.005 E48.52683
G1 X132.939 Y169.968 E48.72556
G1 X128.996 Y169.679 E48.99116
G1 X59.416 Y160.152 E53.70917
G1 X58.57 Y160.018 E53.76671
G1 X56.577 Y159.477 E53.90545
G1 X54.696 Y158.624 E54.0442
G1 X52.974 Y157.482 E54.18301
G1 X51.903 Y156.539 E54.27888
G1 X50.551 Y154.978 E54.41761
G1 X49.464 Y153.221 E54.55641
G1 X36.67 Y125.838 E56.58689
G1 X35.747 Y123.464 E56.75801
G1 X34.89 Y120.269 E56.98024
G1 X34.569 Y118.307 E57.1138
G1 X34.371 Y115.661 E57.29206
G1 X34.396 Y113.673 E57.42562
G1 X34.766 Y110.386 E57.64784
G1 X35.357 Y107.799 E57.82611
G1 X36.45 Y104.676 E58.04839
G1 X49.464 Y76.779 E60.11641
G1 X50.184 Y75.547 E60.21227
G1 X51.458 Y73.921 E60.35104
G1 X52.974 Y72.518 E60.48981
G1 X53.361 Y73.036 F9600
G1 F1800
G1 X54.995 Y71.949 E60.62165
G1 X56.781 Y71.137 E60.75345
G1 X58.674 Y70.62 E60.88528
G1 X129.082 Y60.961 E65.65961
G1 X132.697 Y60.684 E65.90318
G1 X135.88 Y60.642 E66.11703
G1 X139.413 Y60.816 E66.35467
G1 X142.378 Y61.136 E66.55502
G1 X145.179 Y61.597 E66.74572
G1 X148.456 Y62.325 E66.97124
G1 X151.949 Y63.341 E67.21563
G1 X154.956 Y64.425 E67.43037
G1 X158.175 Y65.82 E67.66606
G1 X161.059 Y67.284 E67.88334
G1 X163.604 Y68.76 E68.08099
G1 X166.009 Y70.342 E68.27438
G1 X168.81 Y72.418 E68.5086
G1 X171.244 Y74.47 E68.72247
G1 X173.844 Y76.953 E68.96399
G1 X176.142 Y79.453 E69.19211
G1 X178.188 Y81.968 E69.40992
G1 X179.924 Y84.365 E69.60875
G1 X181.529 Y86.868 E69.8085
G1 X183.184 Y89.802 E70.0348
G1 X184.754 Y93.066 E70.27812
G1 X186.037 Y96.252 E70.50886
G1 X186.978 Y99.028 E70.70578
G1 X187.751 Y101.812 E70.89989
G1 X188.488 Y105.209 E71.13341
G1 X188.983 Y108.462 E71.35446
G1 X189.272 Y111.619 E71.56743
G1 X189.374 Y115.27 E71.8128
G1 X189.258 Y118.547 E72.03309
G1 X188.983 Y121.538 E72.23487
G1 X188.557 Y124.389 E72.42853
G1 X187.824 Y127.904 E72.66975
G1 X186.978 Y130.972 E72.88355
G1 X185.954 Y133.986 E73.0974
G1 X184.573 Y137.338 E73.34095
G1 X183.123 Y140.309 E73.56304
G1 X181.634 Y142.964 E73.76754
G1 X180.081 Y145.399 E73.96156
G1 X178.026 Y148.248 E74.19755
G1 X176.014 Y150.699 E74.41058
G1 X173.862 Y153.028 E74.62361
G1 X171.572 Y155.233 E74.83718
G1 X168.61 Y157.735 E75.09766
G1 X166.261 Y159.487 E75.29453
G1 X163.604 Y161.24 E75.50838
G1 X160.848 Y162.833 E75.72223
G1 X158.175 Y164.18 E75.92331
G1 X154.627 Y165.701 E76.18264
G1 X151.949 Y166.659 E76.37371
G1 X148.883 Y167.565 E76.58849
G1 X145.42 Y168.36 E76.82719
G1 X142.629 Y168.826 E77.01729
G1 X138.767 Y169.233 E77.27818
G1 X135.88 Y169.358 E77.47231
G1 X132.949 Y169.322 E77.66923
G1 X129.082 Y169.039 E77.92971
G1 X59.503 Y159.512 E82.64766
G1 X58.674 Y159.38 E82.70405
G1 X56.781 Y158.863 E82.83588
G1 X54.995 Y158.051 E82.96768
G1 X53.361 Y156.964 E83.09952
G1 X51.922 Y155.63 E83.23134
G1 X50.714 Y154.083 E83.3632
G1 X50.047 Y152.941 E83.45205
G1 X37.256 Y125.565 E85.48202
G1 X36.364 Y123.274 E85.64718
G1 X35.52 Y120.125 E85.8662
G1 X35.209 Y118.211 E85.99647
G1 X35.017 Y115.661 E86.16826
G1 X35.139 Y112.403 E86.38729
G1 X35.52 Y109.875 E86.55904
G1 X35.975 Y107.989 E86.68938
G1 X37.051 Y104.912 E86.90837
G1 X50.047 Y77.059 E88.9732
G1 X50.714 Y75.917 E89.06205
G1 X51.922 Y74.37 E89.19391
G1 X53.361 Y73.036 E89.32573
G1 X53.748 Y73.554 F9600
G1 F1800
G1 X55.294 Y72.522 E89.4506
G1 X56.984 Y71.75 E89.57542
G1 X58.777 Y71.258 E89.70033
G1 X129.168 Y61.602 E94.4735
G1 X132.714 Y61.331 E94.71242
G1 X135.862 Y61.288 E94.92392
G1 X139.346 Y61.459 E95.15826
G1 X142.292 Y61.777 E95.35732
G1 X145.073 Y62.235 E95.54666
G1 X148.312 Y62.955 E95.76957
G1 X151.738 Y63.952 E96.00928
G1 X154.712 Y65.024 E96.22166
G1 X157.886 Y66.398 E96.45401
G1 X160.736 Y67.844 E96.66871
G1 X163.267 Y69.312 E96.86527
G1 X165.653 Y70.882 E97.05715
G1 X168.416 Y72.931 E97.28824
G1 X170.823 Y74.961 E97.49977
G1 X173.375 Y77.398 E97.73683
G1 X175.642 Y79.863 E97.96181
G1 X177.665 Y82.348 E98.17708
G1 X179.392 Y84.731 E98.37479
G1 X180.984 Y87.216 E98.57305
G1 X182.617 Y90.112 E98.7964
G1 X184.158 Y93.314 E99.03513
G1 X185.426 Y96.461 E99.26306
G1 X186.358 Y99.211 E99.45813
G1 X187.127 Y101.984 E99.65145
G1 X187.852 Y105.325 E99.88112
G1 X188.342 Y108.544 E100.09986
G1 X188.627 Y111.669 E100.31067
G1 X188.727 Y115.254 E100.5516
G1 X188.614 Y118.489 E100.76906
G1 X188.342 Y121.456 E100.96922
G1 X187.918 Y124.293 E101.16193
G1 X187.195 Y127.754 E101.39946
G1 X186.358 Y130.789 E101.61096
G1 X185.344 Y133.77 E101.82249
G1 X183.991 Y137.058 E102.06135
G1 X182.558 Y139.994 E102.28083
G1 X181.083 Y142.625 E102.48346
G1 X179.536 Y145.051 E102.67676
G1 X177.513 Y147.855 E102.90904
G1 X175.522 Y150.28 E103.11983
G1 X173.392 Y152.584 E103.33062
G1 X171.126 Y154.766 E103.54195
G1 X168.222 Y157.218 E103.79728
G1 X165.895 Y158.954 E103.99232
G1 X163.267 Y160.688 E104.20384
G1 X160.542 Y162.264 E104.41532
G1 X157.886 Y163.602 E104.61511
G1 X154.409 Y165.092 E104.86924
G1 X151.738 Y166.048 E105.05983
G1 X148.705 Y166.943 E105.27227
G1 X145.303 Y167.724 E105.50676
G1 X142.522 Y168.189 E105.69618
G1 X138.738 Y168.587 E105.95179
G1 X135.862 Y168.712 E106.14518
G1 X132.958 Y168.675 E106.34029
G1 X129.168 Y168.398 E106.59558
G1 X59.591 Y158.872 E111.31338
G1 X58.777 Y158.742 E111.36876
G1 X56.984 Y158.25 E111.49367
G1 X55.294 Y157.478 E111.61849
G1 X53.748 Y156.446 E111.74336
G1 X52.386 Y155.18 E111.86828
G1 X51.244 Y153.713 E111.99317
G1 X50.629 Y152.66 E112.07509
G1 X37.842 Y125.291 E114.10452
G1 X36.982 Y123.083 E114.26371
G1 X36.151 Y119.981 E114.47945
G1 X35.848 Y118.114 E114.60652
G1 X35.664 Y115.661 E114.77178
G1 X35.685 Y113.77 E114.89883
G1 X36.045 Y110.578 E115.11463
G1 X36.592 Y108.18 E115.27987
G1 X37.653 Y105.148 E115.49567
G1 X50.629 Y77.34 E117.5572
G1 X51.244 Y76.287 E117.63912
G1 X52.386 Y74.82 E117.76401
G1 X53.748 Y73.554 E117.88893
G1 X54.134 Y74.072 F9600
G1 F1800
G1 X55.593 Y73.095 E118.00689
G1 X56.16 Y72.799 E118.04986
G1 X57.796 Y72.162 E118.1678
G1 X59.512 Y71.794 E118.2857
G1 X129.255 Y62.242 E123.01479
G1 X132.731 Y61.977 E123.24899
G1 X135.845 Y61.934 E123.45821
G1 X139.278 Y62.102 E123.68912
G1 X142.205 Y62.417 E123.88689
G1 X144.968 Y62.873 E124.07502
G1 X148.167 Y63.585 E124.29519
G1 X151.526 Y64.562 E124.5302
G1 X154.469 Y65.622 E124.74034
G1 X157.597 Y66.976 E124.96932
G1 X160.413 Y68.404 E125.18143
G1 X162.93 Y69.864 E125.37691
G1 X165.297 Y71.421 E125.56724
G1 X168.023 Y73.443 E125.79525
G1 X170.402 Y75.451 E126.00439
G1 X172.906 Y77.842 E126.23698
G1 X175.143 Y80.274 E126.45897
G1 X177.142 Y82.728 E126.6716
G1 X178.859 Y85.098 E126.86821
G1 X180.439 Y87.563 E127.06491
G1 X182.05 Y90.422 E127.28537
G1 X183.561 Y93.563 E127.51953
G1 X184.814 Y96.67 E127.74459
G1 X185.738 Y99.394 E127.93783
G1 X186.504 Y102.156 E128.13039
G1 X187.216 Y105.441 E128.3562
G1 X187.701 Y108.627 E128.5727
G1 X187.983 Y111.719 E128.78128
G1 X188.081 Y115.237 E129.01771
G1 X187.971 Y118.431 E129.23241
G1 X187.701 Y121.373 E129.43088
G1 X187.279 Y124.197 E129.6227
G1 X186.566 Y127.604 E129.85654
G1 X185.738 Y130.606 E130.06575
G1 X184.735 Y133.554 E130.27495
G1 X183.408 Y136.778 E130.50917
G1 X181.994 Y139.679 E130.72598
G1 X180.533 Y142.287 E130.9268
G1 X178.991 Y144.703 E131.11935
G1 X177 Y147.462 E131.34792
G1 X175.03 Y149.861 E131.55646
G1 X172.922 Y152.141 E131.76507
G1 X170.679 Y154.298 E131.97413
G1 X167.835 Y156.7 E132.22422
G1 X165.529 Y158.421 E132.41752
G1 X162.93 Y160.136 E132.62671
G1 X160.235 Y161.696 E132.83591
G1 X157.597 Y163.024 E133.03432
G1 X154.191 Y164.484 E133.28327
G1 X151.526 Y165.438 E133.47343
G1 X148.527 Y166.322 E133.68347
G1 X145.214 Y167.084 E133.91185
G1 X142.416 Y167.551 E134.10242
G1 X138.709 Y167.942 E134.35284
G1 X135.845 Y168.066 E134.54542
G1 X132.968 Y168.029 E134.73871
G1 X129.255 Y167.758 E134.98881
G1 X59.679 Y158.231 E139.70656
G1 X58.88 Y158.104 E139.76091
G1 X57.188 Y157.637 E139.87883
G1 X55.593 Y156.905 E139.99673
G1 X54.134 Y155.928 E140.11469
G1 X52.851 Y154.73 E140.23262
G1 X51.775 Y153.344 E140.3505
G1 X51.212 Y152.38 E140.4255
G1 X38.427 Y125.018 E142.45445
G1 X37.599 Y122.893 E142.60766
G1 X36.781 Y119.837 E142.82019
G1 X36.428 Y117.5 E142.97897
G1 X36.31 Y115.661 E143.10277
G1 X36.428 Y112.5 E143.31527
G1 X36.781 Y110.163 E143.47405
G1 X37.21 Y108.37 E143.5979
G1 X38.255 Y105.385 E143.81037
G1 X51.212 Y77.62 E145.86874
G1 X51.775 Y76.656 E145.94374
G1 X52.851 Y75.27 E146.06162
G1 X54.134 Y74.072 E146.17955
G1 X54.521 Y74.59 F9600
G1 F1800
G1 X55.892 Y73.668 E146.29054
G1 X57.392 Y72.977 E146.40149
G1 X58 Y72.775 E146.44453
G1 X59.615 Y72.432 E146.55545
G1 X129.341 Y62.883 E151.28338
G1 X132.749 Y62.623 E151.513
G1 X135.828 Y62.58 E151.71987
G1 X139.211 Y62.745 E151.94741
G1 X142.119 Y63.058 E152.1439
G1 X144.862 Y63.51 E152.33066
G1 X148.022 Y64.215 E152.54817
G1 X151.315 Y65.173 E152.77857
G1 X154.225 Y66.221 E152.98636
G1 X157.308 Y67.554 E153.21201
G1 X160.09 Y68.963 E153.42151
G1 X162.593 Y70.416 E153.61594
G1 X164.941 Y71.96 E153.80473
G1 X167.629 Y73.956 E154.02965
G1 X169.982 Y75.942 E154.2365
G1 X172.437 Y78.287 E154.46458
G1 X174.644 Y80.685 E154.68352
G1 X176.619 Y83.108 E154.89352
G1 X178.327 Y85.464 E155.08901
G1 X179.895 Y87.911 E155.28425
G1 X181.483 Y90.732 E155.50173
G1 X182.964 Y93.811 E155.73126
G1 X184.202 Y96.879 E155.95352
G1 X185.118 Y99.577 E156.14493
G1 X185.881 Y102.328 E156.33672
G1 X186.58 Y105.557 E156.55867
G1 X187.06 Y108.709 E156.77286
G1 X187.338 Y111.768 E156.97921
G1 X187.435 Y115.221 E157.21127
G1 X187.327 Y118.373 E157.42315
G1 X187.06 Y121.291 E157.62
G1 X186.64 Y124.1 E157.81081
G1 X185.937 Y127.455 E158.04109
G1 X185.118 Y130.423 E158.24793
G1 X184.126 Y133.338 E158.45479
G1 X182.759 Y136.637 E158.69469
G1 X181.493 Y139.248 E158.88963
G1 X180.12 Y141.714 E159.07924
G1 X178.447 Y144.355 E159.28927
G1 X176.487 Y147.068 E159.51412
G1 X174.357 Y149.645 E159.73873
G1 X172.452 Y151.697 E159.92683
G1 X169.982 Y154.058 E160.15638
G1 X167.629 Y156.044 E160.36323
G1 X165.378 Y157.734 E160.55233
G1 X162.329 Y159.744 E160.79767
G1 X159.792 Y161.2 E160.99418
G1 X157.067 Y162.562 E161.19884
G1 X154.225 Y163.779 E161.40654
G1 X151.441 Y164.783 E161.60536
G1 X148.02 Y165.785 E161.84484
G1 X145.094 Y166.448 E162.04639
G1 X142.119 Y166.942 E162.24899
G1 X138.904 Y167.282 E162.46618
G1 X136.096 Y167.412 E162.65502
G1 X132.749 Y167.377 E162.87988
G1 X129.341 Y167.117 E163.1095
G1 X59.615 Y157.568 E167.83743
G1 X58 Y157.225 E167.94835
G1 X56.459 Y156.628 E168.05937
G1 X55.034 Y155.793 E168.17033
G1 X53.761 Y154.741 E168.28127
G1 X52.671 Y153.499 E168.39228
G1 X51.794 Y152.1 E168.50321
G1 X39.013 Y124.744 E170.53168
G1 X38.217 Y122.702 E170.67892
G1 X37.411 Y119.694 E170.88813
G1 X37.126 Y117.922 E171.0087
G1 X36.957 Y115.661 E171.16102
G1 X36.974 Y113.866 E171.28161
G1 X37.323 Y110.771 E171.49085
G1 X37.827 Y108.561 E171.64313
G1 X38.856 Y105.621 E171.85239
G1 X51.794 Y77.9 E173.90754
G1 X52.305 Y77.026 E173.97555
G1 X53.315 Y75.719 E174.08652
