; generated by PrusaSlicer 2.9.1 on 2025-11-19 at 14:33:10 UTC

; 

; external perimeters extrusion width = 0.70mm
; perimeters extrusion width = 0.70mm
; infill extrusion width = 0.70mm
; solid infill extrusion width = 0.70mm
; top infill extrusion width = 0.70mm
; first layer extrusion width = 0.70mm

M190 S40 ; set bed temperature and wait for it to be reached
M104 S230 ; set temperature
;TYPE:Custom
G28 ; home all axes
G1 Z5 F5000 ; lift nozzle
M109 S230 ; set temperature and wait for it to be reached
G21 ; set units to millimeters
G90 ; use absolute coordinates
M82 ; use absolute distances for extrusion
G92 E0
; Filament gcode
M107
;LAYER_CHANGE
;Z:0.25
;HEIGHT:0.25
G1 E-2 F2400
G92 E0
G1 E.7
G1 Z.25 F9600
G1 X99.164 Y99.626
G1 E3.4 F2400
;COLOR_CHANGE,T0,#2D1ECA
M600
;TYPE:Skirt/Brim
;WIDTH:0.7
G1 F1800
G1 X100.151 Y98.644 E3.49353
G1 X101.67 Y97.383 E3.62616
G1 X102.758 Y96.611 E3.71578
G1 X104.496 Y95.565 E3.85205
G1 X106.273 Y94.705 E3.98467
G1 X108.172 Y93.99 E4.12099
G1 X110.075 Y93.465 E4.25361
G1 X111.384 Y93.207 E4.34324
G1 X113.398 Y92.967 E4.4795
G1 X115.372 Y92.912 E4.61217
G1 X143.127 Y93.547 E6.47725
G1 X145.549 Y93.75 E6.64053
G1 X148.165 Y94.275 E6.81978
G1 X150.1 Y94.883 E6.95604
G1 X152.546 Y95.948 E7.13526
G1 X154.263 Y96.922 E7.26788
G1 X155.93 Y98.078 E7.40416
G1 X157.443 Y99.345 E7.53674
G1 X158.874 Y100.783 E7.67303
G1 X160.545 Y102.863 E7.85227
G1 X161.613 Y104.523 E7.98488
G1 X162.813 Y106.906 E8.16412
G1 X163.528 Y108.804 E8.30038
G1 X164.053 Y110.707 E8.433
G1 X164.49 Y113.339 E8.61224
G1 X165.6 Y140.664 E10.44945
G1 X165.584 Y142.471 E10.57085
G1 X165.401 Y144.437 E10.7035
G1 X164.876 Y147.052 E10.88268
G1 X164.268 Y148.987 E11.01894
G1 X163.203 Y151.433 E11.19816
G1 X161.851 Y153.733 E11.37739
G1 X160.231 Y155.853 E11.55663
G1 X158.368 Y157.762 E11.73583
G1 X156.288 Y159.432 E11.91503
G1 X154.628 Y160.501 E12.04767
G1 X152.245 Y161.7 E12.22688
G1 X149.735 Y162.604 E12.40611
G1 X147.135 Y163.199 E12.58529
G1 X144.482 Y163.476 E12.76449
G1 X142.729 Y163.485 E12.88226
G1 X115.59 Y162.433 E14.70683
G1 X112.663 Y162.13 E14.90452
G1 X110.733 Y161.711 E15.0372
G1 X108.2 Y160.875 E15.2164
G1 X106.353 Y160.038 E15.35263
G1 X104.053 Y158.686 E15.53186
G1 X101.933 Y157.066 E15.7111
G1 X100.024 Y155.203 E15.8903
G1 X98.353 Y153.123 E16.06954
G1 X97.285 Y151.463 E16.20215
G1 X96.085 Y149.08 E16.38139
G1 X95.182 Y146.57 E16.56059
G1 X94.701 Y144.6 E16.69682
G1 X94.347 Y141.955 E16.8761
G1 X92.91 Y115.269 E18.67147
G1 X92.974 Y113.295 E18.80415
G1 X93.118 Y111.969 E18.89375
G1 X93.34 Y110.653 E18.98341
G1 X93.83 Y108.685 E19.11966
G1 X94.479 Y106.82 E19.25232
G1 X95.01 Y105.596 E19.34195
G1 X95.957 Y103.802 E19.47823
G1 X97.446 Y101.588 E19.65748
G1 X98.713 Y100.075 E19.79006
G1 X99.121 Y99.668 E19.82878
G1 X99.576 Y100.126 F9600
G1 F1800
G1 X100.578 Y99.129 E19.92374
G1 X102.068 Y97.893 E20.0538
G1 X103.675 Y96.789 E20.18478
G1 X105.363 Y95.842 E20.31481
G1 X106.537 Y95.295 E20.40182
G1 X108.362 Y94.608 E20.53282
G1 X110.228 Y94.093 E20.66287
G1 X111.499 Y93.843 E20.74989
G1 X113.435 Y93.612 E20.88087
G1 X115.37 Y93.558 E21.01091
G1 X143.112 Y94.193 E22.87511
G1 X145.47 Y94.391 E23.03408
G1 X147.387 Y94.747 E23.16507
G1 X149.25 Y95.271 E23.29508
G1 X151.656 Y96.231 E23.46911
G1 X153.38 Y97.142 E23.6001
G1 X155.53 Y98.586 E23.77409
G1 X157.014 Y99.828 E23.90409
G1 X158.389 Y101.21 E24.03506
G1 X160.012 Y103.229 E24.20909
G1 X161.059 Y104.856 E24.33907
G1 X162.223 Y107.17 E24.51308
G1 X162.91 Y108.995 E24.64408
G1 X163.425 Y110.86 E24.77406
G1 X163.848 Y113.415 E24.94804
G1 X164.954 Y140.689 E26.78182
G1 X164.939 Y142.431 E26.89885
G1 X164.838 Y143.722 E26.98584
G1 X164.404 Y146.275 E27.15981
G1 X163.88 Y148.138 E27.28982
G1 X162.92 Y150.543 E27.46378
G1 X161.677 Y152.815 E27.63776
G1 X160.169 Y154.921 E27.81177
G1 X158.419 Y156.829 E27.9857
G1 X156.451 Y158.513 E28.15971
G1 X154.295 Y159.947 E28.33366
G1 X151.981 Y161.11 E28.50764
G1 X149.545 Y161.987 E28.68157
G1 X147.02 Y162.563 E28.85556
G1 X144.444 Y162.831 E29.02955
G1 X142.754 Y162.839 E29.14309
G1 X115.615 Y161.787 E30.96766
G1 X112.781 Y161.494 E31.15906
G1 X110.259 Y160.906 E31.33303
G1 X108.431 Y160.271 E31.46303
G1 X106.088 Y159.167 E31.63703
G1 X103.895 Y157.79 E31.81099
G1 X102.363 Y156.583 E31.94202
G1 X100.509 Y154.775 E32.11599
G1 X99.273 Y153.286 E32.24599
G1 X97.839 Y151.129 E32.42
G1 X96.676 Y148.816 E32.59392
G1 X95.799 Y146.379 E32.76792
G1 X95.337 Y144.485 E32.89889
G1 X94.992 Y141.918 E33.07289
G1 X93.557 Y115.27 E34.8657
G1 X93.619 Y113.336 E34.99569
G1 X93.976 Y110.771 E35.16967
G1 X94.447 Y108.879 E35.30065
G1 X95.083 Y107.051 E35.43068
G1 X96.186 Y104.708 E35.60465
G1 X97.199 Y103.041 E35.7357
G1 X97.953 Y101.988 E35.82271
G1 X99.196 Y100.504 E35.95276
G1 X99.534 Y100.168 E35.98478
G1 X99.989 Y100.625 F9600
G1 F1800
G1 X101.006 Y99.613 E36.08117
G1 X102.465 Y98.403 E36.20851
G1 X104.008 Y97.343 E36.33427
G1 X105.662 Y96.415 E36.46168
G1 X106.801 Y95.885 E36.54608
G1 X108.553 Y95.225 E36.67185
G1 X110.381 Y94.72 E36.79926
G1 X112.223 Y94.387 E36.92501
G1 X114.112 Y94.22 E37.05241
G1 X115.369 Y94.204 E37.13686
G1 X143.097 Y94.839 E39.00012
G1 X145.39 Y95.033 E39.15471
G1 X147.231 Y95.375 E39.2805
G1 X149.057 Y95.888 E39.40792
G1 X151.389 Y96.82 E39.57663
G1 X153.045 Y97.694 E39.70242
G1 X155.13 Y99.094 E39.87114
G1 X156.584 Y100.311 E39.99852
G1 X157.905 Y101.638 E40.12431
G1 X159.479 Y103.595 E40.29303
G1 X160.505 Y105.189 E40.42038
G1 X161.371 Y106.849 E40.54616
G1 X162.293 Y109.186 E40.71494
G1 X162.798 Y111.013 E40.84228
G1 X163.206 Y113.492 E41.01106
G1 X164.308 Y140.714 E42.84134
G1 X164.197 Y143.643 E43.03825
G1 X163.777 Y146.119 E43.20696
G1 X163.263 Y147.944 E43.33433
G1 X162.331 Y150.276 E43.50304
G1 X161.125 Y152.479 E43.67176
G1 X159.661 Y154.521 E43.84056
G1 X157.963 Y156.371 E44.00926
G1 X156.054 Y158.003 E44.17798
G1 X153.962 Y159.393 E44.34672
G1 X151.717 Y160.52 E44.51548
G1 X149.354 Y161.369 E44.68416
G1 X146.905 Y161.927 E44.8529
G1 X144.407 Y162.186 E45.02162
G1 X142.779 Y162.194 E45.13099
G1 X115.64 Y161.141 E46.95557
G1 X112.899 Y160.859 E47.14068
G1 X111.046 Y160.457 E47.26806
G1 X108.662 Y159.667 E47.43678
G1 X106.956 Y158.895 E47.56258
G1 X104.79 Y157.623 E47.73133
G1 X103.265 Y156.496 E47.85872
G1 X101.415 Y154.798 E48.02742
G1 X99.783 Y152.888 E48.1962
G1 X98.393 Y150.796 E48.36494
G1 X97.266 Y148.552 E48.53364
G1 X96.417 Y146.188 E48.70239
G1 X95.973 Y144.369 E48.82818
G1 X95.638 Y141.88 E48.9969
G1 X94.203 Y115.272 E50.78703
G1 X94.224 Y114.016 E50.87142
G1 X94.4 Y112.128 E50.99881
G1 X94.611 Y110.889 E51.08324
G1 X95.064 Y109.072 E51.20904
G1 X95.686 Y107.281 E51.33641
G1 X96.188 Y106.129 E51.42083
G1 X96.758 Y105.009 E51.50526
G1 X97.73 Y103.41 E51.63097
G1 X98.461 Y102.388 E51.71538
G1 X99.679 Y100.934 E51.8428
G1 X99.946 Y100.668 E51.86812
G1 X100.401 Y101.125 F9600
G1 F1800
G1 X101.433 Y100.098 E51.96593
G1 X102.862 Y98.912 E52.09069
G1 X103.856 Y98.209 E52.17248
G1 X105.394 Y97.284 E52.29305
G1 X107.065 Y96.475 E52.41777
G1 X108.744 Y95.843 E52.53829
G1 X109.912 Y95.5 E52.62007
G1 X111.729 Y95.115 E52.74485
G1 X113.511 Y94.902 E52.86542
G1 X115.367 Y94.851 E52.99015
G1 X143.082 Y95.486 E54.85254
G1 X145.311 Y95.674 E55.00282
G1 X147.075 Y96.002 E55.12336
G1 X148.863 Y96.505 E55.24814
G1 X150.539 Y97.145 E55.36866
G1 X152.207 Y97.962 E55.49344
G1 X154.266 Y99.258 E55.65688
G1 X155.676 Y100.368 E55.77743
G1 X157.025 Y101.644 E55.90218
G1 X158.212 Y102.99 E56.02274
G1 X159.621 Y104.974 E56.18622
G1 X160.53 Y106.593 E56.31096
G1 X161.488 Y108.83 E56.47444
G1 X162.17 Y111.167 E56.63799
G1 X162.565 Y113.568 E56.80146
G1 X163.662 Y140.739 E58.6283
G1 X163.556 Y143.563 E58.81815
G1 X163.149 Y145.963 E58.98168
G1 X162.646 Y147.751 E59.10646
G1 X161.742 Y150.01 E59.26992
G1 X160.572 Y152.144 E59.43342
G1 X159.154 Y154.121 E59.59687
G1 X157.507 Y155.913 E59.76038
G1 X155.656 Y157.493 E59.92387
G1 X154.177 Y158.509 E60.04441
G1 X152.038 Y159.669 E60.20788
G1 X149.775 Y160.563 E60.37134
G1 X147.42 Y161.177 E60.53484
G1 X146.219 Y161.376 E60.61662
G1 X144.369 Y161.54 E60.74139
G1 X142.804 Y161.548 E60.84653
G1 X115.665 Y160.496 E62.6711
G1 X113.587 Y160.312 E62.81125
G1 X111.202 Y159.829 E62.97473
G1 X109.49 Y159.292 E63.09527
G1 X107.776 Y158.577 E63.22003
G1 X105.642 Y157.407 E63.38353
G1 X103.665 Y155.988 E63.54702
G1 X101.873 Y154.342 E63.71048
G1 X100.293 Y152.491 E63.87397
G1 X99.277 Y151.012 E63.99451
G1 X98.117 Y148.873 E64.15798
G1 X97.223 Y146.609 E64.3215
G1 X96.609 Y144.254 E64.485
G1 X96.283 Y141.843 E64.64845
G1 X94.849 Y115.273 E66.43603
G1 X94.869 Y114.056 E66.5178
G1 X95.042 Y112.207 E66.64256
G1 X95.247 Y111.007 E66.72434
G1 X95.68 Y109.266 E66.84486
G1 X96.29 Y107.512 E66.96962
G1 X97.329 Y105.311 E67.13313
G1 X98.261 Y103.778 E67.25366
G1 X98.969 Y102.788 E67.33543
G1 X100.161 Y101.364 E67.46019
G1 X100.359 Y101.167 E67.47895
G1 X100.814 Y101.625 F9600
G1 F1800
G1 X101.861 Y100.583 E67.57819
G1 X103.26 Y99.422 E67.70032
G1 X104.674 Y98.451 E67.81555
G1 X106.26 Y97.561 E67.93773
G1 X107.329 Y97.065 E68.0169
G1 X108.935 Y96.46 E68.13219
G1 X110.065 Y96.128 E68.21131
G1 X111.844 Y95.751 E68.33348
G1 X113.548 Y95.548 E68.44876
G1 X115.366 Y95.497 E68.57094
G1 X143.067 Y96.132 E70.43239
G1 X145.232 Y96.316 E70.57836
G1 X146.919 Y96.629 E70.69363
G1 X148.669 Y97.121 E70.81575
G1 X150.272 Y97.733 E70.93102
G1 X151.905 Y98.533 E71.05318
G1 X153.898 Y99.789 E71.21144
G1 X155.246 Y100.851 E71.32673
G1 X156.567 Y102.1 E71.44886
G1 X157.702 Y103.387 E71.56414
G1 X159.067 Y105.307 E71.7224
G1 X159.957 Y106.893 E71.84458
G1 X160.883 Y109.058 E72.00277
G1 X161.542 Y111.32 E72.16105
G1 X161.923 Y113.644 E72.31926
G1 X163.017 Y140.764 E74.14267
G1 X162.914 Y143.484 E74.32553
G1 X162.636 Y145.281 E74.44769
G1 X162.03 Y147.557 E74.60592
G1 X161.153 Y149.743 E74.76415
G1 X160.02 Y151.808 E74.92239
G1 X158.646 Y153.721 E75.08062
G1 X157.051 Y155.455 E75.2389
G1 X155.259 Y156.983 E75.39711
G1 X153.844 Y157.955 E75.51244
G1 X151.774 Y159.079 E75.67068
G1 X149.584 Y159.945 E75.82889
G1 X147.305 Y160.541 E75.98714
G1 X146.143 Y160.735 E76.06628
G1 X144.331 Y160.895 E76.18848
G1 X142.829 Y160.902 E76.28939
G1 X115.69 Y159.85 E78.11396
G1 X113.667 Y159.67 E78.2504
G1 X111.358 Y159.202 E78.40867
G1 X109.123 Y158.459 E78.5669
G1 X106.993 Y157.453 E78.72515
G1 X105.527 Y156.561 E78.84043
G1 X104.065 Y155.48 E78.96258
G1 X102.331 Y153.886 E79.12081
G1 X100.803 Y152.094 E79.27902
G1 X99.831 Y150.679 E79.39435
G1 X98.707 Y148.609 E79.55259
G1 X97.841 Y146.418 E79.71086
G1 X97.245 Y144.139 E79.86911
G1 X96.928 Y141.805 E80.02735
G1 X95.496 Y115.275 E81.81224
G1 X95.515 Y114.097 E81.89139
G1 X95.683 Y112.286 E82.01358
G1 X95.882 Y111.125 E82.09271
G1 X96.297 Y109.46 E82.20799
G1 X96.894 Y107.742 E82.33018
G1 X97.365 Y106.662 E82.40933
G1 X98.166 Y105.145 E82.52458
G1 X99.477 Y103.188 E82.68283
G1 X100.644 Y101.794 E82.80496
G1 X100.772 Y101.667 E82.81707
G1 X101.227 Y102.124 F9600
G1 F1800
G1 X102.288 Y101.068 E82.91764
G1 X103.657 Y99.932 E83.03715
G1 X105.008 Y99.005 E83.14722
G1 X106.559 Y98.134 E83.26672
G1 X109.126 Y97.078 E83.45319
G1 X110.841 Y96.604 E83.57272
G1 X111.959 Y96.387 E83.64923
G1 X113.586 Y96.193 E83.75931
G1 X115.364 Y96.143 E83.8788
G1 X143.053 Y96.778 E85.73944
G1 X145.152 Y96.957 E85.88096
G1 X146.763 Y97.256 E85.99104
G1 X148.475 Y97.738 E86.11052
G1 X150.006 Y98.322 E86.2206
G1 X151.603 Y99.105 E86.34009
G1 X153.529 Y100.32 E86.49307
G1 X154.816 Y101.334 E86.60314
G1 X156.109 Y102.556 E86.72266
G1 X157.192 Y103.785 E86.83271
G1 X158.513 Y105.64 E86.9857
G1 X159.601 Y107.641 E87.13871
G1 X160.278 Y109.286 E87.25821
G1 X160.914 Y111.473 E87.41122
G1 X161.281 Y113.721 E87.56424
G1 X162.371 Y140.789 E89.38415
G1 X162.273 Y143.404 E89.55995
G1 X161.895 Y145.65 E89.71296
G1 X161.413 Y147.363 E89.83251
G1 X160.565 Y149.476 E89.98547
G1 X159.468 Y151.472 E90.13848
G1 X158.534 Y152.818 E90.24854
G1 X157.049 Y154.545 E90.40155
G1 X155.366 Y156.08 E90.55458
G1 X153.511 Y157.401 E90.70757
G1 X151.51 Y158.489 E90.86058
G1 X149.393 Y159.328 E91.01356
G1 X147.19 Y159.905 E91.16655
G1 X146.066 Y160.093 E91.24311
G1 X144.294 Y160.25 E91.36262
G1 X142.854 Y160.256 E91.45936
G1 X115.715 Y159.204 E93.28393
G1 X113.746 Y159.029 E93.41673
G1 X111.514 Y158.575 E93.56975
G1 X109.353 Y157.856 E93.72275
G1 X107.861 Y157.18 E93.83279
G1 X105.895 Y156.03 E93.9858
G1 X104.465 Y154.972 E94.1053
G1 X102.789 Y153.43 E94.2583
G1 X101.312 Y151.696 E94.41132
G1 X100.385 Y150.346 E94.52134
G1 X99.297 Y148.345 E94.67435
G1 X98.458 Y146.228 E94.82733
G1 X97.985 Y144.513 E94.94685
G1 X97.617 Y142.265 E95.09988
G1 X96.154 Y115.745 E96.88421
G1 X96.246 Y113.001 E97.06866
G1 X96.518 Y111.243 E97.18817
G1 X96.778 Y110.134 E97.26469
G1 X97.69 Y107.512 E97.45119
G1 X98.472 Y105.915 E97.57065
G1 X99.323 Y104.515 E97.68071
G1 X99.985 Y103.587 E97.75729
G1 X101.127 Y102.223 E97.8768
G1 X101.184 Y102.166 E97.88222
G1 X101.639 Y102.624 F9600
G1 F1800
G1 X102.715 Y101.553 E97.98421
G1 X104.055 Y100.442 E98.10115
G1 X106.291 Y99.003 E98.27978
G1 X107.857 Y98.245 E98.39666
G1 X110.372 Y97.384 E98.57525
G1 X112.074 Y97.023 E98.69213
G1 X113.623 Y96.838 E98.79693
G1 X115.363 Y96.79 E98.91387
G1 X143.038 Y97.424 E100.77357
G1 X144.437 Y97.52 E100.86778
G1 X146.157 Y97.786 E100.9847
G1 X147.671 Y98.163 E101.08952
G1 X149.739 Y98.911 E101.23726
G1 X151.302 Y99.676 E101.35417
G1 X153.161 Y100.852 E101.50195
G1 X154.387 Y101.816 E101.60672
G1 X155.651 Y103.012 E101.72362
G1 X156.683 Y104.182 E101.82843
G1 X157.96 Y105.973 E101.9762
G1 X158.811 Y107.491 E102.09311
G1 X159.673 Y109.514 E102.24084
G1 X160.286 Y111.626 E102.38858
G1 X160.639 Y113.797 E102.53634
G1 X161.725 Y140.815 E104.35288
G1 X161.631 Y143.325 E104.52162
G1 X161.365 Y145.045 E104.63854
G1 X160.797 Y147.169 E104.78624
G1 X159.976 Y149.21 E104.93403
G1 X158.915 Y151.137 E105.08181
G1 X158.026 Y152.418 E105.18656
G1 X156.593 Y154.087 E105.33434
G1 X154.969 Y155.57 E105.48209
G1 X153.178 Y156.847 E105.62986
G1 X151.246 Y157.899 E105.77765
G1 X149.202 Y158.71 E105.92538
G1 X147.075 Y159.269 E106.07312
G1 X145.354 Y159.527 E106.19003
G1 X142.879 Y159.61 E106.35639
G1 X115.74 Y158.558 E108.18096
G1 X113.825 Y158.387 E108.31012
G1 X111.67 Y157.948 E108.45787
G1 X109.584 Y157.252 E108.6056
G1 X108.163 Y156.608 E108.71041
G1 X106.263 Y155.499 E108.8582
G1 X104.864 Y154.465 E108.97507
G1 X103.247 Y152.974 E109.12283
G1 X101.822 Y151.299 E109.27057
G1 X100.939 Y150.013 E109.37537
G1 X99.887 Y148.081 E109.52316
G1 X99.225 Y146.472 E109.64004
G1 X98.612 Y144.359 E109.78784
G1 X98.259 Y142.189 E109.93554
G1 X96.8 Y115.71 E111.7171
G1 X96.888 Y113.081 E111.89382
G1 X97.153 Y111.361 E112.01073
G1 X97.406 Y110.29 E112.08466
G1 X98.279 Y107.779 E112.26325
G1 X99.044 Y106.216 E112.38016
G1 X99.854 Y104.883 E112.48495
G1 X100.493 Y103.987 E112.55888
G1 X101.598 Y102.667 E112.67453
G1 X102.099 Y103.141 F9600
G1 F1800
G1 X103.143 Y102.037 E112.77661
G1 X104.452 Y100.951 E112.89087
G1 X106.59 Y99.576 E113.06164
G1 X108.121 Y98.835 E113.17591
G1 X109.508 Y98.313 E113.27547
G1 X111.147 Y97.86 E113.38971
G1 X112.605 Y97.596 E113.48925
G1 X114.3 Y97.446 E113.60357
G1 X115.361 Y97.436 E113.67485
G1 X143.023 Y98.07 E115.53368
G1 X144.358 Y98.161 E115.62357
G1 X146.039 Y98.421 E115.73784
G1 X147.477 Y98.779 E115.83739
G1 X149.472 Y99.5 E115.9799
G1 X151.366 Y100.456 E116.12243
G1 X152.793 Y101.383 E116.23675
G1 X153.957 Y102.299 E116.33626
G1 X155.193 Y103.468 E116.45055
G1 X156.173 Y104.58 E116.55013
G1 X157.406 Y106.306 E116.69263
G1 X158.238 Y107.79 E116.80692
G1 X159.069 Y109.742 E116.94944
G1 X159.658 Y111.78 E117.09196
G1 X159.997 Y113.874 E117.23447
G1 X161.079 Y140.84 E119.04751
G1 X161.029 Y142.826 E119.18097
G1 X160.847 Y144.297 E119.28055
G1 X160.372 Y146.365 E119.4231
G1 X159.651 Y148.36 E119.56561
G1 X158.695 Y150.254 E119.70814
G1 X157.518 Y152.019 E119.85066
G1 X156.137 Y153.629 E119.99316
G1 X154.572 Y155.061 E120.13567
G1 X152.845 Y156.293 E120.27819
G1 X150.983 Y157.309 E120.42069
G1 X149.011 Y158.093 E120.56326
G1 X146.96 Y158.633 E120.70574
