; generated by PrusaSlicer 2.9.1 on 2025-11-20 at 18:50:04 UTC

; 

; external perimeters extrusion width = 0.70mm
; perimeters extrusion width = 0.70mm
; infill extrusion width = 0.70mm
; solid infill extrusion width = 0.70mm
; top infill extrusion width = 0.70mm
; first layer extrusion width = 0.70mm

; external perimeters extrusion width = 0.70mm
; perimeters extrusion width = 0.70mm
; infill extrusion width = 0.70mm
; solid infill extrusion width = 0.70mm
; top infill extrusion width = 0.70mm
; first layer extrusion width = 0.70mm

M190 S60 ; set bed temperature and wait for it to be reached
M104 S230 ; set temperature
;TYPE:Custom
G28 ; home all axes
G1 Z5 F5000 ; lift nozzle
M109 S230 ; set temperature and wait for it to be reached
G21 ; set units to millimeters
G90 ; use absolute coordinates
M82 ; use absolute distances for extrusion
G92 E0
; Filament gcode
M107
;LAYER_CHANGE
;Z:0.25
;HEIGHT:0.25
G1 E-2 F2400
G92 E0
G1 Z.25 F9600
G1 X65.778 Y66.753
G1 E2 F2400
;TYPE:Skirt/Brim
;WIDTH:0.7
G1 F1800
G1 X68.07 Y64.495 E2.21615
G1 X71.171 Y61.781 E2.49299
G1 X74.432 Y59.255 E2.7701
G1 X78.088 Y56.774 E3.06692
G1 X81.527 Y54.727 E3.33578
G1 X85.153 Y52.852 E3.61002
G1 X88.847 Y51.209 E3.88162
G1 X92.651 Y49.779 E4.15463
G1 X96.708 Y48.531 E4.43978
G1 X100.589 Y47.579 E4.70824
G1 X104.761 Y46.821 E4.9931
G1 X108.796 Y46.336 E5.26612
G1 X112.852 Y46.09 E5.5391
G1 X117.097 Y46.092 E5.82428
G1 X121.166 Y46.333 E6.09812
G1 X125.24 Y46.821 E6.37377
G1 X129.256 Y47.546 E6.64793
G1 X133.242 Y48.514 E6.92349
G1 X137.35 Y49.78 E7.21227
G1 X141.117 Y51.195 E7.4826
G1 X144.813 Y52.836 E7.75427
G1 X148.629 Y54.814 E8.04302
G1 X152.1 Y56.889 E8.31469
G1 X155.458 Y59.176 E8.58763
G1 X158.828 Y61.781 E8.87378
G1 X161.931 Y64.495 E9.15073
G1 X164.864 Y67.389 E9.42754
G1 X167.557 Y70.379 E9.69787
G1 X170.083 Y73.538 E9.9696
G1 X172.527 Y77.008 E10.25473
G1 X174.635 Y80.403 E10.5232
G1 X176.675 Y84.187 E10.812
G1 X178.368 Y87.838 E11.08236
G1 X179.851 Y91.6 E11.35402
G1 X181.178 Y95.667 E11.64142
G1 X182.206 Y99.618 E11.91569
G1 X183.002 Y103.643 E12.19133
G1 X183.567 Y107.806 E12.47357
G1 X183.9 Y112.322 E12.77778
G1 X183.814 Y113.172 E12.83517
G1 X183.591 Y113.971 E12.8909
G1 X183.044 Y114.993 E12.96877
G1 X183.585 Y116.013 E13.04634
G1 X183.828 Y116.904 E13.10838
G1 X183.901 Y117.802 E13.16891
G1 X183.548 Y122.371 E13.47677
G1 X183.002 Y126.358 E13.74712
G1 X182.219 Y130.324 E14.0187
G1 X181.133 Y134.484 E14.30754
G1 X179.85 Y138.402 E14.58451
G1 X178.336 Y142.235 E14.86137
G1 X176.622 Y145.918 E15.13428
G1 X174.684 Y149.511 E15.40853
G1 X172.537 Y152.983 E15.68277
G1 X170.188 Y156.322 E15.95703
G1 X167.506 Y159.681 E16.2458
G1 X164.809 Y162.668 E16.51616
G1 X161.929 Y165.506 E16.78779
G1 X158.691 Y168.332 E17.07652
G1 X155.457 Y170.825 E17.35084
G1 X152.083 Y173.121 E17.62501
G1 X148.578 Y175.214 E17.89926
G1 X144.972 Y177.088 E18.17227
G1 X141.044 Y178.835 E18.46108
G1 X137.22 Y180.265 E18.73535
G1 X133.319 Y181.465 E19.00954
G1 X129.372 Y182.429 E19.28249
G1 X125.356 Y183.161 E19.55673
G1 X121.086 Y183.674 E19.84565
G1 X116.99 Y183.915 E20.1213
G1 X112.87 Y183.911 E20.39808
G1 X108.834 Y183.667 E20.66971
G1 X104.82 Y183.188 E20.94128
G1 X100.644 Y182.432 E21.22638
G1 X96.637 Y181.45 E21.50354
G1 X92.818 Y180.278 E21.77191
G1 X88.786 Y178.766 E22.0612
G1 X85.057 Y177.098 E22.33563
G1 X81.423 Y175.215 E22.61059
G1 X77.934 Y173.132 E22.88358
G1 X74.574 Y170.848 E23.15652
G1 X71.172 Y168.219 E23.44536
G1 X68.069 Y165.505 E23.72231
G1 X65.136 Y162.61 E23.99917
G1 X62.418 Y159.591 E24.27207
G1 X59.871 Y156.4 E24.54636
G1 X57.517 Y153.065 E24.8206
G1 X55.364 Y149.594 E25.095
G1 X53.274 Y145.702 E25.39178
G1 X51.602 Y142.09 E25.65917
G1 X50.149 Y138.399 E25.92565
G1 X48.822 Y134.333 E26.21298
G1 X47.794 Y130.382 E26.48725
G1 X46.998 Y126.357 E26.76289
G1 X46.433 Y122.194 E27.04513
G1 X46.1 Y117.678 E27.34934
G1 X46.186 Y116.828 E27.40673
G1 X46.409 Y116.029 E27.46246
G1 X46.957 Y115.007 E27.54037
G1 X46.412 Y113.98 E27.61848
G1 X46.17 Y113.088 E27.68057
G1 X46.098 Y112.189 E27.74116
G1 X46.468 Y107.508 E28.05661
G1 X47.011 Y103.565 E28.324
G1 X47.785 Y99.657 E28.59164
G1 X48.822 Y95.669 E28.86846
G1 X50.09 Y91.765 E29.14422
G1 X51.715 Y87.655 E29.44113
G1 X53.405 Y84.028 E29.70995
G1 X55.355 Y80.421 E29.98541
G1 X57.485 Y76.984 E30.25705
G1 X59.812 Y73.678 E30.52865
G1 X62.494 Y70.319 E30.81742
G1 X65.191 Y67.332 E31.08778
G1 X65.735 Y66.795 E31.13913
G1 X66.189 Y67.255 F9600
G1 F1800
G1 X68.517 Y64.962 E31.35865
G1 X71.59 Y62.274 E31.63293
G1 X74.82 Y59.772 E31.90741
G1 X78.427 Y57.324 E32.20027
G1 X81.833 Y55.297 E32.46654
G1 X85.442 Y53.43 E32.73951
G1 X89.101 Y51.804 E33.0085
G1 X92.869 Y50.388 E33.27892
G1 X96.889 Y49.152 E33.56146
G1 X100.734 Y48.209 E33.82742
G1 X104.867 Y47.459 E34.10961
G1 X108.863 Y46.979 E34.37999
G1 X112.882 Y46.736 E34.65048
G1 X117.087 Y46.738 E34.93297
G1 X121.118 Y46.977 E35.20425
G1 X125.153 Y47.462 E35.47727
G1 X129.132 Y48.181 E35.74891
G1 X133.08 Y49.139 E36.02183
G1 X137.132 Y50.388 E36.30668
G1 X140.881 Y51.796 E36.57572
G1 X144.541 Y53.422 E36.84477
G1 X148.305 Y55.374 E37.12962
G1 X151.76 Y57.439 E37.40003
G1 X155.087 Y59.705 E37.67046
G1 X158.41 Y62.274 E37.95263
G1 X161.484 Y64.962 E38.22696
G1 X164.39 Y67.829 E38.5012
G1 X167.07 Y70.805 E38.77025
G1 X169.572 Y73.934 E39.0394
G1 X171.993 Y77.372 E39.32189
G1 X174.08 Y80.736 E39.58784
G1 X176.093 Y84.468 E39.8727
G1 X177.777 Y88.102 E40.14177
G1 X179.246 Y91.828 E40.41084
G1 X180.554 Y95.84 E40.69433
G1 X181.574 Y99.753 E40.96599
G1 X182.363 Y103.74 E41.23903
G1 X182.923 Y107.863 E41.51856
G1 X183.254 Y112.34 E41.82015
G1 X183.175 Y113.074 E41.86975
G1 X182.977 Y113.767 E41.91817
G1 X182.721 Y114.314 E41.95874
G1 X182.25 Y115 E42.01464
G1 X182.655 Y115.574 E42.06183
G1 X182.971 Y116.218 E42.11002
G1 X183.187 Y116.991 E42.16394
G1 X183.255 Y117.78 E42.21714
G1 X182.907 Y122.293 E42.52122
G1 X182.363 Y126.26 E42.79022
G1 X181.587 Y130.19 E43.05934
G1 X180.516 Y134.293 E43.34422
G1 X179.246 Y138.174 E43.61855
G1 X177.746 Y141.971 E43.89282
G1 X176.04 Y145.637 E44.16446
G1 X174.12 Y149.196 E44.43613
G1 X171.993 Y152.634 E44.70772
G1 X169.665 Y155.942 E44.97947
G1 X167.019 Y159.255 E45.26431
G1 X164.336 Y162.228 E45.53334
G1 X161.483 Y165.039 E45.80241
G1 X158.288 Y167.827 E46.08728
G1 X155.086 Y170.296 E46.35891
G1 X151.743 Y172.571 E46.63056
G1 X148.272 Y174.645 E46.9022
G1 X144.683 Y176.51 E47.17392
G1 X140.809 Y178.233 E47.45876
G1 X137.021 Y179.65 E47.73046
G1 X133.156 Y180.84 E48.00214
G1 X129.228 Y181.799 E48.27377
G1 X125.249 Y182.524 E48.54548
G1 X121.039 Y183.03 E48.83034
G1 X116.962 Y183.269 E49.1047
G1 X112.88 Y183.264 E49.37893
G1 X108.883 Y183.023 E49.64794
G1 X104.906 Y182.547 E49.91702
G1 X100.789 Y181.802 E50.19809
G1 X96.8 Y180.824 E50.47401
G1 X93.017 Y179.663 E50.73985
G1 X89.041 Y178.171 E51.02515
G1 X85.33 Y176.512 E51.29823
G1 X81.729 Y174.645 E51.57073
G1 X78.274 Y172.582 E51.84107
G1 X74.946 Y170.319 E52.11144
G1 X71.59 Y167.726 E52.39635
G1 X68.516 Y165.038 E52.67068
G1 X65.61 Y162.171 E52.94492
G1 X62.905 Y159.165 E53.21659
G1 X60.382 Y156.005 E53.48824
G1 X58.051 Y152.701 E53.75988
G1 X55.918 Y149.262 E54.03174
G1 X53.856 Y145.422 E54.32455
G1 X52.199 Y141.844 E54.58945
G1 X50.754 Y138.172 E54.85455
G1 X49.445 Y134.16 E55.13806
G1 X48.426 Y130.247 E55.4097
G1 X47.637 Y126.26 E55.68274
G1 X47.077 Y122.137 E55.96227
G1 X46.746 Y117.66 E56.26386
G1 X46.825 Y116.926 E56.31346
G1 X47.023 Y116.233 E56.36188
G1 X47.279 Y115.686 E56.40245
G1 X47.75 Y115 E56.45835
G1 X47.343 Y114.421 E56.5059
G1 X47.027 Y113.776 E56.55415
G1 X46.811 Y113.002 E56.60813
G1 X46.745 Y112.212 E56.66139
G1 X47.11 Y107.587 E56.97306
G1 X47.647 Y103.682 E57.23787
G1 X48.413 Y99.81 E57.50303
G1 X49.44 Y95.86 E57.77721
G1 X50.701 Y91.974 E58.05167
G1 X52.305 Y87.92 E58.34456
G1 X53.978 Y84.327 E58.61082
G1 X55.91 Y80.753 E58.88376
G1 X58.019 Y77.348 E59.15283
G1 X60.335 Y74.058 E59.42312
G1 X62.981 Y70.745 E59.70796
G1 X65.664 Y67.772 E59.97699
G1 X66.146 Y67.297 E60.02245
G1 X66.599 Y67.758 F9600
G1 F1800
G1 X68.964 Y65.429 E60.24544
G1 X72.008 Y62.767 E60.5171
G1 X75.208 Y60.29 E60.78896
G1 X78.766 Y57.875 E61.07785
G1 X82.138 Y55.867 E61.34151
G1 X85.73 Y54.009 E61.61319
G1 X89.355 Y52.398 E61.87968
G1 X93.087 Y50.996 E62.1475
G1 X97.07 Y49.772 E62.42743
G1 X100.878 Y48.84 E62.6908
G1 X104.973 Y48.096 E62.97041
G1 X108.931 Y47.622 E63.23821
G1 X112.911 Y47.381 E63.50608
G1 X117.077 Y47.384 E63.78595
G1 X121.07 Y47.622 E64.05468
G1 X125.066 Y48.102 E64.32506
G1 X129.007 Y48.815 E64.59412
G1 X132.918 Y49.765 E64.8645
G1 X136.914 Y50.997 E65.14542
G1 X140.627 Y52.391 E65.41186
G1 X144.27 Y54.009 E65.67965
G1 X147.982 Y55.934 E65.96056
G1 X151.42 Y57.989 E66.22964
G1 X154.715 Y60.233 E66.49746
G1 X157.992 Y62.767 E66.77575
G1 X161.037 Y65.429 E67.04746
G1 X163.916 Y68.269 E67.31914
G1 X166.571 Y71.216 E67.58562
G1 X169.061 Y74.33 E67.85348
G1 X171.459 Y77.737 E68.13337
G1 X173.526 Y81.068 E68.39673
G1 X175.51 Y84.749 E68.67765
G1 X177.179 Y88.347 E68.9441
G1 X178.641 Y92.056 E69.21193
G1 X179.931 Y96.012 E69.49147
G1 X180.941 Y99.888 E69.76056
G1 X181.723 Y103.836 E70.03094
G1 X182.28 Y107.921 E70.30791
G1 X182.607 Y112.356 E70.60666
G1 X182.536 Y112.971 E70.64825
G1 X182.365 Y113.559 E70.68939
G1 X182.15 Y114.011 E70.72302
G1 X181.456 Y115.006 E70.80452
G1 X182.09 Y115.889 E70.87755
G1 X182.359 Y116.427 E70.91796
G1 X182.547 Y117.082 E70.96374
G1 X182.608 Y117.758 E71.00934
G1 X182.265 Y122.215 E71.30965
G1 X181.724 Y126.163 E71.57736
G1 X180.955 Y130.055 E71.84388
G1 X179.898 Y134.101 E72.12481
G1 X178.641 Y137.945 E72.39651
G1 X177.156 Y141.707 E72.66822
G1 X175.467 Y145.339 E72.93731
G1 X173.556 Y148.88 E73.20763
G1 X171.448 Y152.286 E73.47672
G1 X169.142 Y155.562 E73.74586
G1 X166.533 Y158.829 E74.02674
G1 X163.863 Y161.788 E74.29449
G1 X161.036 Y164.571 E74.56099
G1 X157.886 Y167.321 E74.8419
G1 X154.714 Y169.767 E75.11099
G1 X151.387 Y172.032 E75.38138
G1 X147.948 Y174.085 E75.65045
G1 X144.394 Y175.932 E75.91953
G1 X140.573 Y177.631 E76.20046
G1 X136.821 Y179.035 E76.46959
G1 X132.975 Y180.219 E76.73993
G1 X129.084 Y181.169 E77.00901
G1 X125.143 Y181.886 E77.27811
G1 X120.991 Y182.385 E77.55905
G1 X116.953 Y182.623 E77.83079
G1 X112.909 Y182.619 E78.10247
G1 X108.95 Y182.38 E78.36892
G1 X104.993 Y181.907 E78.63664
G1 X100.933 Y181.172 E78.91383
G1 X96.963 Y180.199 E79.18843
G1 X93.216 Y179.048 E79.45176
G1 X89.296 Y177.577 E79.73304
G1 X85.619 Y175.934 E80.0036
G1 X82.052 Y174.086 E80.27348
G1 X78.613 Y172.032 E80.54258
G1 X75.317 Y169.79 E80.81038
G1 X72.008 Y167.233 E81.09132
G1 X68.963 Y164.571 E81.36303
G1 X66.083 Y161.731 E81.63476
G1 X63.404 Y158.755 E81.90376
G1 X60.893 Y155.609 E82.17418
G1 X58.585 Y152.336 E82.44323
G1 X56.473 Y148.93 E82.71247
G1 X54.439 Y145.141 E83.00137
G1 X52.79 Y141.581 E83.26494
G1 X51.359 Y137.944 E83.52751
G1 X50.068 Y133.988 E83.80707
G1 X49.059 Y130.112 E84.07614
G1 X48.277 Y126.164 E84.34652
G1 X47.72 Y122.079 E84.62349
G1 X47.393 Y117.644 E84.92224
G1 X47.464 Y117.029 E84.96383
G1 X47.635 Y116.441 E85.00497
G1 X47.85 Y115.989 E85.0386
G1 X48.544 Y114.995 E85.12004
G1 X47.908 Y114.107 E85.19342
G1 X47.639 Y113.568 E85.23389
G1 X47.452 Y112.912 E85.27972
G1 X47.391 Y112.235 E85.32539
G1 X47.751 Y107.665 E85.63335
G1 X48.286 Y103.779 E85.89687
G1 X49.046 Y99.945 E86.15945
G1 X50.063 Y96.032 E86.43106
G1 X51.313 Y92.183 E86.70293
G1 X52.895 Y88.184 E86.99184
G1 X54.551 Y84.626 E87.25549
G1 X56.464 Y81.085 E87.52587
G1 X58.563 Y77.697 E87.79362
G1 X60.858 Y74.438 E88.0614
G1 X63.467 Y71.171 E88.34228
G1 X66.137 Y68.212 E88.61003
G1 X66.556 Y67.8 E88.64951
G1 X67.01 Y68.26 F9600
G1 F1800
G1 X69.41 Y65.896 E88.87582
G1 X72.426 Y63.26 E89.14492
G1 X75.595 Y60.807 E89.41414
G1 X79.105 Y58.425 E89.69911
G1 X82.444 Y56.436 E89.96021
G1 X86.001 Y54.596 E90.22925
G1 X89.608 Y52.993 E90.49442
G1 X93.305 Y51.605 E90.75971
G1 X97.251 Y50.393 E91.03703
G1 X101.022 Y49.47 E91.29784
G1 X105.079 Y48.734 E91.57484
G1 X108.998 Y48.265 E91.84
G1 X112.94 Y48.027 E92.10531
G1 X117.067 Y48.031 E92.38256
G1 X121.021 Y48.267 E92.64866
G1 X124.98 Y48.743 E92.91654
G1 X128.883 Y49.449 E93.183
G1 X132.756 Y50.391 E93.45077
G1 X136.696 Y51.605 E93.72774
G1 X140.391 Y52.993 E93.99291
G1 X143.999 Y54.596 E94.25814
G1 X147.659 Y56.494 E94.53511
G1 X151.064 Y58.529 E94.8016
G1 X154.343 Y60.762 E95.06811
G1 X157.574 Y63.26 E95.34248
G1 X160.59 Y65.896 E95.61158
G1 X163.443 Y68.708 E95.88069
G1 X166.084 Y71.641 E96.14584
G1 X168.55 Y74.726 E96.41117
G1 X170.925 Y78.101 E96.68842
G1 X172.971 Y81.401 E96.94927
G1 X174.928 Y85.03 E97.22626
G1 X176.589 Y88.611 E97.49145
G1 X178.036 Y92.283 E97.7566
G1 X179.309 Y96.184 E98.03227
G1 X180.309 Y100.023 E98.29878
G1 X181.084 Y103.933 E98.56656
G1 X181.636 Y107.979 E98.84089
G1 X181.961 Y112.318 E99.1332
G1 X181.907 Y112.822 E99.16725
G1 X181.603 Y113.665 E99.22745
G1 X180.991 Y114.543 E99.29935
G1 X180.535 Y115.001 E99.34277
G1 X180.949 Y115.408 E99.38177
G1 X181.55 Y116.245 E99.45099
G1 X181.907 Y117.178 E99.5181
G1 X181.962 Y117.738 E99.5559
G1 X181.623 Y122.136 E99.85224
G1 X181.088 Y126.047 E100.11743
G1 X180.322 Y129.92 E100.38266
G1 X179.281 Y133.909 E100.65962
G1 X178.036 Y137.717 E100.92877
G1 X176.566 Y141.443 E101.19786
G1 X174.893 Y145.04 E101.46437
G1 X173.001 Y148.548 E101.73213
G1 X170.914 Y151.922 E101.99865
G1 X168.619 Y155.182 E102.26648
G1 X166.047 Y158.403 E102.54339
G1 X163.402 Y161.334 E102.80862
G1 X160.59 Y164.104 E103.07379
G1 X157.483 Y166.815 E103.35081
G1 X154.342 Y169.238 E103.61731
G1 X151.048 Y171.482 E103.88507
G1 X147.642 Y173.516 E104.15158
G1 X144.104 Y175.353 E104.41939
G1 X140.337 Y177.029 E104.69638
G1 X136.622 Y178.42 E104.96288
G1 X132.813 Y179.593 E105.23063
G1 X128.959 Y180.534 E105.49715
G1 X125.037 Y181.249 E105.76497
G1 X120.943 Y181.74 E106.04198
G1 X116.944 Y181.976 E106.3111
G1 X112.939 Y181.973 E106.58016
G1 X108.999 Y181.735 E106.84533
G1 X105.079 Y181.266 E107.11055
G1 X101.077 Y180.542 E107.38377
G1 X97.126 Y179.573 E107.65707
G1 X93.415 Y178.433 E107.91787
G1 X89.55 Y176.983 E108.19519
G1 X85.891 Y175.347 E108.46445
G1 X82.359 Y173.516 E108.73172
G1 X78.953 Y171.482 E108.99823
G1 X75.689 Y169.261 E109.26346
G1 X72.426 Y166.74 E109.54047
G1 X69.41 Y164.104 E109.80957
G1 X66.557 Y161.292 E110.07868
G1 X63.903 Y158.344 E110.34516
G1 X61.416 Y155.229 E110.61294
G1 X59.129 Y151.987 E110.87948
G1 X57.028 Y148.598 E111.14736
G1 X55.021 Y144.861 E111.43233
G1 X53.388 Y141.336 E111.69332
G1 X51.964 Y137.716 E111.95465
G1 X50.691 Y133.815 E112.23032
G1 X49.691 Y129.977 E112.49677
G1 X48.916 Y126.067 E112.76455
G1 X48.364 Y122.021 E113.03888
G1 X48.039 Y117.682 E113.33119
G1 X48.093 Y117.178 E113.36524
G1 X48.397 Y116.335 E113.42544
G1 X49.009 Y115.457 E113.49734
G1 X49.465 Y114.999 E113.54076
G1 X49.049 Y114.59 E113.57995
G1 X48.448 Y113.751 E113.64928
G1 X48.092 Y112.817 E113.71643
G1 X48.038 Y112.257 E113.75423
G1 X48.393 Y107.744 E114.05835
G1 X48.922 Y103.895 E114.31936
G1 X49.678 Y100.08 E114.58064
G1 X50.686 Y96.204 E114.84969
G1 X51.925 Y92.393 E115.1189
G1 X53.485 Y88.448 E115.40389
G1 X55.124 Y84.925 E115.66493
G1 X57.029 Y81.401 E115.93405
G1 X59.108 Y78.045 E116.19926
G1 X61.381 Y74.818 E116.46443
G1 X63.953 Y71.597 E116.74134
G1 X66.598 Y68.666 E117.00657
G1 X66.967 Y68.302 E117.04139
G1 X67.421 Y68.763 F9600
G1 F1800
G1 X69.857 Y66.363 E117.27112
G1 X72.844 Y63.753 E117.5376
G1 X75.983 Y61.324 E117.80424
G1 X79.444 Y58.975 E118.08525
G1 X82.75 Y57.006 E118.34376
G1 X86.273 Y55.182 E118.61028
G1 X89.845 Y53.595 E118.87287
G1 X93.523 Y52.213 E119.13683
G1 X97.431 Y51.013 E119.41147
G1 X101.166 Y50.1 E119.66978
G1 X105.165 Y49.375 E119.94281
G1 X109.047 Y48.909 E120.20548
G1 X112.969 Y48.673 E120.46944
G1 X117.057 Y48.677 E120.74407
G1 X120.973 Y48.911 E121.00762
G1 X124.893 Y49.383 E121.27287
G1 X128.758 Y50.084 E121.53676
G1 X132.594 Y51.017 E121.80198
G1 X136.478 Y52.214 E122.07502
G1 X140.138 Y53.587 E122.33763
G1 X143.727 Y55.182 E122.60148
G1 X147.336 Y57.053 E122.87458
G1 X150.708 Y59.068 E123.13848
