; generated by PrusaSlicer 2.9.1 on 2025-12-31 at 17:10:11 UTC

; 

; external perimeters extrusion width = 0.70mm
; perimeters extrusion width = 0.70mm
; infill extrusion width = 0.70mm
; solid infill extrusion width = 0.70mm
; top infill extrusion width = 0.70mm
; first layer extrusion width = 0.70mm

; external perimeters extrusion width = 0.70mm
; perimeters extrusion width = 0.70mm
; infill extrusion width = 0.70mm
; solid infill extrusion width = 0.70mm
; top infill extrusion width = 0.70mm
; first layer extrusion width = 0.70mm

M190 S40 ; set bed temperature and wait for it to be reached
M104 S230 ; set temperature
;TYPE:Custom
G28 ; home all axes
G1 Z5 F5000 ; lift nozzle
M109 S230 ; set temperature and wait for it to be reached
G21 ; set units to millimeters
G90 ; use absolute coordinates
M82 ; use absolute distances for extrusion
G92 E0
; Filament gcode
M107
;LAYER_CHANGE
;Z:0.25
;HEIGHT:0.25
G1 E-2 F2400
G92 E0
G1 Z.25 F9600
G1 X74.376 Y102.875
G1 E2 F2400
;TYPE:Skirt/Brim
;WIDTH:0.7
G1 F1800
G1 X75.531 Y102.049 E2.09539
G1 X77.012 Y101.202 E2.21001
G1 X78.341 Y100.613 E2.30767
G1 X79.963 Y100.086 E2.42224
G1 X81.464 Y99.765 E2.52536
G1 X83.155 Y99.588 E2.63958
G1 X115.741 Y99.029 E4.82904
G1 X117.091 Y99.149 E4.92009
G1 X118.604 Y99.424 E5.0234
G1 X119.856 Y99.768 E5.11063
G1 X121.303 Y100.307 E5.21436
G1 X123.363 Y101.374 E5.37021
G1 X124.588 Y102.207 E5.46973
G1 X125.637 Y103.065 E5.56077
G1 X160.901 Y138.291 E8.9093
G1 X161.874 Y139.376 E9.00721
G1 X162.671 Y140.439 E9.09647
G1 X163.651 Y142.062 E9.22384
G1 X164.303 Y143.462 E9.32759
G1 X164.761 Y144.738 E9.41867
G1 X165.212 Y146.552 E9.54424
G1 X165.423 Y148.082 E9.648
G1 X165.486 Y149.435 E9.73899
G1 X165.418 Y150.977 E9.84268
G1 X165.136 Y152.827 E9.9684
G1 X164.798 Y154.139 E10.05942
G1 X164.279 Y155.593 E10.16314
G1 X163.466 Y157.277 E10.28877
G1 X162.757 Y158.432 E10.37982
G1 X161.834 Y159.669 E10.48351
G1 X160.928 Y160.677 E10.57456
G1 X159.8 Y161.725 E10.678
G1 X158.298 Y162.846 E10.80391
G1 X156.273 Y163.979 E10.9598
G1 X153.984 Y164.843 E11.12417
G1 X151.716 Y165.331 E11.28002
G1 X149.789 Y165.482 E11.40987
G1 X121.78 Y164.906 E13.29192
G1 X120.333 Y164.761 E13.38962
G1 X118.954 Y164.494 E13.48398
G1 X117.581 Y164.091 E13.58011
G1 X116.23 Y163.554 E13.67778
G1 X114.376 Y162.556 E13.81923
G1 X112.899 Y161.501 E13.94117
G1 X99.005 Y149.481 E15.17539
G1 X73.162 Y126.059 E17.51848
G1 X72.433 Y125.299 E17.58923
G1 X71.366 Y123.968 E17.70383
G1 X70.081 Y121.818 E17.8721
G1 X69.616 Y120.782 E17.94839
G1 X69.067 Y119.173 E18.0626
G1 X68.74 Y117.757 E18.16023
G1 X68.528 Y116.056 E18.27539
G1 X68.491 Y114.935 E18.35074
G1 X68.565 Y113.483 E18.44841
G1 X68.827 Y111.798 E18.56297
G1 X69.195 Y110.391 E18.66067
G1 X69.794 Y108.794 E18.77526
G1 X70.302 Y107.745 E18.85356
G1 X71.025 Y106.526 E18.94877
G1 X72.039 Y105.155 E19.06333
G1 X73.019 Y104.08 E19.16105
G1 X74.331 Y102.915 E19.27892
G1 X74.751 Y103.421 F9600
G1 F1800
G1 X75.063 Y103.162 E19.30616
G1 X76.407 Y102.267 E19.41464
G1 X77.654 Y101.609 E19.50936
G1 X79.155 Y101.005 E19.61806
G1 X80.509 Y100.615 E19.71272
G1 X81.575 Y100.402 E19.78575
G1 X83.179 Y100.234 E19.8941
G1 X115.703 Y99.674 E22.07939
G1 X117.014 Y99.791 E22.16781
G1 X118.451 Y100.051 E22.26592
G1 X119.667 Y100.386 E22.35065
G1 X121.041 Y100.898 E22.44916
G1 X123.032 Y101.929 E22.59979
G1 X124.195 Y102.72 E22.69428
G1 X125.213 Y103.553 E22.78265
G1 X160.444 Y138.748 E26.12814
G1 X161.369 Y139.78 E26.22124
G1 X162.143 Y140.811 E26.30785
G1 X163.083 Y142.37 E26.43015
G1 X163.702 Y143.699 E26.52864
G1 X164.147 Y144.938 E26.61708
G1 X164.578 Y146.679 E26.73757
G1 X164.779 Y148.131 E26.83605
G1 X164.84 Y149.446 E26.92449
G1 X164.775 Y150.909 E27.02287
G1 X164.505 Y152.684 E27.14349
G1 X164.177 Y153.959 E27.23193
G1 X163.685 Y155.34 E27.33042
G1 X162.905 Y156.956 E27.45097
G1 X162.217 Y158.077 E27.53933
G1 X161.34 Y159.252 E27.63783
G1 X160.461 Y160.231 E27.72622
G1 X159.39 Y161.225 E27.82438
G1 X157.948 Y162.302 E27.94529
G1 X155.992 Y163.397 E28.09588
G1 X153.81 Y164.22 E28.25255
G1 X151.618 Y164.692 E28.40318
G1 X149.77 Y164.836 E28.52771
G1 X121.822 Y164.261 E30.40566
G1 X120.419 Y164.12 E30.50039
G1 X119.108 Y163.866 E30.5901
G1 X117.799 Y163.482 E30.68174
G1 X116.489 Y162.962 E30.77643
G1 X114.713 Y162.005 E30.91196
G1 X113.311 Y161.003 E31.02773
G1 X99.588 Y149.134 E32.24663
G1 X74.046 Y126.002 E34.56165
G1 X72.908 Y124.861 E34.66991
G1 X71.897 Y123.599 E34.77854
G1 X71.133 Y122.415 E34.8732
G1 X70.514 Y121.231 E34.96296
G1 X69.998 Y119.968 E35.05462
G1 X69.588 Y118.619 E35.14934
G1 X69.278 Y117.032 E35.25797
G1 X69.15 Y115.589 E35.35529
G1 X69.144 Y114.546 E35.42536
G1 X69.282 Y112.934 E35.53405
G1 X69.545 Y111.549 E35.62876
G1 X70.008 Y110 E35.73737
G1 X70.548 Y108.697 E35.83213
G1 X71.047 Y107.731 E35.90517
G1 X71.915 Y106.372 E36.0135
G1 X72.791 Y105.268 E36.10818
G1 X73.921 Y104.111 E36.21683
G1 X74.705 Y103.46 E36.28529
G1 X75.118 Y103.956 F9600
G1 F1800
G1 X75.457 Y103.675 E36.31487
G1 X76.728 Y102.828 E36.41748
G1 X77.936 Y102.191 E36.50923
G1 X79.354 Y101.619 E36.61195
G1 X80.667 Y101.242 E36.70372
G1 X81.686 Y101.039 E36.77352
G1 X83.203 Y100.88 E36.87599
G1 X115.665 Y100.32 E39.05712
G1 X116.937 Y100.433 E39.14291
G1 X118.298 Y100.679 E39.23582
G1 X119.478 Y101.004 E39.31804
G1 X120.779 Y101.489 E39.41132
G1 X122.701 Y102.484 E39.55672
G1 X123.801 Y103.232 E39.64608
G1 X124.789 Y104.04 E39.73182
G1 X159.987 Y139.205 E43.07432
G1 X160.863 Y140.183 E43.16252
G1 X161.614 Y141.183 E43.24654
G1 X162.33 Y142.336 E43.33772
G1 X162.903 Y143.476 E43.42344
G1 X163.412 Y144.768 E43.51673
G1 X163.868 Y146.425 E43.63219
G1 X164.081 Y147.684 E43.71797
G1 X164.188 Y149.068 E43.81122
G1 X164.17 Y150.344 E43.89695
G1 X163.97 Y152.052 E44.01248
G1 X163.665 Y153.405 E44.10566
G1 X163.272 Y154.62 E44.19145
G1 X162.728 Y155.897 E44.2847
G1 X161.89 Y157.398 E44.40019
G1 X161.157 Y158.444 E44.486
G1 X160.261 Y159.504 E44.57924
G1 X159.352 Y160.4 E44.66499
G1 X158.012 Y161.476 E44.78044
G1 X156.061 Y162.646 E44.93327
G1 X154.084 Y163.459 E45.07688
G1 X151.905 Y163.994 E45.22761
G1 X149.75 Y164.19 E45.37298
G1 X121.865 Y163.616 E47.2467
G1 X120.506 Y163.48 E47.33845
G1 X119.261 Y163.238 E47.42365
G1 X118.017 Y162.874 E47.51073
G1 X116.748 Y162.37 E47.60246
G1 X115.05 Y161.454 E47.73207
G1 X113.723 Y160.505 E47.84167
G1 X100.011 Y148.646 E49.05957
G1 X74.48 Y125.523 E51.37364
G1 X73.384 Y124.424 E51.47791
G1 X72.428 Y123.23 E51.58067
G1 X71.687 Y122.083 E51.67241
G1 X71.074 Y120.902 E51.7618
G1 X70.609 Y119.759 E51.8447
G1 X70.212 Y118.453 E51.9364
G1 X69.92 Y116.952 E52.03913
G1 X69.795 Y115.554 E52.13342
G1 X69.79 Y114.557 E52.2004
G1 X69.921 Y113.033 E52.30316
G1 X70.176 Y111.692 E52.39486
G1 X70.614 Y110.227 E52.49758
G1 X71.614 Y108.041 E52.65907
G1 X72.435 Y106.757 E52.76146
G1 X73.283 Y105.687 E52.85318
G1 X74.351 Y104.593 E52.95589
G1 X75.072 Y103.995 E53.01882
G1 X75.484 Y104.492 F9600
G1 F1800
G1 X75.851 Y104.187 E53.05088
G1 X77.049 Y103.389 E53.14758
G1 X78.218 Y102.772 E53.23638
G1 X79.554 Y102.234 E53.33314
G1 X80.824 Y101.869 E53.42191
G1 X81.797 Y101.676 E53.48855
G1 X83.226 Y101.526 E53.58508
G1 X115.627 Y100.965 E55.76211
G1 X116.86 Y101.075 E55.84527
G1 X118.145 Y101.307 E55.93299
G1 X119.29 Y101.622 E56.01277
G1 X120.517 Y102.08 E56.10076
G1 X122.369 Y103.039 E56.24087
G1 X123.407 Y103.745 E56.3252
G1 X124.365 Y104.528 E56.40832
G1 X159.53 Y139.662 E59.74778
G1 X160.358 Y140.586 E59.83113
G1 X161.086 Y141.555 E59.91255
G1 X161.761 Y142.643 E59.99857
G1 X162.317 Y143.749 E60.08173
G1 X162.797 Y144.968 E60.16974
G1 X163.235 Y146.552 E60.28015
G1 X163.441 Y147.772 E60.36327
G1 X163.541 Y149.078 E60.45126
G1 X163.524 Y150.316 E60.53444
G1 X163.332 Y151.948 E60.64483
G1 X163.044 Y153.225 E60.73277
G1 X162.664 Y154.403 E60.81592
G1 X162.15 Y155.608 E60.90393
G1 X161.349 Y157.043 E61.01434
G1 X160.639 Y158.057 E61.0975
G1 X159.794 Y159.057 E61.18545
G1 X158.912 Y159.926 E61.26863
G1 X157.63 Y160.954 E61.37902
G1 X155.78 Y162.064 E61.52396
G1 X153.875 Y162.847 E61.66233
G1 X151.808 Y163.355 E61.80532
G1 X149.73 Y163.544 E61.9455
G1 X121.907 Y162.971 E63.81505
G1 X120.593 Y162.839 E63.90377
G1 X119.414 Y162.61 E63.98446
G1 X118.235 Y162.265 E64.06699
G1 X117.007 Y161.777 E64.15576
G1 X115.387 Y160.902 E64.27945
G1 X114.134 Y160.006 E64.38293
G1 X100.434 Y148.157 E65.59978
G1 X74.913 Y125.044 E67.9129
G1 X73.86 Y123.986 E68.01318
G1 X72.959 Y122.862 E68.10996
G1 X72.242 Y121.751 E68.19879
G1 X71.66 Y120.63 E68.28364
G1 X71.221 Y119.55 E68.36196
G1 X70.837 Y118.286 E68.45071
G1 X70.561 Y116.872 E68.5475
G1 X70.44 Y115.518 E68.63882
G1 X70.437 Y114.568 E68.70264
G1 X70.56 Y113.132 E68.79946
G1 X70.806 Y111.834 E68.88821
G1 X71.219 Y110.454 E68.98498
G1 X72.181 Y108.352 E69.14028
G1 X72.954 Y107.141 E69.2368
G1 X73.776 Y106.106 E69.32559
G1 X74.782 Y105.075 E69.42236
G1 X75.438 Y104.53 E69.47965
G1 X75.82 Y105.035 F9600
G1 F1800
G1 X76.631 Y104.422 E69.54795
G1 X77.718 Y103.751 E69.63377
G1 X78.935 Y103.161 E69.72463
G1 X80.136 Y102.725 E69.81047
G1 X81.231 Y102.438 E69.88652
G1 X83.25 Y102.171 E70.02334
G1 X115.59 Y101.61 E72.19628
G1 X116.784 Y101.716 E72.27681
G1 X117.991 Y101.935 E72.35922
G1 X119.101 Y102.24 E72.43655
G1 X120.255 Y102.671 E72.51931
G1 X122.038 Y103.594 E72.65419
G1 X123.013 Y104.257 E72.7334
G1 X123.941 Y105.016 E72.81394
G1 X159.073 Y140.119 E76.15036
G1 X160.347 Y141.628 E76.28303
G1 X161.193 Y142.951 E76.38853
G1 X161.731 Y144.022 E76.46905
G1 X162.182 Y145.168 E76.55179
G1 X162.601 Y146.679 E76.65713
G1 X162.801 Y147.861 E76.73767
G1 X162.895 Y149.089 E76.82041
G1 X162.878 Y150.287 E76.9009
G1 X162.694 Y151.844 E77.00623
G1 X162.423 Y153.045 E77.08894
G1 X162.055 Y154.186 E77.16948
G1 X161.572 Y155.319 E77.25222
G1 X160.809 Y156.689 E77.35757
G1 X160.121 Y157.67 E77.43807
G1 X159.326 Y158.611 E77.52083
G1 X158.473 Y159.453 E77.60135
G1 X157.249 Y160.432 E77.70665
G1 X155.499 Y161.482 E77.84375
G1 X153.666 Y162.236 E77.9769
G1 X151.71 Y162.716 E78.1122
G1 X149.711 Y162.898 E78.24705
G1 X121.95 Y162.326 E80.11244
G1 X120.679 Y162.199 E80.19825
G1 X119.567 Y161.982 E80.27436
G1 X118.453 Y161.657 E80.35232
G1 X117.266 Y161.185 E80.43814
G1 X115.725 Y160.351 E80.55585
G1 X114.546 Y159.508 E80.65322
G1 X100.857 Y147.668 E81.86912
G1 X75.347 Y124.565 E84.18124
G1 X74.335 Y123.548 E84.27763
G1 X73.489 Y122.493 E84.36848
G1 X72.797 Y121.419 E84.45431
G1 X72.143 Y120.124 E84.55177
G1 X71.703 Y118.962 E84.63524
G1 X71.354 Y117.655 E84.72612
G1 X71.153 Y116.394 E84.8119
G1 X71.076 Y114.98 E84.90703
G1 X71.26 Y112.835 E85.05166
G1 X71.557 Y111.516 E85.14249
G1 X71.965 Y110.305 E85.22834
G1 X72.423 Y109.27 E85.30438
G1 X72.988 Y108.255 E85.38242
G1 X73.712 Y107.203 E85.46821
G1 X74.589 Y106.173 E85.55909
G1 X75.729 Y105.104 E85.66408
G1 X75.772 Y105.071 E85.66772
G1 X76.188 Y105.563 F9600
G1 F1800
G1 X77.323 Y104.738 E85.76198
G1 X78.421 Y104.11 E85.84696
G1 X79.548 Y103.611 E85.92976
G1 X81.365 Y103.07 E86.05712
G1 X83.273 Y102.817 E86.18642
G1 X115.552 Y102.255 E88.35526
G1 X116.707 Y102.358 E88.43316
G1 X117.838 Y102.563 E88.51038
G1 X118.912 Y102.859 E88.58522
G1 X119.993 Y103.261 E88.6627
G1 X121.706 Y104.149 E88.79232
G1 X123.517 Y105.504 E88.94427
G1 X158.616 Y140.576 E92.27765
G1 X159.818 Y142 E92.40284
G1 X160.624 Y143.259 E92.50327
G1 X161.145 Y144.295 E92.58117
G1 X161.568 Y145.368 E92.65865
G1 X161.967 Y146.806 E92.7589
G1 X162.16 Y147.949 E92.83677
G1 X162.249 Y149.099 E92.91426
G1 X162.232 Y150.258 E92.99213
G1 X162.056 Y151.74 E93.09239
G1 X161.802 Y152.865 E93.16987
G1 X161.446 Y153.969 E93.2478
G1 X160.993 Y155.03 E93.3253
G1 X160.268 Y156.334 E93.42553
G1 X159.603 Y157.284 E93.50343
G1 X158.859 Y158.165 E93.5809
G1 X158.033 Y158.979 E93.65881
G1 X156.867 Y159.91 E93.75905
G1 X155.218 Y160.9 E93.88826
G1 X153.458 Y161.624 E94.01611
G1 X151.613 Y162.077 E94.14374
G1 X149.691 Y162.252 E94.27339
G1 X121.993 Y161.681 E96.13454
G1 X120.766 Y161.558 E96.21738
G1 X119.66 Y161.339 E96.29312
G1 X118.294 Y160.913 E96.38925
G1 X117.135 Y160.407 E96.47421
G1 X115.701 Y159.562 E96.58603
G1 X114.673 Y158.774 E96.67305
G1 X101.28 Y147.18 E97.86309
G1 X75.781 Y124.086 E100.17426
G1 X74.811 Y123.11 E100.2667
G1 X74.02 Y122.124 E100.35162
G1 X73.143 Y120.71 E100.4634
G1 X72.596 Y119.533 E100.55059
G1 X72.189 Y118.34 E100.63527
G1 X71.912 Y117.138 E100.71814
G1 X71.722 Y114.991 E100.86294
G1 X71.785 Y113.759 E100.94581
G1 X71.979 Y112.51 E101.03072
G1 X72.292 Y111.317 E101.11358
G1 X72.735 Y110.133 E101.19851
G1 X73.749 Y108.265 E101.3413
G1 X74.5 Y107.249 E101.42618
G1 X75.331 Y106.338 E101.50902
G1 X76.143 Y105.603 E101.5826
G1 E99.5826 F2400
G92 E0
G92 E0
G1 X110.146 Y114.114 F9600
G1 E2 F2400
;TYPE:Perimeter
;WIDTH:0.606548
G1 F1800
G1 X110.372 Y113.305 E2.04827
G1 X110.567 Y112.823 E2.07815
;WIDTH:0.599253
G1 X110.833 Y112.35 E2.10892
;WIDTH:0.587272
G1 X110.88 Y112.278 E2.11369
;WIDTH:0.59309
G1 X111.263 Y111.766 E2.14954
;WIDTH:0.595439
G1 X112.074 Y111.02 E2.21159
;WIDTH:0.608175
G1 X112.568 Y110.716 E2.24502
G1 X113.059 Y110.461 E2.27691
;WIDTH:0.602837
G1 X113.384 Y110.339 E2.29673
G1 X114.143 Y110.136 E2.34158
;WIDTH:0.608702
G1 X114.825 Y110.077 E2.38107
G1 X115.361 Y110.073 E2.41199
;WIDTH:0.592875
G1 X116.058 Y110.172 E2.45145
G1 X116.781 Y110.394 E2.49384
;WIDTH:0.590062
G1 X117.754 Y110.902 E2.55504
;WIDTH:0.608843
G1 X118.347 Y111.385 E2.59917
G1 X118.754 Y111.785 E2.6321
;WIDTH:0.607908
G1 X119.096 Y112.263 E2.66596
G1 X119.37 Y112.702 E2.69577
;WIDTH:0.588252
G1 X119.624 Y113.264 E2.73004
;WIDTH:0.598439
G1 X119.824 Y113.932 E2.76952
;WIDTH:0.601325
G1 X119.906 Y114.457 E2.79977
G1 X119.934 Y114.914 E2.82583
;WIDTH:0.595857
G1 X119.868 Y115.836 E2.87792
;WIDTH:0.602388
G1 X119.581 Y116.832 E2.93704
G1 X119.364 Y117.305 E2.96672
;WIDTH:0.600994
G1 X119.105 Y117.74 E2.99552
;WIDTH:0.588754
G1 X118.733 Y118.232 E3.02983
;WIDTH:0.60858
G1 X118.223 Y118.722 E3.07062
G1 X117.815 Y119.062 E3.10125
;WIDTH:0.595771
G1 X117.254 Y119.392 E3.13792
;WIDTH:0.594551
G1 X116.557 Y119.688 E3.18049
G1 X115.823 Y119.867 E3.22296
;WIDTH:0.595499
G1 X114.726 Y119.93 E3.28484
;WIDTH:0.608333
G1 X114.152 Y119.85 E3.31825
G1 X113.611 Y119.734 E3.35015
;WIDTH:0.593648
G1 X112.87 Y119.457 E3.39455
;WIDTH:0.599088
G1 X111.949 Y118.883 E3.45607
;WIDTH:0.601177
G1 X111.56 Y118.537 E3.4857
G1 X111.247 Y118.203 E3.51175
;WIDTH:0.58698
G1 X110.716 Y117.448 E3.56292
;WIDTH:0.593103
G1 X110.374 Y116.734 E3.60731
G1 X110.172 Y116.029 E3.64843
;WIDTH:0.59347
G1 X110.066 Y115.261 E3.69193
;WIDTH:0.598107
G1 X110.13 Y114.172 E3.75366
G1 X110.727 Y114.205 F9600
;TYPE:External perimeter
;WIDTH:0.699999
G1 F1800
G1 X110.944 Y113.486 E3.80411
G1 X111.09 Y113.107 E3.8314
G1 X111.351 Y112.633 E3.86775
G1 X111.736 Y112.124 E3.91062
G1 X112.469 Y111.463 E3.97693
G1 X113.341 Y110.979 E4.04393
G1 X114.3 Y110.707 E4.1109
G1 X115.358 Y110.664 E4.18204
G1 X115.967 Y110.758 E4.22344
G1 X116.603 Y110.955 E4.26817
G1 X117.472 Y111.421 E4.33441
G1 X118.271 Y112.134 E4.40635
G1 X118.802 Y112.889 E4.46836
G1 X119.085 Y113.506 E4.51396
G1 X119.249 Y114.09 E4.55471
G1 X119.345 Y114.807 E4.60331
G1 X119.264 Y115.856 E4.67399
G1 X119.012 Y116.652 E4.73008
G1 X118.664 Y117.342 E4.782
G1 X118.263 Y117.874 E4.82676
G1 X117.481 Y118.57 E4.89709
G1 X116.952 Y118.885 E4.93845
G1 X116.335 Y119.138 E4.98325
G1 X115.688 Y119.293 E5.02795
G1 X114.704 Y119.336 E5.09412
G1 X113.724 Y119.155 E5.16107
G1 X113.092 Y118.907 E5.20668
G1 X112.273 Y118.383 E5.272
G1 X111.769 Y117.91 E5.31843
G1 X111.167 Y117.054 E5.38873
G1 X110.915 Y116.491 E5.43017
G1 X110.74 Y115.873 E5.47332
G1 X110.655 Y115.191 E5.51949
G1 X110.721 Y114.264 E5.58192
G1 X110.827 Y113.878 F9600
G1 E3.58192 F2400
G92 E0
G1 X115.171 Y109.535 F9600
G1 E2 F2400
;TYPE:Perimeter
;WIDTH:0.608702
G1 F1800
G1 X115.279 Y109.538 E2.00623
;WIDTH:0.601455
G1 X115.85 Y109.582 E2.03884
G1 X116.45 Y109.711 E2.07378
;WIDTH:0.604632
G1 X117.395 Y110.071 E2.13169
G1 X118.282 Y110.606 E2.19101
;WIDTH:0.608843
G1 X118.732 Y110.986 E2.225
G1 X119.193 Y111.463 E2.26328
;WIDTH:0.607908
G1 X119.544 Y111.937 E2.29726
