; generated by PrusaSlicer 2.9.1 on 2026-05-31 at 13:56:00 UTC

; 

; external perimeters extrusion width = 0.70mm
; perimeters extrusion width = 0.70mm
; infill extrusion width = 0.70mm
; solid infill extrusion width = 0.70mm
; top infill extrusion width = 0.70mm
; first layer extrusion width = 0.70mm

; external perimeters extrusion width = 0.70mm
; perimeters extrusion width = 0.70mm
; infill extrusion width = 0.70mm
; solid infill extrusion width = 0.70mm
; top infill extrusion width = 0.70mm
; first layer extrusion width = 0.70mm

M190 S80 ; set bed temperature and wait for it to be reached
M104 S255 ; set temperature
;TYPE:Custom
G28 ; home all axes
G1 Z5 F5000 ; lift nozzle
M109 S255 ; set temperature and wait for it to be reached
G21 ; set units to millimeters
G90 ; use absolute coordinates
M82 ; use absolute distances for extrusion
G92 E0
; Filament gcode
M107
;LAYER_CHANGE
;Z:0.25
;HEIGHT:0.25
G1 E-2 F2400
G92 E0
G1 Z.25 F9600
G1 X78.778 Y77.301
G1 E2 F2400
;TYPE:Skirt/Brim
;WIDTH:0.7
G1 F1800
G1 X80.159 Y76.022 E2.12645
G1 X82.759 Y73.845 E2.35426
G1 X84.248 Y72.721 E2.47959
G1 X87.087 Y70.795 E2.71006
G1 X88.683 Y69.827 E2.83546
G1 X91.704 Y68.197 E3.06607
G1 X93.426 Y67.379 E3.19414
G1 X96.558 Y66.08 E3.42193
G1 X98.315 Y65.454 E3.54723
G1 X101.601 Y64.466 E3.77775
G1 X103.413 Y64.02 E3.90311
G1 X106.783 Y63.369 E4.13369
G1 X108.671 Y63.105 E4.26176
G1 X112.048 Y62.803 E4.48953
G1 X113.871 Y62.732 E4.61209
G1 X117.41 Y62.775 E4.84986
G1 X120.963 Y63.061 E5.08932
G1 X122.659 Y63.284 E5.20424
G1 X124.358 Y63.564 E5.31992
G1 X127.852 Y64.324 E5.56014
G1 X131.286 Y65.321 E5.80036
G1 X132.912 Y65.884 E5.91596
G1 X136.179 Y67.202 E6.15263
G1 X137.877 Y67.991 E6.27842
G1 X140.877 Y69.573 E6.50627
G1 X142.515 Y70.547 E6.6343
G1 X145.339 Y72.423 E6.86206
G1 X146.839 Y73.533 E6.98742
G1 X149.491 Y75.711 E7.21796
G1 X150.871 Y76.967 E7.34332
G1 X153.288 Y79.402 E7.57381
G1 X154.505 Y80.757 E7.69616
G1 X155.669 Y82.148 E7.81801
G1 X157.735 Y84.884 E8.04833
G1 X158.783 Y86.429 E8.17375
G1 X160.562 Y89.362 E8.4042
G1 X161.434 Y90.977 E8.5275
G1 X162.963 Y94.196 E8.76691
G1 X163.638 Y95.828 E8.88556
G1 X164.798 Y99.081 E9.11758
G1 X165.325 Y100.835 E9.24062
G1 X166.148 Y104.177 E9.47184
G1 X166.776 Y107.755 E9.71589
G1 X167.14 Y111.166 E9.94634
G1 X167.243 Y113.03 E10.07175
G1 X167.26 Y116.461 E10.30225
G1 X167.177 Y118.284 E10.42485
G1 X167.028 Y120.127 E10.54907
G1 X166.587 Y123.488 E10.7768
G1 X166.251 Y125.323 E10.90213
G1 X165.463 Y128.663 E11.13267
G1 X164.944 Y130.455 E11.258
G1 X163.822 Y133.698 E11.48854
G1 X163.123 Y135.43 E11.61401
G1 X161.655 Y138.592 E11.84821
G1 X160.847 Y140.125 E11.96463
G1 X159.035 Y143.181 E12.20331
G1 X156.974 Y146.167 E12.44705
G1 X154.865 Y148.823 E12.67489
G1 X153.633 Y150.224 E12.80022
G1 X151.223 Y152.698 E13.03225
G1 X149.872 Y153.951 E13.15604
G1 X147.242 Y156.155 E13.38656
G1 X145.752 Y157.279 E13.51195
G1 X142.913 Y159.205 E13.74242
G1 X141.317 Y160.173 E13.86782
G1 X138.296 Y161.803 E14.09843
G1 X136.574 Y162.621 E14.2265
G1 X133.442 Y163.92 E14.45429
G1 X131.685 Y164.546 E14.57959
G1 X128.399 Y165.534 E14.81011
G1 X126.587 Y165.98 E14.93547
G1 X123.218 Y166.63 E15.16597
G1 X121.425 Y166.884 E15.28763
G1 X119.614 Y167.076 E15.40998
G1 X116.188 Y167.267 E15.6405
G1 X112.612 Y167.226 E15.88075
G1 X109.113 Y166.948 E16.11655
G1 X107.245 Y166.701 E16.24313
G1 X103.899 Y166.088 E16.47166
G1 X102.094 Y165.662 E16.59625
G1 X98.798 Y164.707 E16.82678
G1 X97.035 Y164.097 E16.95211
G1 X93.853 Y162.813 E17.18263
G1 X92.16 Y162.027 E17.30803
G1 X89.123 Y160.427 E17.53864
G1 X87.485 Y159.453 E17.66667
G1 X84.66 Y157.576 E17.89453
G1 X83.161 Y156.467 E18.0198
G1 X80.509 Y154.289 E18.25034
G1 X79.151 Y153.054 E18.37366
G1 X77.836 Y151.77 E18.49713
G1 X75.531 Y149.284 E18.72488
G1 X74.333 Y147.854 E18.8502
G1 X72.265 Y145.116 E19.08071
G1 X71.218 Y143.572 E19.20604
G1 X69.438 Y140.638 E19.43658
G1 X67.751 Y137.375 E19.68335
G1 X66.394 Y134.254 E19.91198
G1 X65.729 Y132.48 E20.03926
G1 X64.699 Y129.25 E20.26702
G1 X64.223 Y127.447 E20.3923
G1 X63.516 Y124.088 E20.6229
G1 X63.219 Y122.205 E20.75096
G1 X62.86 Y118.833 E20.97877
G1 X62.757 Y116.97 E21.10412
G1 X62.74 Y113.539 E21.33462
G1 X62.825 Y111.675 E21.45997
G1 X63.156 Y108.259 E21.69053
G1 X63.43 Y106.413 E21.8159
G1 X64.104 Y103.049 E22.04639
G1 X64.563 Y101.24 E22.17177
G1 X65.574 Y97.961 E22.40229
G1 X66.199 Y96.247 E22.52485
G1 X66.893 Y94.533 E22.64908
G1 X68.32 Y91.458 E22.87682
G1 X70.089 Y88.239 E23.12358
G1 X71.937 Y85.355 E23.35369
G1 X73.026 Y83.833 E23.47942
G1 X75.134 Y81.177 E23.70722
G1 X76.367 Y79.776 E23.8326
G1 X78.736 Y77.344 E24.06068
G1 X79.199 Y77.795 F9600
G1 F1800
G1 X79.229 Y77.764 E24.06358
G1 X80.587 Y76.507 E24.18789
G1 X83.161 Y74.351 E24.41346
G1 X84.624 Y73.247 E24.53659
G1 X87.437 Y71.338 E24.76498
G1 X89.004 Y70.388 E24.88809
G1 X91.996 Y68.773 E25.11651
G1 X93.688 Y67.97 E25.24233
G1 X96.79 Y66.683 E25.46795
G1 X98.516 Y66.068 E25.59104
G1 X101.772 Y65.089 E25.81945
G1 X103.551 Y64.651 E25.94253
G1 X106.89 Y64.007 E26.17098
G1 X108.745 Y63.747 E26.29682
G1 X112.09 Y63.448 E26.52243
G1 X115.706 Y63.371 E26.76541
G1 X119.061 Y63.526 E26.99104
G1 X120.885 Y63.702 E27.11415
G1 X124.247 Y64.201 E27.34248
G1 X126.044 Y64.561 E27.4656
G1 X129.339 Y65.397 E27.69397
G1 X131.079 Y65.933 E27.81628
G1 X134.283 Y67.102 E28.0454
G1 X135.922 Y67.795 E28.16495
G1 X137.59 Y68.57 E28.28851
G1 X140.562 Y70.137 E28.51422
G1 X142.171 Y71.094 E28.63999
G1 X144.968 Y72.953 E28.86561
G1 X146.441 Y74.043 E28.98871
G1 X149.068 Y76.2 E29.21706
G1 X150.424 Y77.434 E29.34023
G1 X152.818 Y79.846 E29.56853
G1 X155.163 Y82.55 E29.80898
G1 X157.209 Y85.26 E30.0371
G1 X158.238 Y86.778 E30.1603
G1 X160.002 Y89.683 E30.38862
G1 X160.858 Y91.269 E30.5097
G1 X161.663 Y92.897 E30.63171
G1 X163.035 Y96.06 E30.86333
G1 X164.184 Y99.283 E31.0932
G1 X164.701 Y101.005 E31.21399
G1 X165.517 Y104.316 E31.44308
G1 X165.856 Y106.072 E31.56323
G1 X166.135 Y107.839 E31.68341
G1 X166.495 Y111.219 E31.91176
G1 X166.597 Y113.049 E32.03489
G1 X166.614 Y116.448 E32.26324
G1 X166.385 Y120.058 E32.50625
G1 X165.948 Y123.388 E32.73188
G1 X165.618 Y125.191 E32.85502
G1 X164.838 Y128.499 E33.08335
G1 X164.328 Y130.259 E33.20645
G1 X163.217 Y133.472 E33.43484
G1 X162.531 Y135.172 E33.55799
G1 X161.822 Y136.766 E33.67519
G1 X160.278 Y139.819 E33.90503
G1 X159.38 Y141.391 E34.02665
G1 X157.547 Y144.254 E34.25503
G1 X156.458 Y145.778 E34.38087
G1 X154.369 Y148.408 E34.60651
G1 X153.159 Y149.784 E34.72961
G1 X150.772 Y152.235 E34.95945
G1 X149.445 Y153.466 E35.08105
G1 X146.839 Y155.649 E35.30943
G1 X145.376 Y156.754 E35.4326
G1 X142.563 Y158.662 E35.66095
G1 X140.996 Y159.612 E35.78406
G1 X138.004 Y161.227 E36.01248
G1 X136.312 Y162.03 E36.1383
G1 X133.209 Y163.317 E36.36398
G1 X131.484 Y163.932 E36.48701
G1 X128.228 Y164.911 E36.71542
G1 X126.449 Y165.349 E36.8385
G1 X123.111 Y165.993 E37.06688
G1 X119.562 Y166.432 E37.30712
G1 X116.168 Y166.621 E37.53548
G1 X114.335 Y166.63 E37.65862
G1 X110.94 Y166.474 E37.88694
G1 X109.192 Y166.306 E38.00491
G1 X107.346 Y166.063 E38.12999
G1 X104.031 Y165.455 E38.35641
G1 X102.258 Y165.037 E38.47879
G1 X98.994 Y164.09 E38.70711
G1 X97.262 Y163.492 E38.83021
G1 X94.11 Y162.219 E39.05858
G1 X92.447 Y161.448 E39.18172
G1 X89.439 Y159.863 E39.41014
G1 X87.829 Y158.906 E39.53597
G1 X85.032 Y157.047 E39.76159
G1 X83.559 Y155.957 E39.88469
G1 X80.932 Y153.8 E40.11304
G1 X78.299 Y151.319 E40.35608
G1 X76.015 Y148.857 E40.58169
G1 X74.839 Y147.452 E40.70478
G1 X72.79 Y144.739 E40.93318
G1 X71.762 Y143.223 E41.05623
G1 X69.999 Y140.317 E41.28457
G1 X69.158 Y138.762 E41.40333
G1 X68.337 Y137.103 E41.52768
G1 X66.993 Y134.011 E41.75418
G1 X66.34 Y132.269 E41.87916
G1 X65.32 Y129.069 E42.10479
G1 X64.852 Y127.298 E42.22785
G1 X64.151 Y123.97 E42.45633
G1 X63.86 Y122.12 E42.58214
G1 X63.505 Y118.78 E42.80779
G1 X63.403 Y116.951 E42.93085
G1 X63.386 Y113.552 E43.1592
G1 X63.47 Y111.721 E43.28234
G1 X63.798 Y108.338 E43.51068
G1 X64.066 Y106.524 E43.63387
G1 X64.734 Y103.192 E43.86217
G1 X65.185 Y101.415 E43.98533
G1 X66.187 Y98.167 E44.21368
G1 X67.486 Y94.791 E44.45669
G1 X68.9 Y91.744 E44.68236
G1 X69.744 Y90.14 E44.80412
G1 X70.641 Y88.574 E44.92536
G1 X72.473 Y85.717 E45.15336
G1 X73.542 Y84.222 E45.27683
G1 X75.631 Y81.592 E45.50247
G1 X76.841 Y80.216 E45.62557
G1 X79.157 Y77.838 E45.84857
G1 X79.62 Y78.289 F9600
G1 F1800
G1 X79.681 Y78.226 E45.85446
G1 X81.014 Y76.992 E45.97649
G1 X83.564 Y74.856 E46.19996
G1 X85 Y73.772 E46.32083
G1 X87.786 Y71.882 E46.547
G1 X89.325 Y70.949 E46.66791
G1 X92.289 Y69.35 E46.89416
G1 X93.95 Y68.561 E47.0177
G1 X97.023 Y67.287 E47.24118
G1 X98.718 Y66.682 E47.36209
G1 X101.942 Y65.713 E47.58825
G1 X103.69 Y65.283 E47.70918
G1 X106.996 Y64.644 E47.93539
G1 X108.818 Y64.389 E48.05899
G1 X112.131 Y64.093 E48.28244
G1 X113.91 Y64.024 E48.40204
G1 X117.351 Y64.067 E48.63323
G1 X120.806 Y64.344 E48.86608
G1 X122.47 Y64.562 E48.97882
G1 X124.136 Y64.838 E49.09227
G1 X127.524 Y65.574 E49.32519
G1 X129.164 Y66.019 E49.43935
G1 X132.459 Y67.095 E49.67221
G1 X135.665 Y68.388 E49.90445
G1 X137.303 Y69.15 E50.02582
G1 X140.246 Y70.701 E50.24931
G1 X141.827 Y71.641 E50.37288
G1 X144.597 Y73.482 E50.59632
G1 X146.044 Y74.552 E50.71722
G1 X148.645 Y76.689 E50.94337
G1 X149.977 Y77.9 E51.06431
G1 X152.349 Y80.289 E51.29048
G1 X153.521 Y81.596 E51.40842
G1 X154.657 Y82.952 E51.52726
G1 X156.684 Y85.637 E51.75327
G1 X157.694 Y87.127 E51.8742
G1 X159.441 Y90.005 E52.10038
G1 X160.281 Y91.561 E52.21917
G1 X161.773 Y94.701 E52.45272
G1 X162.432 Y96.292 E52.56841
G1 X163.57 Y99.484 E52.79607
G1 X164.078 Y101.175 E52.91469
G1 X164.885 Y104.455 E53.14161
G1 X165.494 Y107.924 E53.37822
G1 X165.851 Y111.271 E53.60435
G1 X165.951 Y113.069 E53.72533
G1 X165.967 Y116.435 E53.95146
G1 X165.887 Y118.202 E54.07029
G1 X165.742 Y119.99 E54.1908
G1 X165.31 Y123.288 E54.41425
G1 X164.986 Y125.058 E54.53513
G1 X164.213 Y128.335 E54.76132
G1 X163.712 Y130.064 E54.88225
G1 X162.611 Y133.246 E55.10845
G1 X161.938 Y134.915 E55.22935
G1 X160.501 Y138.008 E55.45847
G1 X159.709 Y139.513 E55.57272
G1 X157.94 Y142.493 E55.80553
G1 X155.942 Y145.389 E56.04189
G1 X153.873 Y147.994 E56.26538
G1 X152.685 Y149.345 E56.38624
G1 X150.328 Y151.765 E56.61318
G1 X149.017 Y152.981 E56.73331
G1 X146.436 Y155.143 E56.9595
G1 X145 Y156.228 E57.08041
G1 X142.214 Y158.118 E57.30658
G1 X140.675 Y159.051 E57.42749
G1 X137.711 Y160.65 E57.65374
G1 X136.05 Y161.439 E57.77728
G1 X132.977 Y162.713 E58.00076
G1 X131.282 Y163.318 E58.12167
G1 X128.058 Y164.287 E58.34783
G1 X126.31 Y164.717 E58.46876
G1 X123.005 Y165.355 E58.69489
G1 X121.266 Y165.601 E58.81288
G1 X119.51 Y165.788 E58.93152
G1 X116.148 Y165.975 E59.15773
G1 X112.671 Y165.934 E59.39133
G1 X109.27 Y165.665 E59.62052
G1 X107.446 Y165.424 E59.74412
G1 X104.174 Y164.825 E59.96759
G1 X102.423 Y164.412 E60.08845
G1 X99.189 Y163.474 E60.31466
G1 X97.489 Y162.886 E60.4355
G1 X94.367 Y161.626 E60.66167
G1 X92.734 Y160.869 E60.78259
G1 X89.755 Y159.299 E61.00881
G1 X88.173 Y158.359 E61.13243
G1 X85.403 Y156.518 E61.35587
G1 X83.956 Y155.448 E61.47677
G1 X81.355 Y153.311 E61.70292
G1 X80.038 Y152.113 E61.82253
G1 X78.762 Y150.868 E61.9423
G1 X76.5 Y148.429 E62.16577
G1 X75.345 Y147.05 E62.28661
G1 X73.316 Y144.363 E62.51281
G1 X72.306 Y142.873 E62.63374
G1 X70.559 Y139.995 E62.85992
G1 X68.923 Y136.831 E63.09921
G1 X67.592 Y133.769 E63.32351
G1 X66.951 Y132.057 E63.44632
G1 X65.94 Y128.888 E63.66979
G1 X65.481 Y127.149 E63.79062
G1 X64.787 Y123.853 E64.0169
G1 X64.501 Y122.036 E64.14047
G1 X64.149 Y118.728 E64.36396
G1 X64.049 Y116.931 E64.48487
G1 X64.033 Y113.565 E64.711
G1 X64.115 Y111.767 E64.83192
G1 X64.439 Y108.416 E65.05809
G1 X64.703 Y106.636 E65.17898
G1 X65.365 Y103.335 E65.40516
G1 X65.807 Y101.59 E65.52609
G1 X66.8 Y98.373 E65.75227
G1 X67.409 Y96.7 E65.87188
G1 X68.079 Y95.048 E65.99164
G1 X69.479 Y92.031 E66.21508
G1 X71.194 Y88.909 E66.45438
G1 X73.008 Y86.079 E66.6802
G1 X74.058 Y84.611 E66.80145
G1 X76.127 Y82.006 E67.02494
G1 X77.315 Y80.655 E67.1458
G1 X79.578 Y78.332 E67.36367
G1 X80.041 Y78.783 F9600
G1 F1800
G1 X80.132 Y78.689 E67.37246
G1 X81.441 Y77.477 E67.49231
G1 X83.966 Y75.362 E67.71359
G1 X85.376 Y74.298 E67.83226
G1 X88.135 Y72.426 E68.05625
G1 X89.646 Y71.51 E68.17496
G1 X92.581 Y69.926 E68.39902
G1 X94.213 Y69.152 E68.52036
G1 X97.256 Y67.89 E68.74167
G1 X98.919 Y67.296 E68.8603
G1 X102.113 Y66.336 E69.08436
G1 X103.828 Y65.914 E69.20301
G1 X107.102 Y65.282 E69.42702
G1 X108.892 Y65.031 E69.54845
G1 X112.173 Y64.738 E69.76975
G1 X115.679 Y64.664 E70.00534
G1 X118.969 Y64.815 E70.2266
G1 X120.727 Y64.986 E70.34526
G1 X124.026 Y65.474 E70.5693
G1 X125.758 Y65.822 E70.68798
G1 X128.99 Y66.642 E70.91199
G1 X130.667 Y67.159 E71.02988
G1 X133.81 Y68.305 E71.25463
G1 X135.408 Y68.981 E71.37119
G1 X137.016 Y69.729 E71.49033
G1 X139.93 Y71.265 E71.71162
G1 X141.483 Y72.188 E71.83299
G1 X144.226 Y74.011 E72.05425
G1 X145.646 Y75.062 E72.17293
G1 X148.223 Y77.178 E72.39694
G1 X149.529 Y78.367 E72.51559
G1 X151.879 Y80.733 E72.73962
G1 X154.151 Y83.354 E72.97265
G1 X156.159 Y86.013 E73.1965
G1 X157.15 Y87.476 E73.31521
G1 X158.88 Y90.326 E73.53919
G1 X159.704 Y91.853 E73.65576
G1 X160.491 Y93.442 E73.77488
G1 X161.828 Y96.524 E74.00057
G1 X162.955 Y99.686 E74.22608
G1 X163.454 Y101.346 E74.34253
G1 X164.254 Y104.594 E74.56725
G1 X164.583 Y106.296 E74.68371
G1 X164.853 Y108.008 E74.80014
G1 X165.207 Y111.324 E75.02418
G1 X165.305 Y113.088 E75.14287
G1 X165.321 Y116.422 E75.36685
G1 X165.099 Y119.922 E75.60245
G1 X164.671 Y123.188 E75.82374
G1 X164.353 Y124.926 E75.94244
G1 X163.588 Y128.171 E76.16642
G1 X163.096 Y129.868 E76.28512
G1 X162.006 Y133.019 E76.50911
G1 X161.345 Y134.658 E76.62784
G1 X160.654 Y136.212 E76.74209
G1 X159.145 Y139.197 E76.96679
G1 X158.274 Y140.721 E77.08471
G1 X156.476 Y143.53 E77.30877
G1 X155.425 Y145 E77.43017
G1 X153.377 Y147.58 E77.65146
G1 X152.211 Y148.906 E77.77008
G1 X149.877 Y151.303 E77.99484
G1 X148.59 Y152.496 E78.11273
G1 X146.034 Y154.638 E78.33677
G1 X144.624 Y155.702 E78.45544
G1 X141.865 Y157.574 E78.67943
G1 X140.354 Y158.49 E78.79814
G1 X137.419 Y160.074 E79.0222
G1 X135.787 Y160.848 E79.14354
G1 X132.744 Y162.11 E79.36485
G1 X131.081 Y162.704 E79.48348
G1 X127.887 Y163.664 E79.70754
G1 X126.172 Y164.086 E79.82619
G1 X122.898 Y164.718 E80.0502
G1 X119.458 Y165.144 E80.28307
G1 X116.129 Y165.329 E80.50706
G1 X114.362 Y165.337 E80.62577
G1 X111.031 Y165.185 E80.84978
G1 X109.338 Y165.022 E80.96404
G1 X107.547 Y164.786 E81.0854
G1 X104.306 Y164.192 E81.30676
G1 X102.587 Y163.787 E81.4254
G1 X99.385 Y162.858 E81.64938
G1 X97.715 Y162.281 E81.76808
G1 X94.623 Y161.033 E81.99208
G1 X93.021 Y160.29 E82.11071
G1 X90.07 Y158.735 E82.3348
G1 X88.517 Y157.812 E82.45617
G1 X85.774 Y155.989 E82.67743
G1 X84.354 Y154.938 E82.79611
G1 X81.777 Y152.822 E83.02012
G1 X79.225 Y150.416 E83.25574
G1 X76.985 Y148.001 E83.47703
G1 X75.85 Y146.647 E83.59572
G1 X73.841 Y143.986 E83.81971
G1 X72.85 Y142.524 E83.93836
G1 X71.12 Y139.674 E84.16234
G1 X70.312 Y138.177 E84.27662
G1 X69.509 Y136.559 E84.39797
G1 X68.192 Y133.526 E84.62011
G1 X67.561 Y131.846 E84.74067
G1 X66.561 Y128.707 E84.96199
G1 X66.11 Y126.999 E85.08067
G1 X65.422 Y123.736 E85.3047
G1 X65.142 Y121.951 E85.42608
G1 X64.793 Y118.676 E85.64734
G1 X64.695 Y116.912 E85.76603
G1 X64.679 Y113.578 E85.99001
G1 X64.76 Y111.813 E86.10871
G1 X65.081 Y108.494 E86.33272
G1 X65.34 Y106.747 E86.45137
G1 X65.995 Y103.477 E86.67541
G1 X66.43 Y101.765 E86.79408
G1 X67.412 Y98.579 E87.01805
G1 X68.672 Y95.305 E87.25372
G1 X70.058 Y92.318 E87.47494
G1 X70.872 Y90.773 E87.59226
G1 X71.747 Y89.244 E87.71061
G1 X73.537 Y86.451 E87.93347
G1 X74.575 Y85 E88.05332
G1 X76.623 Y82.42 E88.27461
G1 X77.789 Y81.094 E88.39323
G1 X79.999 Y78.826 E88.60597
G1 X80.462 Y79.276 F9600
G1 F1800
G1 X80.576 Y79.159 E88.61694
G1 X81.868 Y77.962 E88.73526
G1 X84.369 Y75.868 E88.95439
G1 X85.752 Y74.823 E89.07084
G1 X88.485 Y72.97 E89.29267
G1 X89.967 Y72.071 E89.40912
G1 X92.873 Y70.503 E89.63095
G1 X94.475 Y69.742 E89.7501
