; generated by PrusaSlicer 2.9.1 on 2026-04-13 at 16:50:08 UTC

; 

; external perimeters extrusion width = 0.75mm
; perimeters extrusion width = 0.75mm
; infill extrusion width = 0.75mm
; solid infill extrusion width = 0.75mm
; top infill extrusion width = 0.75mm
; first layer extrusion width = 0.75mm

M190 S60 ; set bed temperature and wait for it to be reached
M104 S240 ; set temperature
;TYPE:Custom
G28 ; home all axes
G1 Z5 F5000 ; lift nozzle
M109 S240 ; set temperature and wait for it to be reached
G21 ; set units to millimeters
G90 ; use absolute coordinates
M82 ; use absolute distances for extrusion
G92 E0
; Filament gcode
M107
;LAYER_CHANGE
;Z:0.25
;HEIGHT:0.25
G1 E-2 F2400
G92 E0
G1 Z.25 F9600
G1 X85.027 Y11.071
G1 E2 F2400
;TYPE:Skirt/Brim
;WIDTH:0.75
G1 F1800
G1 X85.182 Y10.23 E2.06189
G1 X85.494 Y9.719 E2.10522
G1 X85.783 Y9.437 E2.13445
G1 X86.168 Y9.191 E2.16752
G1 X88.545 Y8.331 E2.35047
G1 X92.13 Y8.64 E2.6109
G1 X98.389 Y9.327 E3.06663
G1 X98.641 Y8.413 E3.13525
G1 X99.387 Y7.925 E3.19977
G1 X109.077 Y9.327 E3.90841
G1 X118.709 Y11.103 E4.6173
G1 X128.114 Y13.214 E5.31494
G1 X137.499 Y15.704 E6.0177
G1 X146.768 Y18.551 E6.7195
G1 X155.946 Y21.761 E7.42323
G1 X165.529 Y25.543 E8.16888
G1 X165.635 Y25.654 E8.17999
G1 X165.891 Y26.412 E8.2379
G1 X165.874 Y26.564 E8.24897
G1 X164.72 Y28.482 E8.41098
G1 X163.891 Y28.757 E8.4742
G1 X160.034 Y27.182 E8.77574
G1 X153.549 Y24.707 E9.27813
G1 X147.555 Y25.339 E9.71436
G1 X144.349 Y25.783 E9.94862
G1 X139.855 Y26.499 E10.27799
G1 X135.057 Y27.406 E10.63141
G1 X130.515 Y28.42 E10.96824
G1 X126.817 Y29.363 E11.24446
G1 X123.154 Y30.392 E11.51984
G1 X119.173 Y31.641 E11.82182
G1 X112.695 Y33.947 E12.3195
G1 X108.973 Y35.436 E12.60964
G1 X105.341 Y37.014 E12.89625
G1 X101.78 Y38.684 E13.18092
G1 X98.282 Y40.449 E13.4645
G1 X95.121 Y42.151 E13.72434
G1 X91.69 Y44.119 E14.01062
G1 X88.725 Y45.928 E14.26201
G1 X85.55 Y47.976 E14.53547
G1 X82.526 Y50.047 E14.80075
G1 X76.929 Y54.197 E15.30505
G1 X72.212 Y58.044 E15.7456
G1 X69.672 Y60.261 E15.98962
G1 X65.423 Y64.213 E16.40961
G1 X63.256 Y66.354 E16.63009
G1 X57.95 Y71.982 E17.18992
G1 X54.737 Y75.673 E17.5441
G1 X51.836 Y79.197 E17.87446
G1 X46.587 Y86.048 E18.49912
G1 X41.405 Y93.431 E19.15197
G1 X38.173 Y98.383 E19.57996
G1 X36.052 Y101.809 E19.8716
G1 X31.669 Y109.416 E20.50702
G1 X29.507 Y113.5 E20.84147
G1 X27.64 Y117.253 E21.14486
G1 X25.45 Y121.984 E21.52218
G1 X23.627 Y126.273 E21.85948
G1 X22.007 Y130.436 E22.1828
G1 X20.348 Y135.097 E22.54088
G1 X17.922 Y142.86 E23.12954
G1 X16.247 Y149.128 E23.59912
G1 X15.19 Y153.612 E23.93255
G1 X14.228 Y158.178 E24.27028
G1 X13.371 Y162.785 E24.60944
G1 X12.565 Y167.771 E24.975
G1 X11.934 Y172.35 E25.30955
G1 X11.383 Y177.17 E25.66068
G1 X10.646 Y186.204 E26.31671
G1 X10.374 Y192.625 E26.78186
G1 X12.157 Y191.033 E26.95486
G1 X15.971 Y187.992 E27.30791
G1 X19.949 Y185.17 E27.66092
G1 X24.345 Y182.407 E28.03672
G1 X25.193 Y182.556 E28.09904
G1 X25.307 Y182.64 E28.10929
G1 X27.216 Y185.975 E28.38742
G1 X26.973 Y186.765 E28.44724
G1 X22.246 Y189.762 E28.85234
G1 X18.029 Y192.828 E29.2297
G1 X14.016 Y196.156 E29.60703
G1 X9.938 Y200 E30.01264
G1 X9.809 Y200.049 E30.02263
G1 X8.97 Y199.973 E30.0836
G1 X6.529 Y197.401 E30.34024
G1 X6.357 Y196.959 E30.37457
G1 X6.525 Y189.943 E30.88251
G1 X6.692 Y186.515 E31.13091
G1 X7.332 Y178.217 E31.73328
G1 X7.844 Y173.491 E32.07734
G1 X8.507 Y168.471 E32.44383
G1 X9.338 Y163.177 E32.83169
G1 X10.377 Y157.516 E33.24826
G1 X11.459 Y152.385 E33.62779
G1 X12.672 Y147.305 E34.0058
G1 X14.144 Y141.834 E34.41586
G1 X15.62 Y136.955 E34.78479
G1 X17.247 Y132.104 E35.15511
G1 X18.837 Y127.792 E35.48774
G1 X20.654 Y123.267 E35.84066
G1 X22.613 Y118.789 E36.19442
G1 X24.438 Y114.917 E36.50423
G1 X26.588 Y110.648 E36.85018
G1 X28.82 Y106.508 E37.19059
G1 X30.997 Y102.695 E37.50838
G1 X35.308 Y95.674 E38.10469
G1 X38.315 Y91.07 E38.50269
G1 X43.406 Y83.808 E39.14459
G1 X48.528 Y77.115 E39.75458
G1 X53.498 Y71.167 E40.31558
G1 X58.204 Y66 E40.82141
G1 X63.085 Y61.088 E41.3226
G1 X68.006 Y56.561 E41.80655
G1 X70.507 Y54.413 E42.04516
G1 X74.519 Y51.173 E42.4184
G1 X80.067 Y47.048 E42.91878
G1 X84.745 Y43.88 E43.32769
G1 X89.706 Y40.799 E43.75036
G1 X94.832 Y37.901 E44.17655
G1 X100.162 Y35.178 E44.60975
G1 X104.831 Y33.009 E44.98236
G1 X109.912 Y30.884 E45.38097
G1 X115.526 Y28.791 E45.81461
G1 X121.532 Y26.847 E46.27151
G1 X126.715 Y25.39 E46.66118
G1 X131.64 Y24.193 E47.02801
G1 X137.702 Y22.955 E47.47582
G1 X137.73 Y22.408 E47.51546
G1 X133.973 Y21.285 E47.79927
G1 X124.709 Y18.904 E48.49156
G1 X115.36 Y16.886 E49.1838
G1 X105.877 Y15.225 E49.8806
G1 X96.464 Y13.951 E50.5681
G1 X86.612 Y12.98 E51.28461
G1 X85.99 Y12.715 E51.33354
G1 X85.505 Y12.296 E51.37993
G1 X85.172 Y11.749 E51.42628
G1 X85.039 Y11.129 E51.47217
G1 X85.745 Y11.122 F9600
G1 F1800
G1 X85.741 Y10.782 E51.49678
G1 X85.818 Y10.516 E51.51682
G1 X86.238 Y9.964 E51.56702
G1 X88.518 Y9.037 E51.74516
G1 X92.061 Y9.333 E52.00249
G1 X98.902 Y10.088 E52.50063
G1 X99.261 Y8.786 E52.59838
G1 X99.481 Y8.642 E52.61741
G1 X108.971 Y10.015 E53.31142
G1 X118.576 Y11.786 E54.01832
G1 X127.955 Y13.892 E54.71405
G1 X137.314 Y16.375 E55.41486
G1 X146.557 Y19.214 E56.11469
G1 X155.697 Y22.412 E56.81554
G1 X165.051 Y26.103 E57.54336
G1 X165.155 Y26.409 E57.56675
G1 X164.222 Y27.959 E57.69769
G1 X163.978 Y28.04 E57.7163
G1 X160.292 Y26.536 E58.00444
G1 X153.639 Y23.997 E58.51984
G1 X147.47 Y24.647 E58.96881
G1 X144.247 Y25.094 E59.20431
G1 X139.739 Y25.812 E59.5347
G1 X134.913 Y26.725 E59.89019
G1 X130.354 Y27.743 E60.22828
G1 X126.637 Y28.69 E60.5059
G1 X122.956 Y29.724 E60.78263
G1 X118.956 Y30.979 E61.08605
G1 X112.444 Y33.298 E61.58636
G1 X108.705 Y34.794 E61.87784
G1 X105.054 Y36.379 E62.16592
G1 X101.476 Y38.058 E62.45198
G1 X97.96 Y39.831 E62.73698
G1 X94.783 Y41.542 E62.99815
G1 X91.335 Y43.519 E63.28582
G1 X88.354 Y45.338 E63.53857
G1 X85.164 Y47.396 E63.81333
G1 X82.126 Y49.477 E64.07985
G1 X76.501 Y53.647 E64.58664
G1 X71.76 Y57.514 E65.02945
G1 X69.208 Y59.742 E65.27464
G1 X64.939 Y63.712 E65.69658
G1 X62.761 Y65.864 E65.91819
G1 X57.432 Y71.517 E66.48048
G1 X54.205 Y75.224 E66.8362
G1 X51.292 Y78.762 E67.1679
G1 X46.025 Y85.636 E67.79468
G1 X40.827 Y93.043 E68.44961
G1 X37.585 Y98.011 E68.87897
G1 X35.457 Y101.448 E69.17155
G1 X31.058 Y109.082 E69.80925
G1 X28.887 Y113.181 E70.14497
G1 X27.012 Y116.952 E70.44978
G1 X24.813 Y121.701 E70.82856
G1 X22.982 Y126.011 E71.16749
G1 X21.355 Y130.193 E71.49227
G1 X19.688 Y134.874 E71.85191
G1 X18.219 Y139.423 E72.1979
G1 X16.698 Y144.651 E72.59198
G1 X15.571 Y148.96 E72.91434
G1 X14.51 Y153.46 E73.24897
G1 X13.545 Y158.043 E73.58795
G1 X12.685 Y162.666 E73.92829
G1 X11.876 Y167.668 E74.29502
G1 X11.243 Y172.263 E74.63073
G1 X10.69 Y177.098 E74.98295
G1 X9.951 Y186.162 E75.64115
G1 X9.632 Y194.222 E76.22497
G1 X12.599 Y191.571 E76.51294
G1 X16.382 Y188.555 E76.86311
G1 X20.328 Y185.755 E77.21331
G1 X24.532 Y183.112 E77.57272
G1 X24.818 Y183.181 E77.59401
G1 X26.49 Y186.015 E77.83216
G1 X26.424 Y186.289 E77.85256
G1 X21.855 Y189.186 E78.24412
G1 X17.602 Y192.278 E78.62469
G1 X13.554 Y195.634 E79.00527
G1 X9.616 Y199.347 E79.397
G1 X9.328 Y199.339 E79.41785
G1 X7.055 Y196.869 E79.6608
G1 X7.165 Y191.544 E80.04629
G1 X7.387 Y186.559 E80.40745
G1 X8.024 Y178.288 E81.00785
G1 X8.535 Y173.578 E81.35075
G1 X9.196 Y168.574 E81.71607
G1 X10.024 Y163.298 E82.10261
G1 X11.061 Y157.646 E82.51851
G1 X12.137 Y152.542 E82.89604
G1 X13.346 Y147.482 E83.27258
G1 X14.812 Y142.03 E83.6812
G1 X16.281 Y137.172 E84.04853
G1 X17.906 Y132.331 E84.41812
G1 X19.485 Y128.047 E84.74857
G1 X21.299 Y123.531 E85.10081
G1 X23.249 Y119.073 E85.45298
G1 X25.062 Y115.226 E85.76079
G1 X27.208 Y110.966 E86.10603
G1 X29.431 Y106.842 E86.44512
G1 X31.599 Y103.045 E86.76158
G1 X35.897 Y96.045 E87.3561
G1 X38.891 Y91.462 E87.75231
G1 X43.97 Y84.216 E88.39276
G1 X49.075 Y77.547 E89.00063
G1 X54.025 Y71.622 E89.55943
G1 X58.706 Y66.483 E90.06255
G1 X63.57 Y61.588 E90.562
G1 X68.463 Y57.086 E91.04324
G1 X70.948 Y54.951 E91.28036
G1 X74.953 Y51.718 E91.65289
G1 X80.473 Y47.614 E92.15073
G1 X85.118 Y44.468 E92.55677
G1 X90.055 Y41.402 E92.97739
G1 X95.157 Y38.517 E93.40161
G1 X100.458 Y35.808 E93.83248
G1 X105.106 Y33.648 E94.20344
G1 X110.175 Y31.529 E94.60109
G1 X115.749 Y29.451 E95.03164
G1 X120.872 Y27.775 E95.42177
G1 X126.897 Y26.062 E95.87512
G1 X131.799 Y24.871 E96.24023
G1 X135.598 Y24.064 E96.52133
G1 X140.76 Y23.151 E96.90074
G1 X140.795 Y22.598 E96.94084
G1 X134.16 Y20.614 E97.44207
G1 X124.87 Y18.226 E98.13631
G1 X115.494 Y16.202 E98.83055
G1 X105.984 Y14.537 E99.52933
G1 X96.545 Y13.259 E100.21873
G1 X86.79 Y12.306 E100.92813
G1 X86.188 Y11.998 E100.97707
G1 X85.89 Y11.637 E101.01095
G1 X85.746 Y11.249 E101.0409
G1 X85.745 Y11.182 E101.04575
G1 E99.04575 F2400
G92 E0
G92 E0
G1 X9.496 Y198.466 F9600
G1 E2 F2400
;TYPE:External perimeter
;WIDTH:0.749999
G1 F1800
G1 X7.782 Y196.659 E2.18026
G1 X7.838 Y193.309 E2.42276
G1 X7.888 Y191.568 E2.54882
G1 X7.944 Y190.003 E2.66216
G1 X8.109 Y186.597 E2.90897
G1 X8.389 Y182.412 E3.21255
G1 X8.744 Y178.355 E3.50731
G1 X9.253 Y173.668 E3.84854
G1 X9.911 Y168.682 E4.21254
G1 X10.736 Y163.424 E4.59775
G1 X11.771 Y157.781 E5.01299
G1 X12.844 Y152.697 E5.38906
G1 X14.048 Y147.653 E5.76439
G1 X14.597 Y145.569 E5.92037
G1 X15.506 Y142.235 E6.17048
G1 X16.969 Y137.397 E6.5363
G1 X18.59 Y132.566 E6.90511
G1 X20.158 Y128.312 E7.23325
G1 X21.968 Y123.806 E7.58471
G1 X23.909 Y119.367 E7.93536
G1 X25.71 Y115.547 E8.24103
G1 X27.852 Y111.296 E8.58556
G1 X30.065 Y107.189 E8.92322
G1 X32.224 Y103.409 E9.23829
G1 X36.509 Y96.43 E9.83102
G1 X37.112 Y95.48 E9.91246
G1 X39.49 Y91.868 E10.22546
G1 X42.074 Y88.103 E10.55596
G1 X44.551 Y84.646 E10.86377
G1 X47.026 Y81.338 E11.16279
G1 X49.642 Y77.996 E11.46997
G1 X51.925 Y75.197 E11.7314
G1 X54.572 Y72.094 E12.0266
G1 X56.799 Y69.596 E12.26881
G1 X59.227 Y66.984 E12.52692
G1 X61.652 Y64.49 E12.77869
G1 X64.074 Y62.107 E13.02461
G1 X67.028 Y59.345 E13.31731
G1 X68.937 Y57.632 E13.50295
G1 X71.407 Y55.51 E13.73863
G1 X75.404 Y52.283 E14.11044
G1 X76.908 Y51.12 E14.24804
G1 X80.895 Y48.201 E14.60568
G1 X85.506 Y45.079 E15.00871
G1 X90.417 Y42.028 E15.42716
G1 X95.494 Y39.157 E15.8493
G1 X100.121 Y36.776 E16.22593
G1 X100.766 Y36.463 E16.27782
G1 X105.392 Y34.313 E16.64703
G1 X110.434 Y32.204 E17.04259
G1 X115.994 Y30.131 E17.47207
G1 X121.093 Y28.464 E17.86034
G1 X121.923 Y28.211 E17.92314
G1 X127.087 Y26.76 E18.31137
G1 X131.964 Y25.575 E18.67462
G1 X135.745 Y24.772 E18.95438
G1 X138.073 Y24.329 E19.1259
G1 X143.423 Y23.442 E19.5184
G1 X143.611 Y23.346 E19.53368
G1 X143.713 Y23.122 E19.55149
G1 X143.711 Y22.889 E19.56835
G1 X143.609 Y22.721 E19.58257
G1 X143.476 Y22.645 E19.59366
G1 X134.35 Y19.916 E20.28307
G1 X125.032 Y17.521 E20.9794
G1 X115.629 Y15.492 E21.67563
G1 X106.091 Y13.822 E22.37646
G1 X96.622 Y12.54 E23.06805
G1 X87.066 Y11.613 E23.76293
G1 X86.898 Y11.573 E23.77543
G1 X86.67 Y11.442 E23.79446
G1 X86.485 Y11.195 E23.8168
G1 X86.468 Y10.908 E23.83761
G1 X86.547 Y10.704 E23.85344
G1 X86.768 Y10.481 E23.87616
G1 X88.659 Y9.757 E24.02271
G1 X91.99 Y10.053 E24.26475
G1 X95.447 Y10.408 E24.51627
G1 X99.137 Y10.844 E24.7852
G1 X99.369 Y10.789 E24.80246
G1 X99.513 Y10.591 E24.82018
G1 X99.835 Y9.424 E24.9078
G1 X108.86 Y10.729 E25.5678
G1 X118.425 Y12.493 E26.27176
G1 X127.776 Y14.593 E26.96541
G1 X137.108 Y17.069 E27.6642
G1 X146.338 Y19.903 E28.36302
G1 X147.799 Y20.415 E28.47507
;WIDTH:0.760662
G1 X153.739 Y22.499 E28.93766
;WIDTH:0.765803
G1 X154.054 Y22.611 E28.96241
;WIDTH:0.780944
G1 X155.446 Y23.106 E29.07409
G1 X157.452 Y23.888 E29.23685
;WIDTH:0.76089
G1 X160.813 Y25.21 E29.50234
;WIDTH:0.772001
G1 X164.207 Y26.56 E29.77506
G1 X163.988 Y26.923 E29.80671
G1 X163.83 Y27.187 E29.82968
G1 X160.559 Y25.862 E30.09318
;WIDTH:0.760948
G1 X157.189 Y24.544 E30.3592
;WIDTH:0.780944
G1 X153.812 Y23.281 E30.63175
;WIDTH:0.765803
G1 X153.65 Y23.263 E30.64381
;WIDTH:0.760662
G1 X147.391 Y23.929 E31.10635
;WIDTH:0.749999
G1 X144.139 Y24.379 E31.34396
G1 X139.622 Y25.098 E31.675
G1 X137.606 Y25.455 E31.82318
G1 X134.763 Y26.017 E32.03293
G1 X130.184 Y27.04 E32.37251
G1 X126.445 Y27.993 E32.65178
G1 X122.745 Y29.033 E32.92995
G1 X118.731 Y30.292 E33.23443
G1 X115.433 Y31.415 E33.48659
G1 X112.18 Y32.625 E33.73779
G1 X108.431 Y34.124 E34.03002
G1 X104.753 Y35.722 E34.32026
G1 X101.155 Y37.41 E34.60791
G1 X97.63 Y39.188 E34.89366
G1 X94.429 Y40.911 E35.15677
G1 X90.971 Y42.894 E35.44528
G1 X87.966 Y44.728 E35.70008
G1 X84.761 Y46.796 E35.97615
G1 X81.713 Y48.883 E36.24351
G1 X79.088 Y50.774 E36.47766
G1 X76.059 Y53.074 E36.75293
G1 X73.625 Y55.019 E36.97843
G1 X71.29 Y56.965 E37.19843
G1 X68.724 Y59.204 E37.44491
G1 X66.786 Y60.969 E37.63463
G1 X64.434 Y63.194 E37.86896
G1 X62.246 Y65.357 E38.09164
G1 X60.2 Y67.463 E38.30415
G1 X58.503 Y69.265 E38.4833
G1 X56.892 Y71.035 E38.65653
G1 X55.104 Y73.06 E38.85205
G1 X53.651 Y74.759 E39.01385
G1 X52.052 Y76.676 E39.19453
G1 X50.729 Y78.308 E39.34659
G1 X49.023 Y80.467 E39.54575
G1 X47.401 Y82.581 E39.7386
G1 X45.444 Y85.207 E39.97564
G1 X43.454 Y87.965 E40.22179
G1 X41.379 Y90.939 E40.48425
G1 X39.045 Y94.413 E40.78717
G1 X36.972 Y97.628 E41.06404
G1 X34.836 Y101.076 E41.3576
G1 X32.68 Y104.721 E41.66411
G1 X30.425 Y108.732 E41.99715
G1 X28.243 Y112.854 E42.33471
G1 X26.359 Y116.641 E42.64085
G1 X24.151 Y121.409 E43.02115
G1 X22.312 Y125.74 E43.3617
G1 X20.679 Y129.936 E43.68758
G1 X19.005 Y134.636 E44.04868
G1 X17.528 Y139.211 E44.39663
G1 X16.559 Y142.463 E44.64223
G1 X16 Y144.461 E44.79239
G1 X14.868 Y148.789 E45.11618
G1 X13.803 Y153.306 E45.45207
G1 X12.836 Y157.898 E45.79171
G1 X11.972 Y162.546 E46.13388
G1 X11.161 Y167.557 E46.50128
G1 X10.526 Y172.169 E46.83823
G1 X9.971 Y177.019 E47.19155
G1 X9.568 Y181.352 E47.50651
G1 X9.229 Y186.115 E47.85211
G1 X9.017 Y190.401 E48.1627
G1 X8.884 Y195.072 E48.50091
G1 X8.952 Y195.289 E48.51737
G1 X9.101 Y195.404 E48.53099
G1 X9.3 Y195.423 E48.54546
G1 X9.464 Y195.341 E48.55873
G1 X13.058 Y192.13 E48.90755
G1 X16.809 Y189.138 E49.25482
G1 X20.722 Y186.361 E49.6021
G1 X24.466 Y184.008 E49.92215
G1 X25.611 Y185.948 E50.08519
G1 X21.442 Y188.592 E50.4425
G1 X17.167 Y191.7 E50.82504
G1 X13.084 Y195.085 E51.20891
G1 X9.54 Y198.424 E51.56133
G1 X9.225 Y198.178 F9600
G1 E49.56133 F2400
G92 E0
G1 X87.388 Y10.967 F9600
G1 E2 F2400
;TYPE:Perimeter
;WIDTH:0.707072
G1 F1800
G1 X88.684 Y10.47 E2.09427
G1 X88.83 Y10.45 E2.10428
;WIDTH:0.719756
G1 X91.922 Y10.731 E2.31923
G1 X95.37 Y11.08 E2.55917
;WIDTH:0.709809
G1 X96.755 Y11.236 E2.65422
;WIDTH:0.695175
G1 X96.805 Y11.242 E2.65758
;WIDTH:0.714193
G1 X99.057 Y11.518 E2.81335
;WIDTH:0.724378
G1 X99.218 Y11.53 E2.82461
;WIDTH:0.749999
G1 X99.752 Y11.371 E2.86494
G1 X100.127 Y10.935 E2.90656
G1 X100.343 Y10.201 E2.96194
G1 X108.747 Y11.417 E3.57653
G1 X118.285 Y13.176 E4.2785
G1 X127.611 Y15.269 E4.97028
G1 X136.917 Y17.739 E5.66714
G1 X146.12 Y20.565 E6.36392
G1 X152.264 Y22.714 E6.83502
G1 X147.318 Y23.236 E7.19499
G1 X144.183 Y23.669 E7.42405
G1 X144.408 Y23.17 E7.46367
G1 X144.384 Y22.711 E7.49694
G1 X144.331 Y22.559 E7.50859
G1 X144.079 Y22.208 E7.53986
G1 X143.681 Y21.98 E7.57306
G1 X134.52 Y19.241 E8.26511
G1 X125.216 Y16.849 E8.9604
G1 X115.746 Y14.805 E9.66159
G1 X106.222 Y13.137 E10.3614
G1 X99.961 Y12.289 E10.81869
G1 X98.974 Y12.173 E10.89062
;WIDTH:0.714193
G1 X96.724 Y11.878 E11.04642
;WIDTH:0.695175
G1 X96.686 Y11.874 E11.04897
;WIDTH:0.709809
G1 X95.305 Y11.733 E11.14364
;WIDTH:0.719756
G1 X88.769 Y11.1 E11.59827
;WIDTH:0.707072
G1 X87.448 Y10.972 E11.68841
G1 E9.68841 F2400
G92 E0
G1 X8.351 Y195.221 F9600
G1 E2 F2400
;WIDTH:0.446452
G1 F1800
G1 X8.347 Y195.057 E2.0067
;WIDTH:0.453138
G1 X8.474 Y190.382 E2.20089
;WIDTH:0.448932
G1 X8.489 Y190.026 E2.21553
;WIDTH:0.451878
G1 X8.687 Y186.095 E2.37844
;WIDTH:0.442564
G1 X8.688 Y186.076 E2.37921
;WIDTH:0.457516
G1 X9.028 Y181.322 E2.57928
;WIDTH:0.438992
G1 X9.029 Y181.302 E2.58008
;WIDTH:0.454718
G1 X9.435 Y176.977 E2.76117
;WIDTH:0.43272
G1 X9.437 Y176.958 E2.76192
;WIDTH:0.451754
G1 X9.796 Y173.734 E2.89615
