; generated by PrusaSlicer 2.9.1 on 2026-04-13 at 15:14:30 UTC

; 

; external perimeters extrusion width = 0.75mm
; perimeters extrusion width = 0.75mm
; infill extrusion width = 0.75mm
; solid infill extrusion width = 0.75mm
; top infill extrusion width = 0.75mm
; first layer extrusion width = 0.75mm

M190 S60 ; set bed temperature and wait for it to be reached
M104 S240 ; set temperature
;TYPE:Custom
G28 ; home all axes
G1 Z5 F5000 ; lift nozzle
M109 S240 ; set temperature and wait for it to be reached
G21 ; set units to millimeters
G90 ; use absolute coordinates
M82 ; use absolute distances for extrusion
G92 E0
; Filament gcode
M107
;LAYER_CHANGE
;Z:0.25
;HEIGHT:0.25
G1 E-2 F2400
G92 E0
G1 Z.25 F9600
G1 X78.515 Y10.013
G1 E2 F2400
;TYPE:Skirt/Brim
;WIDTH:0.75
G1 F1800
G1 X78.645 Y9.167 E2.06195
G1 X78.942 Y8.647 E2.10529
G1 X79.222 Y8.357 E2.13447
G1 X79.599 Y8.1 E2.16749
G1 X81.949 Y7.168 E2.35046
G1 X85.542 Y7.369 E2.61092
G1 X91.819 Y7.867 E3.06666
G1 X92.043 Y6.947 E3.13519
G1 X92.775 Y6.436 E3.1998
G1 X102.502 Y7.546 E3.90838
G1 X112.183 Y9.031 E4.61726
G1 X121.647 Y10.858 E5.31488
G1 X131.103 Y13.065 E6.01767
G1 X140.466 Y15.635 E6.7204
G1 X149.724 Y18.565 E7.42322
G1 X159.416 Y22.056 E8.16882
G1 X159.525 Y22.164 E8.17993
G1 X159.804 Y22.914 E8.23785
G1 X159.792 Y23.067 E8.24896
G1 X158.696 Y25.018 E8.41092
G1 X157.876 Y25.318 E8.47412
G1 X153.973 Y23.86 E8.77567
G1 X147.416 Y21.581 E9.27809
G1 X141.444 Y22.393 E9.7143
G1 X138.253 Y22.933 E9.94854
G1 X133.782 Y23.784 E10.27795
G1 X129.014 Y24.835 E10.63133
G1 X124.505 Y25.986 E10.96814
G1 X120.836 Y27.039 E11.24441
G1 X117.207 Y28.178 E11.5197
G1 X113.264 Y29.546 E11.82177
G1 X106.859 Y32.046 E12.31941
G1 X103.184 Y33.647 E12.60954
G1 X99.6 Y35.333 E12.89621
G1 X96.092 Y37.109 E13.18079
G1 X92.648 Y38.978 E13.4644
G1 X89.54 Y40.775 E13.72424
G1 X86.169 Y42.845 E14.01055
G1 X83.26 Y44.743 E14.26195
G1 X80.148 Y46.886 E14.53543
G1 X77.188 Y49.047 E14.80069
G1 X71.718 Y53.363 E15.30499
G1 X67.119 Y57.35 E15.74552
G1 X64.647 Y59.643 E15.98956
G1 X60.519 Y63.72 E16.40949
G1 X58.417 Y65.926 E16.63003
G1 X53.283 Y71.711 E17.18984
G1 X50.183 Y75.497 E17.544
G1 X47.389 Y79.107 E17.8744
G1 X42.348 Y86.113 E18.49909
G1 X37.391 Y93.648 E19.15188
G1 X34.31 Y98.695 E19.57985
G1 X32.293 Y102.183 E19.87147
G1 X28.141 Y109.919 E20.50693
G1 X26.102 Y114.065 E20.84133
G1 X24.349 Y117.873 E21.14474
G1 X22.302 Y122.667 E21.52202
G1 X20.609 Y127.01 E21.85939
G1 X19.115 Y131.22 E22.18272
G1 X17.597 Y135.929 E22.54081
G1 X15.406 Y143.761 E23.12943
G1 X13.92 Y150.077 E23.59905
G1 X12.998 Y154.59 E23.93243
G1 X12.174 Y159.184 E24.27024
G1 X11.456 Y163.814 E24.60935
G1 X10.8 Y168.822 E24.97491
G1 X10.308 Y173.418 E25.30946
G1 X9.901 Y178.252 E25.66057
G1 X9.437 Y187.304 E26.31659
G1 X9.358 Y193.731 E26.78179
G1 X11.093 Y192.086 E26.95483
G1 X14.814 Y188.932 E27.30788
G1 X18.705 Y185.991 E27.66089
G1 X23.016 Y183.097 E28.03669
G1 X23.154 Y183.07 E28.04687
G1 X23.984 Y183.301 E28.10923
G1 X25.992 Y186.577 E28.38733
G1 X25.774 Y187.374 E28.44713
G1 X21.139 Y190.512 E28.85225
G1 X17.016 Y193.703 E29.2296
G1 X13.105 Y197.15 E29.60692
G1 X9.145 Y201.115 E30.01251
G1 X9.017 Y201.168 E30.02254
G1 X8.176 Y201.117 E30.08352
G1 X5.659 Y198.62 E30.34013
G1 X5.474 Y198.184 E30.37441
G1 X5.431 Y191.165 E30.88243
G1 X5.494 Y187.735 E31.13073
G1 X5.884 Y179.42 E31.73321
G1 X6.254 Y174.681 E32.07725
G1 X6.766 Y169.643 E32.44376
G1 X7.437 Y164.327 E32.83157
G1 X8.305 Y158.637 E33.24816
G1 X9.232 Y153.476 E33.62768
G1 X10.292 Y148.362 E34.00568
G1 X11.599 Y142.849 E34.41576
G1 X12.927 Y137.928 E34.78467
G1 X14.408 Y133.031 E35.15496
G1 X15.867 Y128.672 E35.48766
G1 X17.551 Y124.085 E35.84132
G1 X19.37 Y119.56 E36.1943
G1 X21.078 Y115.634 E36.50418
G1 X23.099 Y111.303 E36.85009
G1 X25.205 Y107.098 E37.19047
G1 X27.266 Y103.221 E37.50826
G1 X31.364 Y96.073 E38.1046
G1 X34.231 Y91.381 E38.50257
G1 X39.102 Y83.969 E39.1445
G1 X44.02 Y77.125 E39.75448
G1 X48.808 Y71.03 E40.31546
G1 X53.357 Y65.724 E40.82131
G1 X58.088 Y60.668 E41.32247
G1 X62.871 Y55.994 E41.8065
G1 X65.305 Y53.772 E42.04503
G1 X69.218 Y50.413 E42.41828
G1 X74.64 Y46.123 E42.91869
G1 X79.221 Y42.816 E43.32762
G1 X84.086 Y39.587 E43.75023
G1 X89.123 Y36.536 E44.17646
G1 X94.369 Y33.654 E44.60967
G1 X98.971 Y31.345 E44.98232
G1 X103.985 Y29.068 E45.38089
G1 X109.533 Y26.808 E45.81448
G1 X115.478 Y24.683 E46.27142
G1 X120.615 Y23.071 E46.6611
G1 X125.502 Y21.726 E47.02796
G1 X131.524 Y20.306 E47.47577
G1 X131.536 Y19.759 E47.51537
G1 X127.747 Y18.749 E47.79918
G1 X118.415 Y16.648 E48.49151
G1 X109.01 Y14.912 E49.18372
G1 X99.481 Y13.538 E49.88053
G1 X90.034 Y12.547 E50.56803
G1 X80.157 Y11.873 E51.28456
G1 X79.528 Y11.627 E51.33344
G1 X79.03 Y11.223 E51.37985
G1 X78.681 Y10.686 E51.4262
G1 X78.529 Y10.071 E51.47205
G1 X79.234 Y10.042 F9600
G1 F1800
G1 X79.221 Y9.702 E51.49668
G1 X79.289 Y9.434 E51.51669
G1 X79.693 Y8.87 E51.5669
G1 X81.943 Y7.874 E51.74499
G1 X85.494 Y8.064 E52.00237
G1 X92.354 Y8.613 E52.50046
G1 X92.674 Y7.301 E52.5982
G1 X92.89 Y7.15 E52.61727
G1 X102.417 Y8.237 E53.31128
G1 X112.07 Y9.718 E54.01811
G1 X121.508 Y11.541 E54.71383
G1 X130.938 Y13.742 E55.41469
G1 X140.275 Y16.305 E56.11547
G1 X149.494 Y19.222 E56.81532
G1 X158.956 Y22.631 E57.54324
G1 X159.068 Y22.933 E57.56655
G1 X158.182 Y24.51 E57.69747
G1 X157.941 Y24.599 E57.71606
G1 X154.211 Y23.206 E58.00424
G1 X147.485 Y20.869 E58.5196
G1 X141.339 Y21.704 E58.96852
G1 X138.13 Y22.248 E59.20409
G1 X133.646 Y23.101 E59.53445
G1 X128.85 Y24.159 E59.88992
G1 X124.323 Y25.314 E60.22807
G1 X120.636 Y26.372 E60.50569
G1 X116.988 Y27.517 E60.78242
G1 X113.028 Y28.891 E61.0858
G1 X106.589 Y31.405 E61.5861
G1 X102.896 Y33.012 E61.8776
G1 X99.295 Y34.707 E62.16566
G1 X95.769 Y36.493 E62.45173
G1 X92.308 Y38.371 E62.73673
G1 X89.184 Y40.177 E62.9979
G1 X85.797 Y42.256 E63.28554
G1 X82.872 Y44.164 E63.5383
G1 X79.745 Y46.318 E63.81312
G1 X76.771 Y48.489 E64.07962
G1 X71.274 Y52.826 E64.5864
G1 X66.651 Y56.834 E65.02924
G1 X64.168 Y59.137 E65.27435
G1 X60.02 Y63.234 E65.69632
G1 X57.908 Y65.451 E65.91794
G1 X52.751 Y71.262 E66.48026
G1 X49.637 Y75.064 E66.83596
G1 X46.833 Y78.688 E67.1676
G1 X41.775 Y85.718 E67.79442
G1 X36.801 Y93.278 E68.4494
G1 X33.71 Y98.341 E68.87874
G1 X31.686 Y101.84 E69.1713
G1 X27.52 Y109.604 E69.80902
G1 X25.473 Y113.766 E70.14472
G1 X23.712 Y117.591 E70.44949
G1 X21.657 Y122.404 E70.82827
G1 X19.957 Y126.767 E71.16718
G1 X18.456 Y130.997 E71.49204
G1 X16.931 Y135.725 E71.8516
G1 X15.599 Y140.317 E72.19766
G1 X14.236 Y145.588 E72.59171
G1 X13.239 Y149.929 E72.91408
G1 X12.314 Y154.459 E73.24871
G1 X11.487 Y159.069 E73.58769
G1 X10.767 Y163.716 E73.92804
G1 X10.109 Y168.74 E74.29477
G1 X9.614 Y173.352 E74.63049
G1 X9.207 Y178.201 E74.98268
G1 X8.741 Y187.283 E75.64087
G1 X8.665 Y195.349 E76.22469
G1 X11.551 Y192.611 E76.51262
G1 X15.241 Y189.481 E76.86283
G1 X19.101 Y186.564 E77.21301
G1 X23.223 Y183.796 E77.57237
G1 X23.511 Y183.857 E77.59368
G1 X25.268 Y186.639 E77.83183
G1 X25.21 Y186.915 E77.85224
G1 X20.73 Y189.948 E78.24381
G1 X16.573 Y193.166 E78.6243
G1 X12.628 Y196.642 E79.00485
G1 X8.803 Y200.472 E79.39662
G1 X8.515 Y200.473 E79.41746
G1 X6.168 Y198.072 E79.66047
G1 X6.118 Y192.747 E80.0459
G1 X6.19 Y187.757 E80.4071
G1 X6.578 Y179.471 E81.00747
G1 X6.947 Y174.748 E81.35035
G1 X7.457 Y169.726 E81.7157
G1 X8.126 Y164.428 E82.1022
G1 X8.993 Y158.747 E82.51814
G1 X9.915 Y153.613 E82.89567
G1 X10.971 Y148.518 E83.27227
G1 X12.272 Y143.025 E83.68084
G1 X13.595 Y138.125 E84.04819
G1 X15.073 Y133.237 E84.41779
G1 X16.522 Y128.908 E84.7482
G1 X18.199 Y124.339 E85.10046
G1 X20.015 Y119.824 E85.45269
G1 X21.711 Y115.925 E85.76043
G1 X23.728 Y111.602 E86.1057
G1 X25.826 Y107.413 E86.44479
G1 X27.878 Y103.553 E86.76119
G1 X31.964 Y96.426 E87.35578
G1 X34.819 Y91.755 E87.752
G1 X39.678 Y84.36 E88.39243
G1 X44.579 Y77.54 E89.00028
G1 X49.349 Y71.469 E89.55909
G1 X53.873 Y66.192 E90.06217
G1 X58.588 Y61.152 E90.56169
G1 X63.343 Y56.506 E91.04285
G1 X65.763 Y54.297 E91.28
G1 X69.669 Y50.944 E91.65258
G1 X75.063 Y46.676 E92.15041
G1 X79.611 Y43.392 E92.55643
G1 X84.453 Y40.179 E92.97702
G1 X89.466 Y37.142 E93.40124
G1 X94.684 Y34.275 E93.83216
G1 X99.265 Y31.976 E94.20313
G1 X104.267 Y29.705 E94.60073
G1 X109.776 Y27.46 E95.03129
G1 X114.847 Y25.631 E95.42146
G1 X120.818 Y23.738 E95.87482
G1 X125.681 Y22.399 E96.23989
G1 X129.455 Y21.478 E96.52106
G1 X134.586 Y20.41 E96.90039
G1 X134.604 Y19.857 E96.94044
G1 X127.913 Y18.073 E97.44163
G1 X118.555 Y15.966 E98.13589
G1 X109.123 Y14.225 E98.83008
G1 X99.567 Y12.846 E99.52888
G1 X90.094 Y11.853 E100.21827
G1 X80.315 Y11.194 E100.92765
G1 X79.704 Y10.904 E100.9766
G1 X79.395 Y10.553 E101.01045
G1 X79.239 Y10.169 E101.04045
G1 X79.237 Y10.102 E101.0453
G1 E99.0453 F2400
G92 E0
G92 E0
G1 X8.657 Y199.595 F9600
G1 E2 F2400
;TYPE:External perimeter
;WIDTH:0.749999
G1 F1800
G1 X6.889 Y197.841 E2.18025
G1 X6.844 Y194.491 E2.42274
G1 X6.841 Y192.749 E2.54882
G1 X6.85 Y191.183 E2.66216
G1 X6.913 Y187.774 E2.90894
G1 X7.067 Y183.582 E3.21255
G1 X7.3 Y179.516 E3.50732
G1 X7.667 Y174.816 E3.84853
G1 X8.175 Y169.812 E4.21257
G1 X8.842 Y164.532 E4.59776
G1 X9.707 Y158.861 E5.01296
G1 X10.626 Y153.746 E5.3891
G1 X11.678 Y148.668 E5.76443
G1 X12.164 Y146.568 E5.92044
G1 X12.972 Y143.209 E6.17049
G1 X14.288 Y138.329 E6.53631
G1 X15.763 Y133.452 E6.90508
G1 X17.203 Y129.152 E7.23329
G1 X18.876 Y124.594 E7.58471
G1 X20.684 Y120.099 E7.93538
G1 X22.368 Y116.226 E8.24105
G1 X24.381 Y111.912 E8.5856
G1 X26.47 Y107.741 E8.92323
G1 X28.514 Y103.898 E9.23827
G1 X32.588 Y96.793 E9.83105
G1 X33.161 Y95.826 E9.9124
G1 X35.429 Y92.143 E10.22545
G1 X37.899 Y88.302 E10.55597
G1 X40.272 Y84.772 E10.86382
G1 X42.646 Y81.391 E11.16283
G1 X45.16 Y77.972 E11.46998
G1 X47.358 Y75.106 E11.73139
G1 X49.91 Y71.925 E12.02656
G1 X52.061 Y69.36 E12.26885
G1 X54.41 Y66.677 E12.52695
G1 X56.758 Y64.111 E12.77869
G1 X59.107 Y61.656 E13.02461
G1 X61.976 Y58.807 E13.31725
G1 X63.833 Y57.037 E13.50293
G1 X66.238 Y54.842 E13.7386
G1 X70.137 Y51.495 E14.11051
G1 X71.605 Y50.288 E14.24806
G1 X75.502 Y47.251 E14.60565
G1 X80.017 Y43.991 E15.00871
G1 X84.835 Y40.793 E15.42725
G1 X89.823 Y37.771 E15.84936
G1 X94.376 Y35.252 E16.22597
G1 X95.011 Y34.92 E16.27783
G1 X99.571 Y32.631 E16.64712
G1 X104.547 Y30.372 E17.04264
G1 X110.042 Y28.133 E17.4721
G1 X115.089 Y26.312 E17.86044
G1 X115.911 Y26.035 E17.92322
G1 X121.028 Y24.43 E18.31136
G1 X125.868 Y23.098 E18.67469
G1 X129.622 Y22.182 E18.95437
G1 X131.937 Y21.669 E19.12599
G1 X137.257 Y20.622 E19.51842
G1 X137.442 Y20.52 E19.53371
G1 X137.538 Y20.293 E19.55155
G1 X137.528 Y20.06 E19.56843
G1 X137.421 Y19.895 E19.58266
G1 X137.286 Y19.823 E19.59373
G1 X128.082 Y17.37 E20.28314
G1 X118.696 Y15.256 E20.97949
G1 X109.236 Y13.511 E21.67573
G1 X99.653 Y12.128 E22.37651
G1 X90.149 Y11.132 E23.06815
G1 X80.57 Y10.494 E23.76299
G1 X80.401 Y10.458 E23.7755
G1 X80.169 Y10.334 E23.79454
G1 X79.976 Y10.093 E23.81689
G1 X79.95 Y9.807 E23.83768
G1 X80.023 Y9.601 E23.8535
G1 X80.238 Y9.371 E23.87629
G1 X82.106 Y8.59 E24.02283
G1 X85.444 Y8.785 E24.26484
G1 X88.911 Y9.036 E24.51643
G1 X92.612 Y9.362 E24.78533
G1 X92.842 Y9.3 E24.80257
G1 X92.981 Y9.097 E24.82038
G1 X93.267 Y7.921 E24.90798
G1 X102.328 Y8.954 E25.56804
G1 X111.94 Y10.43 E26.27188
G1 X121.351 Y12.247 E26.9656
G1 X130.753 Y14.441 E27.66437
G1 X140.064 Y16.997 E28.3632
G1 X141.54 Y17.464 E28.47525
;WIDTH:0.760663
G1 X147.54 Y19.368 E28.93783
;WIDTH:0.765807
G1 X147.858 Y19.471 E28.96257
;WIDTH:0.780947
G1 X149.264 Y19.924 E29.07424
G1 X151.293 Y20.645 E29.23702
;WIDTH:0.760891
G1 X154.693 Y21.865 E29.50255
;WIDTH:0.772
G1 X158.126 Y23.112 E29.77526
G1 X157.918 Y23.482 E29.80695
G1 X157.767 Y23.75 E29.82992
G1 X154.458 Y22.525 E30.09337
;WIDTH:0.760948
G1 X151.05 Y21.309 E30.35938
;WIDTH:0.780947
G1 X147.636 Y20.148 E30.63197
;WIDTH:0.765807
G1 X147.474 Y20.135 E30.644
;WIDTH:0.760663
G1 X141.238 Y20.988 E31.10652
;WIDTH:0.749999
G1 X138 Y21.536 E31.34421
G1 X133.508 Y22.391 E31.67516
G1 X131.503 Y22.808 E31.82338
G1 X128.679 Y23.456 E32.03308
G1 X124.132 Y24.616 E32.37272
G1 X120.424 Y25.681 E32.65194
G1 X116.757 Y26.832 E32.93011
G1 X112.783 Y28.211 E33.23456
G1 X109.52 Y29.433 E33.48674
G1 X106.305 Y30.74 E33.73793
G1 X102.603 Y32.351 E34.03014
G1 X98.974 Y34.059 E34.32043
G1 X95.428 Y35.855 E34.60812
G1 X91.959 Y37.737 E34.89377
G1 X88.811 Y39.557 E35.15695
G1 X85.414 Y41.643 E35.44547
G1 X82.466 Y43.566 E35.70022
G1 X79.324 Y45.729 E35.97631
G1 X76.341 Y47.908 E36.24368
G1 X73.774 Y49.876 E36.47779
G1 X70.815 Y52.267 E36.75313
G1 X68.441 Y54.284 E36.9786
G1 X66.165 Y56.299 E37.19861
G1 X63.668 Y58.615 E37.44511
G1 X61.784 Y60.437 E37.6348
G1 X59.5 Y62.732 E37.86915
G1 X57.377 Y64.96 E38.09189
G1 X55.396 Y67.127 E38.30439
G1 X53.755 Y68.978 E38.48343
G1 X52.197 Y70.796 E38.65672
G1 X50.471 Y72.874 E38.85223
G1 X49.07 Y74.616 E39.01403
G1 X47.529 Y76.58 E39.19471
G1 X46.256 Y78.252 E39.34681
G1 X44.615 Y80.461 E39.54598
G1 X43.058 Y82.623 E39.73881
G1 X41.18 Y85.306 E39.97584
G1 X39.274 Y88.122 E40.22195
G1 X37.29 Y91.158 E40.48445
G1 X35.062 Y94.7 E40.78731
G1 X33.086 Y97.976 E41.06421
G1 X31.055 Y101.487 E41.35778
G1 X29.009 Y105.195 E41.6643
G1 X26.877 Y109.273 E41.99736
G1 X24.819 Y113.458 E42.3349
G1 X23.05 Y117.3 E42.64103
G1 X20.987 Y122.133 E43.02136
G1 X19.278 Y126.516 E43.36185
G1 X17.772 Y130.76 E43.68778
G1 X16.241 Y135.508 E44.04885
G1 X14.902 Y140.126 E44.39685
G1 X14.032 Y143.405 E44.64239
G1 X13.532 Y145.419 E44.79258
G1 X12.532 Y149.779 E45.11634
G1 X11.603 Y154.327 E45.45231
G1 X10.775 Y158.946 E45.79195
G1 X10.05 Y163.617 E46.13407
G1 X9.391 Y168.65 E46.50145
G1 X8.895 Y173.279 E46.8384
G1 X8.486 Y178.144 E47.19176
G1 X8.213 Y182.487 E47.50671
G1 X8.018 Y187.258 E47.85231
G1 X7.935 Y191.549 E48.16294
G1 X7.943 Y196.221 E48.50109
G1 X8.018 Y196.436 E48.51757
G1 X8.169 Y196.547 E48.53113
G1 X8.369 Y196.56 E48.54564
G1 X8.531 Y196.473 E48.55895
G1 X12.027 Y193.155 E48.9078
G1 X15.686 Y190.052 E49.25504
G1 X19.513 Y187.158 E49.60231
G1 X23.184 Y184.693 E49.92235
G1 X24.387 Y186.599 E50.08548
G1 X20.3 Y189.366 E50.4427
G1 X16.121 Y192.602 E50.82524
G1 X12.141 Y196.108 E51.20913
G1 X8.699 Y199.552 E51.56154
G1 X8.377 Y199.316 F9600
G1 E49.56154 F2400
G92 E0
G1 X80.872 Y9.837 F9600
G1 E2 F2400
;TYPE:Perimeter
;WIDTH:0.70707
G1 F1800
G1 X82.152 Y9.302 E2.09422
G1 X82.297 Y9.277 E2.10421
;WIDTH:0.719755
G1 X85.398 Y9.465 E2.3193
G1 X88.854 Y9.71 E2.55917
;WIDTH:0.709814
G1 X90.243 Y9.825 E2.65422
;WIDTH:0.695176
G1 X90.293 Y9.829 E2.65756
;WIDTH:0.714191
G1 X92.552 Y10.038 E2.81331
;WIDTH:0.724377
G1 X92.714 Y10.044 E2.82461
;WIDTH:0.749999
G1 X93.242 Y9.87 E2.86485
G1 X93.604 Y9.422 E2.90654
G1 X93.798 Y8.683 E2.96184
G1 X102.235 Y9.645 E3.57644
G1 X111.822 Y11.116 E4.27844
G1 X121.206 Y12.928 E4.97017
G1 X130.582 Y15.116 E5.66701
G1 X139.867 Y17.665 E6.36389
G1 X146.072 Y19.628 E6.83493
G1 X141.144 Y20.298 E7.19489
G1 X138.024 Y20.825 E7.42391
G1 X138.233 Y20.319 E7.46353
G1 X138.195 Y19.862 E7.49672
G1 X138.138 Y19.711 E7.5084
G1 X137.876 Y19.368 E7.53964
G1 X137.471 Y19.152 E7.57286
G1 X128.232 Y16.69 E8.26489
G1 X118.86 Y14.579 E8.9602
G1 X109.333 Y12.821 E9.66138
G1 X99.762 Y11.44 E10.36127
G1 X93.479 Y10.781 E10.81851
G1 X92.489 Y10.695 E10.89043
;WIDTH:0.714191
G1 X90.232 Y10.468 E11.04617
;WIDTH:0.695176
G1 X90.193 Y10.465 E11.04878
;WIDTH:0.709814
G1 X88.809 Y10.365 E11.14342
;WIDTH:0.719755
G1 X82.257 Y9.93 E11.59804
;WIDTH:0.70707
G1 X80.932 Y9.841 E11.68823
G1 E9.68823 F2400
G92 E0
G1 X7.414 Y196.387 F9600
G1 E2 F2400
;WIDTH:0.446452
G1 F1800
G1 X7.405 Y196.222 E2.00675
;WIDTH:0.453136
G1 X7.391 Y191.546 E2.20091
;WIDTH:0.448928
G1 X7.396 Y191.19 E2.21554
;WIDTH:0.45188
G1 X7.475 Y187.255 E2.37845
;WIDTH:0.442566
G1 X7.476 Y187.236 E2.37922
;WIDTH:0.457518
G1 X7.673 Y182.473 E2.57933
;WIDTH:0.43899
G1 X7.674 Y182.453 E2.58013
;WIDTH:0.454714
G1 X7.949 Y178.118 E2.7612
;WIDTH:0.432716
G1 X7.95 Y178.099 E2.76195
;WIDTH:0.451756
G1 X8.212 Y174.865 E2.89621
G1 X8.363 Y173.242 E2.96366
;WIDTH:0.423548
G1 X8.365 Y173.222 E2.96443
