; generated by PrusaSlicer 2.9.1 on 2026-04-14 at 19:51:35 UTC

; 

; external perimeters extrusion width = 0.75mm
; perimeters extrusion width = 0.75mm
; infill extrusion width = 0.75mm
; solid infill extrusion width = 0.75mm
; top infill extrusion width = 0.75mm
; first layer extrusion width = 0.75mm

; external perimeters extrusion width = 0.75mm
; perimeters extrusion width = 0.75mm
; infill extrusion width = 0.75mm
; solid infill extrusion width = 0.75mm
; top infill extrusion width = 0.75mm
; first layer extrusion width = 0.75mm

M190 S60 ; set bed temperature and wait for it to be reached
M104 S240 ; set temperature
;TYPE:Custom
G28 ; home all axes
G1 Z5 F5000 ; lift nozzle
M109 S240 ; set temperature and wait for it to be reached
G21 ; set units to millimeters
G90 ; use absolute coordinates
M82 ; use absolute distances for extrusion
G92 E0
; Filament gcode
M107
;LAYER_CHANGE
;Z:0.25
;HEIGHT:0.25
G1 E-2 F2400
G92 E0
G1 Z2.25 F9600
G1 X77.557 Y78.902
G1 Z.25
G1 E2 F2400
;TYPE:Skirt/Brim
;WIDTH:0.75
G1 F1800
G1 X79.654 Y76.84 E2.21286
G1 X82.131 Y74.687 E2.4504
G1 X84.548 Y72.831 E2.67096
G1 X87.072 Y71.118 E2.89174
G1 X89.773 Y69.513 E3.11914
G1 X92.469 Y68.117 E3.33888
G1 X95.471 Y66.789 E3.57647
G1 X98.308 Y65.734 E3.79554
G1 X101.202 Y64.846 E4.01464
G1 X104.392 Y64.076 E4.25215
G1 X107.392 Y63.542 E4.47269
G1 X110.421 Y63.184 E4.69345
G1 X113.558 Y63.004 E4.92087
G1 X116.595 Y63.007 E5.14068
G1 X119.871 Y63.211 E5.37825
G1 X122.895 Y63.585 E5.59879
G1 X125.895 Y64.136 E5.81955
G1 X128.945 Y64.889 E6.04693
G1 X131.847 Y65.786 E6.26677
G1 X134.918 Y66.947 E6.50439
G1 X137.717 Y68.205 E6.72649
G1 X140.436 Y69.626 E6.94854
G1 X143.067 Y71.205 E7.17063
G1 X145.602 Y72.937 E7.39284
G1 X148.194 Y74.951 E7.63042
G1 X150.467 Y76.95 E7.8495
G1 X152.62 Y79.077 E8.06855
G1 X154.811 Y81.522 E8.30617
G1 X156.741 Y83.963 E8.53139
G1 X158.522 Y86.514 E8.75657
G1 X160.125 Y89.13 E8.97863
G1 X161.572 Y91.837 E9.20079
G1 X162.857 Y94.624 E9.42291
G1 X163.976 Y97.484 E9.64519
G1 X165 Y100.677 E9.88788
G1 X165.739 Y103.56 E10.10329
G1 X166.314 Y106.51 E10.32082
G1 X166.747 Y109.762 E10.55827
G1 X166.965 Y112.824 E10.78045
G1 X167.003 Y115.892 E11.00252
G1 X166.858 Y118.979 E11.22619
G1 X166.529 Y122.051 E11.4498
G1 X166.019 Y125.099 E11.67347
G1 X165.328 Y128.112 E11.8972
G1 X164.4 Y131.26 E12.13474
G1 X163.37 Y134.107 E12.35387
G1 X162.176 Y136.888 E12.57292
G1 X160.701 Y139.82 E12.81047
G1 X159.157 Y142.473 E13.03264
G1 X157.459 Y145.029 E13.25474
G1 X155.614 Y147.481 E13.47684
G1 X153.627 Y149.82 E13.69897
G1 X151.353 Y152.187 E13.93654
G1 X149.128 Y154.238 E14.15556
G1 X146.787 Y156.157 E14.37465
G1 X144.127 Y158.08 E14.61221
G1 X141.535 Y159.723 E14.83433
G1 X138.85 Y161.21 E15.05647
G1 X136.083 Y162.536 E15.27855
G1 X133.241 Y163.697 E15.50075
G1 X130.133 Y164.75 E15.73826
G1 X127.193 Y165.551 E15.9588
G1 X124.208 Y166.179 E16.17958
G1 X121.1 Y166.639 E16.40698
G1 X118.075 Y166.909 E16.62679
G1 X114.793 Y167 E16.86442
G1 X111.725 Y166.897 E17.0866
G1 X108.67 Y166.613 E17.30867
G1 X105.636 Y166.15 E17.5308
G1 X102.635 Y165.508 E17.75292
G1 X99.473 Y164.628 E17.99047
G1 X96.612 Y163.64 E18.20954
G1 X93.813 Y162.488 E18.42861
G1 X90.859 Y161.057 E18.66618
G1 X88.184 Y159.553 E18.88829
G1 X85.602 Y157.894 E19.11042
G1 X83.123 Y156.085 E19.33254
G1 X80.755 Y154.133 E19.55465
G1 X78.354 Y151.895 E19.79221
G1 X76.241 Y149.669 E20.01435
G1 X74.263 Y147.322 E20.2365
G1 X72.427 Y144.863 E20.45861
G1 X70.739 Y142.299 E20.68079
G1 X69.103 Y139.449 E20.91863
G1 X67.765 Y136.748 E21.13679
G1 X66.574 Y133.958 E21.35635
G1 X65.474 Y130.864 E21.59402
G1 X64.624 Y127.915 E21.81615
G1 X63.949 Y124.921 E22.03829
G1 X63.453 Y121.893 E22.26037
G1 X63.135 Y118.84 E22.48253
G1 X62.996 Y115.557 E22.72036
G1 X63.052 Y112.543 E22.93854
G1 X63.282 Y109.518 E23.15811
G1 X63.731 Y106.261 E23.39607
G1 X64.343 Y103.226 E23.62016
G1 X65.132 Y100.227 E23.84461
G1 X66.09 Y97.31 E24.06683
G1 X67.227 Y94.437 E24.29046
G1 X68.522 Y91.655 E24.51256
G1 X69.979 Y88.954 E24.73468
G1 X71.712 Y86.166 E24.97227
G1 X73.488 Y83.662 E25.19446
G1 X75.407 Y81.268 E25.41653
G1 X77.465 Y78.992 E25.63862
G1 X77.514 Y78.944 E25.64358
G1 X78.002 Y79.44 F9600
G1 F1800
G1 X80.135 Y77.345 E25.85997
G1 X82.563 Y75.233 E26.09288
G1 X84.947 Y73.401 E26.31049
G1 X87.454 Y71.7 E26.52976
G1 X90.12 Y70.117 E26.75417
G1 X92.78 Y68.74 E26.97096
G1 X95.724 Y67.438 E27.20395
G1 X98.522 Y66.397 E27.42002
G1 X101.396 Y65.515 E27.63761
G1 X104.524 Y64.76 E27.87051
G1 X107.484 Y64.232 E28.08813
G1 X110.471 Y63.879 E28.30582
G1 X113.588 Y63.7 E28.53179
G1 X116.583 Y63.703 E28.74856
G1 X119.796 Y63.903 E28.98156
G1 X122.78 Y64.272 E29.19918
G1 X125.738 Y64.814 E29.41684
G1 X128.769 Y65.562 E29.6428
G1 X131.63 Y66.448 E29.85957
G1 X134.642 Y67.586 E30.09261
G1 X137.404 Y68.827 E30.31177
G1 X140.087 Y70.229 E30.53087
G1 X142.683 Y71.786 E30.74996
G1 X145.2 Y73.506 E30.97061
G1 X147.742 Y75.481 E31.2036
G1 X149.999 Y77.466 E31.42114
G1 X152.123 Y79.565 E31.63727
G1 X154.271 Y81.963 E31.87028
G1 X156.176 Y84.371 E32.09251
G1 X157.934 Y86.887 E32.31466
G1 X159.516 Y89.468 E32.53376
G1 X160.944 Y92.138 E32.75291
G1 X162.22 Y94.906 E32.97351
G1 X163.323 Y97.728 E33.19281
G1 X164.328 Y100.859 E33.43081
G1 X165.062 Y103.723 E33.6448
G1 X165.629 Y106.633 E33.85938
G1 X166.053 Y109.823 E34.09229
G1 X166.269 Y112.843 E34.31143
G1 X166.307 Y115.87 E34.53053
G1 X166.164 Y118.915 E34.75116
G1 X165.838 Y121.967 E34.97331
G1 X165.334 Y124.974 E35.19398
G1 X164.652 Y127.946 E35.41468
G1 X163.742 Y131.033 E35.64761
G1 X162.726 Y133.841 E35.86374
G1 X161.541 Y136.604 E36.08133
G1 X160.094 Y139.479 E36.31428
G1 X158.571 Y142.096 E36.53343
G1 X156.885 Y144.635 E36.75402
G1 X155.064 Y147.054 E36.97316
G1 X153.103 Y149.361 E37.19231
G1 X150.873 Y151.682 E37.42527
G1 X148.678 Y153.706 E37.64137
G1 X146.353 Y155.612 E37.85896
G1 X143.745 Y157.498 E38.0919
G1 X141.188 Y159.119 E38.31102
G1 X138.54 Y160.586 E38.53012
G1 X135.791 Y161.904 E38.75077
G1 X132.988 Y163.048 E38.96989
G1 X129.939 Y164.081 E39.20289
G1 X127.039 Y164.872 E39.42045
G1 X124.095 Y165.492 E39.6382
G1 X121.008 Y165.949 E39.86406
G1 X118.024 Y166.215 E40.08089
G1 X114.806 Y166.303 E40.31389
G1 X111.779 Y166.202 E40.5331
G1 X108.744 Y165.921 E40.7537
G1 X105.752 Y165.463 E40.97277
G1 X102.791 Y164.83 E41.19192
G1 X99.69 Y163.966 E41.42491
G1 X96.868 Y162.993 E41.64096
G1 X94.088 Y161.848 E41.85857
G1 X91.191 Y160.445 E42.09154
G1 X88.551 Y158.961 E42.31073
G1 X85.988 Y157.313 E42.53127
G1 X83.542 Y155.529 E42.75039
G1 X81.206 Y153.602 E42.96957
G1 X78.851 Y151.407 E43.20258
G1 X76.767 Y149.212 E43.42165
G1 X74.802 Y146.881 E43.64231
G1 X72.991 Y144.455 E43.86143
G1 X71.326 Y141.925 E44.08064
G1 X69.722 Y139.131 E44.31382
G1 X68.393 Y136.448 E44.53053
G1 X67.219 Y133.694 E44.74721
G1 X66.14 Y130.661 E44.98021
G1 X65.301 Y127.752 E45.19934
G1 X64.631 Y124.778 E45.41998
G1 X64.142 Y121.79 E45.63912
G1 X63.829 Y118.779 E45.85822
G1 X63.692 Y115.559 E46.09149
G1 X63.748 Y112.566 E46.30815
G1 X63.975 Y109.581 E46.52482
G1 X64.415 Y106.388 E46.7581
G1 X65.019 Y103.393 E46.97923
G1 X65.797 Y100.434 E47.20067
G1 X66.749 Y97.537 E47.42138
G1 X67.87 Y94.703 E47.64196
G1 X69.149 Y91.959 E47.86108
G1 X70.587 Y89.294 E48.08025
G1 X72.286 Y86.56 E48.31323
G1 X74.037 Y84.09 E48.53237
G1 X75.944 Y81.712 E48.75299
G1 X77.96 Y79.483 E48.97052
G1 X78.47 Y79.956 F9600
G1 F1800
G1 X80.615 Y77.849 E49.18814
G1 X82.996 Y75.778 E49.41654
G1 X85.347 Y73.972 E49.63111
G1 X87.819 Y72.294 E49.84735
G1 X90.467 Y70.721 E50.07027
G1 X93.091 Y69.363 E50.28411
G1 X95.976 Y68.087 E50.51243
G1 X98.755 Y67.053 E50.72704
G1 X101.59 Y66.184 E50.94165
G1 X104.657 Y65.443 E51.17002
G1 X107.576 Y64.923 E51.38461
G1 X110.543 Y64.572 E51.60085
G1 X113.617 Y64.396 E51.8237
G1 X116.572 Y64.399 E52.03757
G1 X119.721 Y64.595 E52.26593
G1 X122.664 Y64.958 E52.48055
G1 X125.602 Y65.497 E52.69674
G1 X128.592 Y66.236 E52.91966
G1 X131.414 Y67.11 E53.13348
G1 X134.366 Y68.226 E53.3619
G1 X137.109 Y69.458 E53.57954
G1 X139.755 Y70.841 E53.79563
G1 X142.316 Y72.377 E54.01177
G1 X144.799 Y74.075 E54.22949
G1 X147.29 Y76.011 E54.45783
G1 X149.517 Y77.968 E54.67241
G1 X151.626 Y80.053 E54.88706
G1 X153.732 Y82.403 E55.11545
G1 X155.612 Y84.778 E55.33468
G1 X157.345 Y87.26 E55.55378
G1 X158.907 Y89.805 E55.76991
G1 X160.325 Y92.457 E55.98757
G1 X161.583 Y95.188 E56.20519
G1 X162.67 Y97.971 E56.42143
G1 X163.656 Y101.042 E56.65488
G1 X164.385 Y103.886 E56.86738
G1 X164.943 Y106.756 E57.07899
G1 X165.359 Y109.883 E57.30731
G1 X165.574 Y112.882 E57.52493
G1 X165.61 Y115.868 E57.74106
G1 X165.469 Y118.872 E57.95872
G1 X165.147 Y121.882 E58.17782
G1 X164.649 Y124.848 E58.3955
G1 X163.976 Y127.78 E58.61323
G1 X163.084 Y130.806 E58.84156
G1 X162.075 Y133.595 E59.05622
G1 X160.905 Y136.319 E59.27079
G1 X159.487 Y139.138 E59.49918
G1 X157.985 Y141.719 E59.71531
G1 X156.323 Y144.225 E59.93295
G1 X154.527 Y146.61 E60.14904
G1 X152.579 Y148.902 E60.36675
G1 X150.393 Y151.177 E60.5951
G1 X148.214 Y153.187 E60.80966
G1 X145.92 Y155.067 E61.02433
G1 X143.363 Y156.915 E61.25267
G1 X140.841 Y158.515 E61.46884
G1 X138.211 Y159.972 E61.68645
G1 X135.5 Y161.271 E61.90403
G1 X132.734 Y162.4 E62.12026
G1 X129.746 Y163.412 E62.34859
G1 X126.885 Y164.193 E62.56324
G1 X123.983 Y164.804 E62.77788
G1 X120.916 Y165.259 E63.00229
G1 X117.973 Y165.52 E63.21613
G1 X114.818 Y165.607 E63.44457
G1 X111.833 Y165.508 E63.66073
G1 X108.839 Y165.231 E63.87835
G1 X105.887 Y164.78 E64.09449
G1 X102.947 Y164.151 E64.31209
G1 X99.908 Y163.304 E64.54043
G1 X97.105 Y162.338 E64.75501
G1 X94.363 Y161.208 E64.96966
G1 X91.523 Y159.833 E65.19804
G1 X88.919 Y158.37 E65.41422
G1 X86.39 Y156.745 E65.63179
G1 X83.977 Y154.985 E65.84796
G1 X81.657 Y153.072 E66.0656
G1 X79.349 Y150.92 E66.294
G1 X77.292 Y148.755 E66.51015
G1 X75.354 Y146.456 E66.72778
G1 X73.555 Y144.047 E66.94539
G1 X71.914 Y141.551 E67.16159
G1 X70.341 Y138.812 E67.3902
G1 X69.021 Y136.148 E67.60538
G1 X67.864 Y133.431 E67.81912
G1 X66.806 Y130.458 E68.04752
G1 X65.978 Y127.588 E68.26371
G1 X65.317 Y124.655 E68.48132
G1 X64.83 Y121.688 E68.69894
G1 X64.523 Y118.718 E68.91505
G1 X64.389 Y115.562 E69.14368
G1 X64.445 Y112.589 E69.3589
G1 X64.669 Y109.645 E69.57259
G1 X65.1 Y106.515 E69.80127
G1 X65.695 Y103.56 E70.01944
G1 X66.462 Y100.641 E70.23788
G1 X67.4 Y97.784 E70.45552
G1 X68.506 Y94.988 E70.67314
G1 X69.766 Y92.281 E70.88925
G1 X71.195 Y89.634 E71.10697
G1 X72.86 Y86.954 E71.33533
G1 X74.587 Y84.517 E71.55151
G1 X76.468 Y82.172 E71.76909
G1 X78.43 Y80.001 E71.98088
G1 X78.946 Y80.468 F9600
G1 F1800
G1 X78.979 Y80.431 E71.98447
G1 X81.095 Y78.353 E72.19912
G1 X83.429 Y76.324 E72.42296
G1 X85.747 Y74.542 E72.63458
G1 X88.183 Y72.887 E72.84773
G1 X90.813 Y71.325 E73.06912
G1 X93.401 Y69.987 E73.27998
G1 X96.229 Y68.736 E73.50379
G1 X98.969 Y67.716 E73.7154
G1 X101.784 Y66.853 E73.9285
G1 X104.79 Y66.127 E74.15232
G1 X107.668 Y65.613 E74.36392
G1 X110.593 Y65.266 E74.57711
G1 X113.647 Y65.092 E74.79851
G1 X116.56 Y65.096 E75.00934
G1 X119.647 Y65.288 E75.2332
G1 X122.549 Y65.645 E75.44482
G1 X125.446 Y66.176 E75.65799
G1 X128.415 Y66.909 E75.87933
G1 X131.198 Y67.772 E76.09022
G1 X134.091 Y68.865 E76.31405
G1 X136.796 Y70.08 E76.52867
G1 X139.406 Y71.443 E76.74178
G1 X141.949 Y72.969 E76.95643
G1 X144.397 Y74.644 E77.17111
G1 X146.838 Y76.541 E77.39486
G1 X149.035 Y78.471 E77.60651
G1 X151.129 Y80.541 E77.81962
G1 X153.193 Y82.844 E78.04345
G1 X155.047 Y85.186 E78.25964
G1 X156.757 Y87.633 E78.47571
G1 X158.298 Y90.143 E78.68888
G1 X159.697 Y92.758 E78.90353
G1 X160.938 Y95.451 E79.11814
G1 X162.018 Y98.214 E79.33285
G1 X162.984 Y101.225 E79.56172
G1 X163.703 Y104.029 E79.77123
G1 X164.258 Y106.879 E79.98138
G1 X164.666 Y109.943 E80.2051
G1 X164.878 Y112.901 E80.41974
G1 X164.914 Y115.846 E80.63291
G1 X164.775 Y118.808 E80.84753
G1 X164.458 Y121.778 E81.06371
G1 X163.968 Y124.702 E81.27829
G1 X163.299 Y127.613 E81.49447
G1 X162.425 Y130.58 E81.71834
G1 X161.431 Y133.329 E81.92991
G1 X160.269 Y136.035 E82.14306
G1 X158.88 Y138.797 E82.36682
G1 X157.399 Y141.343 E82.58
G1 X155.76 Y143.814 E82.79461
G1 X153.977 Y146.183 E83.00921
G1 X152.055 Y148.443 E83.22394
G1 X149.914 Y150.672 E83.44763
G1 X147.765 Y152.655 E83.65927
G1 X145.487 Y154.521 E83.8724
G1 X142.981 Y156.333 E84.09622
G1 X140.495 Y157.911 E84.30934
G1 X137.901 Y159.349 E84.524
G1 X135.227 Y160.63 E84.7386
G1 X132.481 Y161.751 E84.95327
G1 X129.553 Y162.743 E85.17702
G1 X126.712 Y163.518 E85.39016
G1 X123.85 Y164.121 E85.60185
G1 X120.824 Y164.568 E85.82324
G1 X117.922 Y164.826 E86.03411
G1 X114.831 Y164.911 E86.25791
G1 X111.887 Y164.814 E86.4711
G1 X108.934 Y164.541 E86.68574
G1 X106.003 Y164.093 E86.90034
G1 X103.103 Y163.472 E87.11499
G1 X100.124 Y162.643 E87.33879
G1 X97.36 Y161.69 E87.5504
G1 X94.638 Y160.569 E87.76346
G1 X91.855 Y159.22 E87.9873
G1 X89.287 Y157.778 E88.20046
G1 X86.792 Y156.176 E88.41506
G1 X84.396 Y154.428 E88.62972
G1 X82.108 Y152.541 E88.84437
G1 X79.846 Y150.433 E89.06816
G1 X77.818 Y148.298 E89.28129
G1 X75.906 Y146.031 E89.49593
G1 X74.132 Y143.655 E89.71054
G1 X72.501 Y141.178 E89.92519
G1 X70.96 Y138.493 E90.14925
G1 X69.65 Y135.848 E90.36288
G1 X68.509 Y133.168 E90.5737
G1 X67.472 Y130.255 E90.7975
G1 X66.65 Y127.405 E91.01218
G1 X65.998 Y124.512 E91.22682
G1 X65.519 Y121.586 E91.44141
G1 X65.217 Y118.657 E91.65453
G1 X65.085 Y115.564 E91.8786
G1 X65.141 Y112.612 E92.0923
G1 X65.362 Y109.708 E92.30309
G1 X65.785 Y106.642 E92.5271
G1 X66.371 Y103.727 E92.7423
G1 X67.127 Y100.848 E92.95774
G1 X68.052 Y98.03 E93.17241
G1 X69.142 Y95.272 E93.38705
G1 X70.393 Y92.584 E93.60164
G1 X71.803 Y89.975 E93.81628
G1 X73.434 Y87.348 E94.04008
G1 X75.149 Y84.928 E94.25476
G1 X77.004 Y82.615 E94.46936
G1 X78.906 Y80.512 E94.67459
G1 X79.422 Y80.98 F9600
G1 F1800
G1 X79.489 Y80.906 E94.68182
G1 X81.576 Y78.857 E94.8935
G1 X83.862 Y76.87 E95.11272
G1 X86.163 Y75.1 E95.32283
G1 X88.566 Y73.469 E95.53303
G1 X91.16 Y71.929 E95.75137
G1 X93.711 Y70.61 E95.95922
G1 X96.482 Y69.385 E96.1785
G1 X99.202 Y68.372 E96.38858
G1 X101.978 Y67.522 E96.59871
G1 X104.923 Y66.811 E96.81798
G1 X107.781 Y66.3 E97.02811
G1 X110.664 Y65.959 E97.23823
G1 X113.676 Y65.788 E97.45658
G1 X116.549 Y65.792 E97.66452
G1 X119.572 Y65.98 E97.88374
G1 X122.453 Y66.335 E98.09384
G1 X125.309 Y66.859 E98.304
G1 X128.238 Y67.583 E98.52237
G1 X130.982 Y68.434 E98.7303
G1 X133.815 Y69.505 E98.94951
G1 X136.483 Y70.702 E99.16116
G1 X139.074 Y72.056 E99.37275
G1 X141.581 Y73.561 E99.58438
G1 X143.995 Y75.212 E99.79605
G1 X146.386 Y77.071 E100.01526
G1 X148.567 Y78.987 E100.22538
G1 X150.632 Y81.029 E100.43557
G1 X152.653 Y83.285 E100.65479
G1 X154.482 Y85.593 E100.86793
G1 X156.169 Y88.007 E101.08108
G1 X157.699 Y90.499 E101.29273
G1 X159.078 Y93.077 E101.50434
G1 X160.301 Y95.733 E101.71597
G1 X161.365 Y98.457 E101.92763
G1 X162.312 Y101.409 E102.15201
G1 X163.022 Y104.172 E102.35848
G1 X163.572 Y107.001 E102.56707
G1 X163.972 Y110.004 E102.78634
G1 X164.182 Y112.92 E102.99794
G1 X164.218 Y115.844 E103.20959
G1 X164.08 Y118.765 E103.42124
G1 X163.767 Y121.693 E103.63437
G1 X163.283 Y124.577 E103.84602
G1 X162.623 Y127.447 E104.05916
G1 X161.767 Y130.353 E104.27842
G1 X160.78 Y133.083 E104.48853
G1 X159.634 Y135.75 E104.69863
G1 X158.272 Y138.456 E104.91789
G1 X156.803 Y140.984 E105.12951
G1 X155.186 Y143.42 E105.34113
G1 X153.427 Y145.756 E105.55278
G1 X151.532 Y147.984 E105.76448
G1 X149.434 Y150.168 E105.98367
G1 X147.3 Y152.136 E106.19378
G1 X145.054 Y153.976 E106.40392
G1 X142.599 Y155.751 E106.62318
G1 X140.13 Y157.317 E106.83479
G1 X137.573 Y158.735 E107.04641
G1 X134.935 Y159.998 E107.2581
G1 X132.228 Y161.102 E107.46969
G1 X129.359 Y162.074 E107.68893
G1 X126.559 Y162.839 E107.89901
G1 X123.717 Y163.437 E108.10921
G1 X120.732 Y163.878 E108.3276
G1 X117.871 Y164.131 E108.53548
G1 X114.843 Y164.214 E108.75472
G1 X111.92 Y164.118 E108.96639
G1 X109.009 Y163.849 E109.17798
G1 X106.118 Y163.406 E109.38966
G1 X103.259 Y162.794 E109.60127
G1 X100.341 Y161.981 E109.82051
G1 X97.597 Y161.035 E110.03058
G1 X94.913 Y159.929 E110.24069
