; generated by PrusaSlicer 2.9.1 on 2025-12-30 at 23:05:44 UTC

; 

; external perimeters extrusion width = 0.70mm
; perimeters extrusion width = 0.70mm
; infill extrusion width = 0.70mm
; solid infill extrusion width = 0.70mm
; top infill extrusion width = 0.70mm
; first layer extrusion width = 0.70mm

M190 S40 ; set bed temperature and wait for it to be reached
M104 S230 ; set temperature
;TYPE:Custom
G28 ; home all axes
G1 Z5 F5000 ; lift nozzle
M109 S230 ; set temperature and wait for it to be reached
G21 ; set units to millimeters
G90 ; use absolute coordinates
M82 ; use absolute distances for extrusion
G92 E0
; Filament gcode
M107
;LAYER_CHANGE
;Z:0.25
;HEIGHT:0.25
G1 E-2 F2400
G92 E0
G1 Z.25 F9600
G1 X76.292 Y75.008
G1 E2 F2400
;TYPE:Skirt/Brim
;WIDTH:0.7
G1 F1800
G1 X78.321 Y73.139 E2.18532
G1 X80.89 Y71.021 E2.409
G1 X84.054 Y68.739 E2.67108
G1 X86.876 Y66.972 E2.89476
G1 X89.29 Y65.637 E3.08008
G1 X92.289 Y64.188 E3.30384
G1 X95.368 Y62.921 E3.52752
G1 X99.064 Y61.674 E3.78957
G1 X102.282 Y60.817 E4.01329
G1 X105.545 Y60.153 E4.23699
G1 X108.274 Y59.752 E4.42229
G1 X111.59 Y59.449 E4.64599
G1 X115.49 Y59.347 E4.90808
G1 X118.247 Y59.44 E5.0934
G1 X121.564 Y59.733 E5.3171
G1 X125.419 Y60.329 E5.57916
G1 X128.115 Y60.913 E5.76448
G1 X131.326 Y61.794 E5.98817
G1 X134.479 Y62.866 E6.2119
G1 X137.562 Y64.124 E6.4356
G1 X141.07 Y65.83 E6.69766
G1 X143.475 Y67.182 E6.88301
G1 X146.283 Y68.971 E7.10668
G1 X149.431 Y71.275 E7.36875
G1 X151.984 Y73.413 E7.59246
G1 X154.405 Y75.699 E7.81615
G1 X156.304 Y77.7 E8.00148
G1 X158.461 Y80.237 E8.22519
G1 X160.789 Y83.367 E8.48725
G1 X162.3 Y85.675 E8.67257
G1 X163.969 Y88.556 E8.89625
G1 X165.463 Y91.532 E9.11996
G1 X166.776 Y94.592 E9.34366
G1 X168.079 Y98.27 E9.6058
G1 X168.974 Y101.429 E9.82638
G1 X169.681 Y104.635 E10.04693
G1 X170.199 Y107.89 E10.26835
G1 X170.49 Y110.748 E10.46134
G1 X170.651 Y114.707 E10.72753
G1 X170.587 Y117.758 E10.93254
G1 X170.327 Y121.044 E11.15398
G1 X169.872 Y124.308 E11.37538
G1 X169.282 Y127.275 E11.57861
G1 X168.282 Y131.07 E11.84226
G1 X167.226 Y134.228 E12.06596
G1 X165.982 Y137.317 E12.28968
G1 X164.814 Y139.815 E12.47493
G1 X163.241 Y142.75 E12.69864
G1 X161.495 Y145.586 E12.92238
G1 X159.583 Y148.312 E13.14607
G1 X157.14 Y151.353 E13.40812
G1 X154.89 Y153.808 E13.63184
G1 X152.918 Y155.737 E13.81716
G1 X149.971 Y158.294 E14.07928
G1 X147.32 Y160.308 E14.30294
G1 X144.552 Y162.159 E14.52664
G1 X142.179 Y163.566 E14.71197
G1 X139.226 Y165.105 E14.93568
G1 X135.657 Y166.679 E15.19773
G1 X132.529 Y167.822 E15.42146
G1 X129.339 Y168.776 E15.64514
G1 X126.657 Y169.42 E15.83044
G1 X123.382 Y170.02 E16.05412
G1 X119.507 Y170.472 E16.31621
G1 X116.753 Y170.628 E16.50152
G1 X113.423 Y170.633 E16.72523
G1 X110.099 Y170.439 E16.94892
G1 X106.792 Y170.047 E17.17264
G1 X102.956 Y169.337 E17.43472
G1 X100.279 Y168.674 E17.61999
G1 X97.095 Y167.697 E17.84374
G1 X93.447 Y166.314 E18.10583
G1 X90.417 Y164.933 E18.32953
G1 X87.973 Y163.654 E18.51484
G1 X84.631 Y161.641 E18.77694
G1 X81.897 Y159.742 E19.00057
G1 X79.28 Y157.682 E19.22431
G1 X77.209 Y155.86 E19.40962
G1 X74.833 Y153.527 E19.63332
G1 X72.233 Y150.619 E19.89538
G1 X70.179 Y147.998 E20.11909
G1 X68.286 Y145.258 E20.34282
G1 X66.844 Y142.907 E20.5281
G1 X65.262 Y139.977 E20.7518
G1 X63.634 Y136.432 E21.01387
G1 X62.635 Y133.86 E21.19923
G1 X61.601 Y130.695 E21.42291
G1 X60.758 Y127.474 E21.64659
G1 X60.115 Y124.24 E21.8681
G1 X59.596 Y120.308 E22.13454
G1 X59.392 Y117.422 E22.32891
G1 X59.347 Y114.127 E22.55029
G1 X59.497 Y110.834 E22.77174
G1 X59.829 Y107.667 E22.98567
G1 X60.489 Y103.76 E23.25186
G1 X61.113 Y101.073 E23.43718
G1 X62.042 Y97.875 E23.6609
G1 X63.161 Y94.739 E23.88459
G1 X64.465 Y91.675 E24.1083
G1 X66.223 Y88.193 E24.37034
G1 X67.612 Y85.809 E24.5557
G1 X69.442 Y83.028 E24.77935
G1 X71.794 Y79.915 E25.04146
G1 X73.969 Y77.394 E25.26514
G1 X76.25 Y75.051 E25.48482
G1 X76.712 Y75.501 F9600
G1 F1800
G1 X76.729 Y75.483 E25.48648
G1 X78.758 Y73.615 E25.67176
G1 X81.298 Y71.521 E25.89291
G1 X84.4 Y69.285 E26.1498
G1 X87.189 Y67.537 E26.37092
G1 X89.603 Y66.203 E26.55621
G1 X92.567 Y64.772 E26.77732
G1 X95.611 Y63.52 E26.99844
G1 X99.234 Y62.298 E27.25531
G1 X102.414 Y61.449 E27.47643
G1 X105.639 Y60.793 E27.69752
G1 X108.368 Y60.392 E27.88282
G1 X111.646 Y60.093 E28.10395
G1 X115.468 Y59.993 E28.3608
G1 X118.225 Y60.086 E28.54612
G1 X121.503 Y60.377 E28.7672
G1 X125.283 Y60.961 E29.02415
G1 X127.979 Y61.544 E29.20945
G1 X131.152 Y62.416 E29.43052
G1 X134.268 Y63.477 E29.65166
G1 X137.315 Y64.721 E29.87276
G1 X140.754 Y66.393 E30.12965
G1 X143.158 Y67.745 E30.31494
G1 X145.933 Y69.514 E30.53602
G1 X149.019 Y71.773 E30.79295
G1 X151.543 Y73.885 E31.01404
G1 X153.936 Y76.144 E31.23512
G1 X155.835 Y78.145 E31.42045
G1 X157.966 Y80.653 E31.64155
G1 X160.248 Y83.721 E31.89842
G1 X161.76 Y86.029 E32.08378
G1 X163.408 Y88.877 E32.30483
G1 X164.884 Y91.819 E32.52595
G1 X166.181 Y94.844 E32.74706
G1 X167.458 Y98.449 E33.00399
G1 X168.344 Y101.574 E33.2222
G1 X169.044 Y104.745 E33.44036
G1 X169.557 Y107.963 E33.65928
G1 X169.847 Y110.813 E33.85173
G1 X170.005 Y114.695 E34.11274
G1 X169.942 Y117.722 E34.31614
G1 X169.685 Y120.971 E34.53509
G1 X169.235 Y124.199 E34.75404
G1 X168.648 Y127.148 E34.95604
G1 X167.668 Y130.868 E35.21448
G1 X166.625 Y133.989 E35.43555
G1 X165.397 Y137.043 E35.65668
G1 X164.229 Y139.542 E35.842
G1 X162.673 Y142.442 E36.06309
G1 X160.946 Y145.244 E36.28421
G1 X159.055 Y147.938 E36.50533
G1 X156.661 Y150.919 E36.76218
G1 X154.808 Y152.962 E36.94747
G1 X152.466 Y155.275 E37.1686
G1 X149.578 Y157.781 E37.42548
G1 X146.957 Y159.772 E37.6466
G1 X144.223 Y161.603 E37.86766
G1 X141.85 Y163.01 E38.05299
G1 X138.931 Y164.53 E38.27408
G1 X135.432 Y166.073 E38.53098
G1 X132.846 Y167.033 E38.71629
G1 X129.702 Y168.007 E38.93741
G1 X126.506 Y168.792 E39.1585
G1 X123.268 Y169.384 E39.37964
G1 X119.47 Y169.827 E39.63652
G1 X116.716 Y169.982 E39.82183
G1 X113.425 Y169.987 E40.04292
G1 X110.14 Y169.794 E40.26399
G1 X106.872 Y169.406 E40.48508
G1 X103.112 Y168.71 E40.74197
G1 X100.434 Y168.046 E40.92733
G1 X97.288 Y167.08 E41.14842
G1 X93.712 Y165.724 E41.40535
G1 X91.196 Y164.593 E41.59067
G1 X88.273 Y163.081 E41.81175
G1 X84.997 Y161.108 E42.06866
G1 X82.294 Y159.232 E42.2897
G1 X79.707 Y157.197 E42.51082
G1 X77.636 Y155.375 E42.69613
G1 X75.288 Y153.068 E42.91727
G1 X72.74 Y150.218 E43.1741
G1 X70.709 Y147.627 E43.39527
G1 X68.837 Y144.921 E43.61632
G1 X67.395 Y142.569 E43.80166
G1 X65.832 Y139.673 E44.02274
G1 X64.237 Y136.198 E44.27961
G1 X63.238 Y133.626 E44.46497
G1 X62.217 Y130.498 E44.68602
G1 X61.384 Y127.314 E44.90712
G1 X60.75 Y124.117 E45.12608
G1 X60.24 Y120.262 E45.38732
G1 X60.038 Y117.385 E45.58107
G1 X59.993 Y114.127 E45.79996
G1 X60.142 Y110.871 E46.01893
G1 X60.471 Y107.737 E46.23063
G1 X61.118 Y103.906 E46.49164
G1 X61.742 Y101.219 E46.67696
G1 X62.662 Y98.059 E46.89806
G1 X63.769 Y94.959 E47.1192
G1 X65.059 Y91.932 E47.34025
G1 X66.782 Y88.518 E47.59716
G1 X68.452 Y85.682 E47.81826
G1 X69.98 Y83.386 E48.00354
G1 X72.285 Y80.335 E48.26043
G1 X74.435 Y77.842 E48.48159
G1 X76.671 Y75.544 E48.69699
G1 X77.136 Y75.992 F9600
G1 F1800
G1 X77.167 Y75.959 E48.70003
G1 X79.196 Y74.09 E48.88535
G1 X81.707 Y72.022 E49.10388
G1 X84.746 Y69.831 E49.35557
G1 X87.076 Y68.355 E49.54086
G1 X89.916 Y66.769 E49.75939
G1 X92.845 Y65.355 E49.97789
G1 X95.854 Y64.119 E50.19642
G1 X99.404 Y62.921 E50.44812
G1 X102.546 Y62.082 E50.6666
G1 X105.733 Y61.432 E50.88511
G1 X108.462 Y61.031 E51.07041
G1 X111.701 Y60.737 E51.2889
G1 X115.447 Y60.639 E51.54064
G1 X118.203 Y60.732 E51.72589
G1 X121.443 Y61.02 E51.94441
G1 X125.146 Y61.593 E52.19614
G1 X128.322 Y62.295 E52.41465
G1 X130.978 Y63.039 E52.59995
G1 X134.057 Y64.087 E52.81845
G1 X137.067 Y65.318 E53.03692
G1 X140.437 Y66.956 E53.28864
G1 X142.841 Y68.309 E53.47396
G1 X145.584 Y70.057 E53.69247
G1 X148.606 Y72.271 E53.94414
G1 X151.102 Y74.357 E54.16267
G1 X153.467 Y76.589 E54.38114
G1 X155.366 Y78.59 E54.56647
G1 X157.471 Y81.069 E54.78495
G1 X159.708 Y84.075 E55.03668
G1 X161.219 Y86.383 E55.222
G1 X162.847 Y89.198 E55.44046
G1 X164.305 Y92.106 E55.659
G1 X165.586 Y95.096 E55.87753
G1 X166.836 Y98.628 E56.12923
G1 X167.714 Y101.718 E56.34503
G1 X168.407 Y104.854 E56.56079
G1 X168.915 Y108.036 E56.77726
G1 X169.204 Y110.878 E56.96917
G1 X169.359 Y114.683 E57.225
G1 X169.297 Y117.685 E57.42672
G1 X169.042 Y120.898 E57.64325
G1 X168.598 Y124.09 E57.85975
G1 X168.015 Y127.021 E58.06051
G1 X167.054 Y130.666 E58.31375
G1 X166.024 Y133.751 E58.53225
G1 X164.811 Y136.769 E58.75076
G1 X163.643 Y139.268 E58.93608
G1 X162.105 Y142.134 E59.15459
G1 X160.398 Y144.902 E59.37306
G1 X158.528 Y147.564 E59.59161
G1 X156.182 Y150.485 E59.8433
G1 X154.329 Y152.528 E60.02859
G1 X152.014 Y154.813 E60.24711
G1 X149.184 Y157.268 E60.4988
G1 X146.595 Y159.237 E60.71732
G1 X143.893 Y161.047 E60.9358
G1 X141.52 Y162.454 E61.12113
G1 X138.635 Y163.955 E61.33961
G1 X135.207 Y165.467 E61.59131
G1 X132.153 Y166.585 E61.80979
G1 X129.037 Y167.519 E62.02833
G1 X126.355 Y168.163 E62.21363
G1 X123.155 Y168.747 E62.43216
G1 X119.434 Y169.182 E62.68384
G1 X116.68 Y169.337 E62.86915
G1 X113.427 Y169.34 E63.08769
G1 X110.181 Y169.149 E63.30613
G1 X106.951 Y168.764 E63.52466
G1 X103.267 Y168.082 E63.77636
G1 X100.589 Y167.419 E63.9617
G1 X97.48 Y166.463 E64.18021
G1 X93.977 Y165.135 E64.43189
G1 X91.461 Y164.004 E64.61721
G1 X88.573 Y162.509 E64.83568
G1 X85.363 Y160.576 E65.08741
G1 X82.691 Y158.722 E65.30589
G1 X80.134 Y156.712 E65.52439
G1 X78.063 Y154.89 E65.7097
G1 X75.744 Y152.609 E65.92822
G1 X73.247 Y149.816 E66.17991
G1 X71.239 Y147.257 E66.39843
G1 X69.388 Y144.583 E66.61691
G1 X67.947 Y142.231 E66.80222
G1 X66.402 Y139.368 E67.02078
G1 X64.839 Y135.964 E67.27242
G1 X63.84 Y133.392 E67.45778
G1 X62.832 Y130.3 E67.67626
G1 X62.01 Y127.153 E67.89477
G1 X61.384 Y123.994 E68.11112
G1 X60.885 Y120.216 E68.36713
G1 X60.683 Y117.349 E68.56021
G1 X60.64 Y114.127 E68.77668
G1 X60.787 Y110.908 E68.99316
G1 X61.114 Y107.807 E69.20264
G1 X61.748 Y104.052 E69.45847
G1 X62.372 Y101.365 E69.64379
G1 X63.282 Y98.243 E69.86225
G1 X64.376 Y95.18 E70.08075
G1 X65.652 Y92.188 E70.29927
G1 X67.105 Y89.278 E70.51778
G1 X68.729 Y86.46 E70.73628
G1 X70.804 Y83.341 E70.98795
G1 X72.467 Y81.14 E71.17327
G1 X74.568 Y78.657 E71.39178
G1 X77.094 Y76.035 E71.63637
G1 X77.556 Y76.484 F9600
G1 F1800
G1 X77.605 Y76.434 E71.64107
G1 X79.978 Y74.267 E71.85696
G1 X82.116 Y72.523 E72.04232
G1 X85.092 Y70.377 E72.28881
G1 X87.814 Y68.669 E72.50469
G1 X90.228 Y67.334 E72.69001
G1 X93.123 Y65.938 E72.90593
G1 X96.097 Y64.718 E73.12188
G1 X99.573 Y63.545 E73.36834
G1 X102.678 Y62.715 E73.58426
G1 X105.827 Y62.072 E73.80018
G1 X108.556 Y61.671 E73.98548
G1 X111.757 Y61.381 E74.2014
G1 X115.425 Y61.285 E74.4479
G1 X118.182 Y61.378 E74.63322
G1 X121.383 Y61.664 E74.84912
G1 X125.009 Y62.224 E75.0956
G1 X128.147 Y62.917 E75.31149
G1 X130.803 Y63.661 E75.49679
G1 X133.845 Y64.698 E75.7127
G1 X136.82 Y65.915 E75.92864
G1 X140.12 Y67.52 E76.17517
G1 X142.524 Y68.872 E76.36046
G1 X145.234 Y70.601 E76.57642
G1 X148.194 Y72.769 E76.82291
G1 X150.66 Y74.829 E77.03877
G1 X152.999 Y77.034 E77.25472
G1 X154.897 Y79.035 E77.44
G1 X156.977 Y81.485 E77.65591
G1 X159.167 Y84.429 E77.90241
G1 X160.678 Y86.737 E78.08773
G1 X162.286 Y89.519 E78.3036
G1 X163.726 Y92.393 E78.51956
G1 X164.99 Y95.348 E78.73548
G1 X166.215 Y98.806 E78.98194
G1 X167.084 Y101.863 E79.19545
G1 X167.77 Y104.963 E79.40875
G1 X168.272 Y108.109 E79.62277
G1 X168.561 Y110.943 E79.81415
G1 X168.713 Y114.671 E80.06481
G1 X168.652 Y117.648 E80.26485
G1 X168.4 Y120.824 E80.47888
G1 X167.961 Y123.98 E80.69294
G1 X167.381 Y126.893 E80.89248
G1 X166.44 Y130.464 E81.14057
G1 X165.423 Y133.513 E81.3565
G1 X164.226 Y136.495 E81.57237
G1 X162.852 Y139.401 E81.78832
G1 X161.537 Y141.825 E81.97358
G1 X159.849 Y144.561 E82.18955
G1 X158.001 Y147.19 E82.40544
G1 X155.703 Y150.051 E82.65197
G1 X153.534 Y152.422 E82.86785
G1 X151.562 Y154.351 E83.05317
G1 X148.791 Y156.755 E83.29962
G1 X146.233 Y158.702 E83.51558
G1 X143.564 Y160.491 E83.73144
G1 X141.191 Y161.898 E83.91677
G1 X138.339 Y163.38 E84.13269
G1 X134.982 Y164.861 E84.37919
G1 X131.964 Y165.967 E84.59513
G1 X128.886 Y166.89 E84.81101
G1 X126.204 Y167.535 E84.99632
G1 X123.042 Y168.111 E85.21224
G1 X119.398 Y168.536 E85.4587
G1 X116.644 Y168.692 E85.64401
G1 X113.43 Y168.694 E85.85993
G1 X110.221 Y168.504 E86.07589
G1 X107.03 Y168.123 E86.29178
G1 X103.422 Y167.455 E86.53829
G1 X100.745 Y166.791 E86.72358
G1 X97.673 Y165.846 E86.9395
G1 X94.242 Y164.545 E87.18601
G1 X91.726 Y163.414 E87.37133
G1 X88.873 Y161.936 E87.58719
G1 X85.729 Y160.043 E87.83373
G1 X83.088 Y158.212 E88.04962
G1 X80.561 Y156.226 E88.26554
G1 X78.49 Y154.404 E88.45085
G1 X76.199 Y152.151 E88.66671
G1 X73.753 Y149.415 E88.91326
G1 X71.769 Y146.887 E89.12915
G1 X69.939 Y144.245 E89.34506
G1 X68.498 Y141.893 E89.53037
G1 X66.972 Y139.064 E89.74631
G1 X65.442 Y135.73 E89.99275
G1 X64.291 Y132.729 E90.20868
G1 X63.447 Y130.103 E90.39398
G1 X62.637 Y126.993 E90.60988
G1 X62.019 Y123.872 E90.82362
G1 X61.53 Y120.17 E91.07448
G1 X61.328 Y117.312 E91.26696
G1 X61.286 Y114.127 E91.48095
G1 X61.433 Y110.944 E91.69501
G1 X61.756 Y107.877 E91.90219
G1 X62.378 Y104.199 E92.15279
G1 X63.002 Y101.512 E92.33811
G1 X63.901 Y98.426 E92.55405
G1 X64.984 Y95.4 E92.76996
G1 X66.246 Y92.444 E92.98589
G1 X67.899 Y89.169 E93.23234
G1 X69.528 Y86.398 E93.44828
G1 X71.056 Y84.102 E93.63356
G1 X73.268 Y81.174 E93.88009
G1 X75.366 Y78.739 E94.09602
G1 X77.515 Y76.527 E94.3032
G1 X77.978 Y76.977 F9600
G1 F1800
G1 X78.043 Y76.91 E94.30947
G1 X80.387 Y74.768 E94.52279
G1 X82.524 Y73.024 E94.70809
G1 X85.438 Y70.923 E94.94943
G1 X87.768 Y69.447 E95.13472
G1 X90.541 Y67.9 E95.34804
G1 X93.402 Y66.522 E95.56138
G1 X96.339 Y65.317 E95.77465
G1 X99.743 Y64.169 E96.01599
G1 X102.81 Y63.348 E96.22929
G1 X105.921 Y62.711 E96.44262
G1 X108.65 Y62.31 E96.62792
G1 X111.812 Y62.025 E96.8412
G1 X115.403 Y61.931 E97.08253
G1 X118.16 Y62.024 E97.26785
G1 X121.322 Y62.307 E97.48112
G1 X124.872 Y62.856 E97.72244
G1 X127.568 Y63.44 E97.90776
G1 X130.629 Y64.284 E98.12107
G1 X133.634 Y65.309 E98.33437
G1 X136.573 Y66.513 E98.54774
G1 X139.803 Y68.083 E98.78901
G1 X142.207 Y69.435 E98.9743
G1 X144.884 Y71.144 E99.18766
G1 X147.782 Y73.266 E99.42896
G1 X150.219 Y75.302 E99.6423
G1 X152.53 Y77.479 E99.85559
G1 X154.429 Y79.48 E100.04092
G1 X156.482 Y81.901 E100.25417
G1 X158.626 Y84.783 E100.49548
G1 X160.137 Y87.091 E100.6808
G1 X161.726 Y89.841 E100.89417
G1 X163.146 Y92.68 E101.10742
G1 X164.395 Y95.599 E101.32072
G1 X165.594 Y98.985 E101.56203
G1 X166.454 Y102.007 E101.77311
G1 X167.133 Y105.072 E101.98401
G1 X167.63 Y108.182 E102.19559
G1 X167.918 Y111.008 E102.38642
G1 X168.066 Y114.659 E102.6319
G1 X168.006 Y117.612 E102.83032
G1 X167.758 Y120.751 E103.04186
G1 X167.324 Y123.871 E103.25348
G1 X166.747 Y126.766 E103.45179
G1 X165.826 Y130.262 E103.69467
G1 X164.822 Y133.275 E103.90803
G1 X163.64 Y136.222 E104.12134
G1 X162.472 Y138.72 E104.30659
G1 X160.969 Y141.517 E104.5199
G1 X159.3 Y144.219 E104.73326
G1 X157.474 Y146.816 E104.94654
G1 X155.224 Y149.616 E105.18785
G1 X153.371 Y151.66 E105.37319
G1 X151.11 Y153.889 E105.58649
G1 X148.397 Y156.243 E105.82779
G1 X146.209 Y157.922 E106.01307
G1 X143.586 Y159.712 E106.22641
G1 X140.496 Y161.544 E106.46774
G1 X137.667 Y162.985 E106.68103
G1 X134.757 Y164.255 E106.89433
G1 X132.171 Y165.215 E107.07964
G1 X129.137 Y166.152 E107.29296
G1 X126.053 Y166.906 E107.50625
G1 X122.929 Y167.475 E107.71957
G1 X119.361 Y167.891 E107.96089
G1 X116.607 Y168.046 E108.1462
G1 X113.432 Y168.048 E108.3595
G1 X110.262 Y167.859 E108.57284
G1 X107.11 Y167.481 E108.78611
G1 X103.578 Y166.827 E109.02742
G1 X100.9 Y166.164 E109.21276
G1 X97.866 Y165.229 E109.42604
G1 X94.507 Y163.956 E109.66736
G1 X91.991 Y162.825 E109.85268
G1 X89.172 Y161.363 E110.06602
G1 X86.095 Y159.51 E110.30732
G1 X83.485 Y157.702 E110.52062
G1 X80.988 Y155.741 E110.73392
G1 X78.917 Y153.919 E110.91923
G1 X76.654 Y151.692 E111.13253
G1 X74.26 Y149.014 E111.37385
