; generated by PrusaSlicer 2.9.1 on 2025-11-20 at 16:26:17 UTC

; 

; external perimeters extrusion width = 0.70mm
; perimeters extrusion width = 0.70mm
; infill extrusion width = 0.70mm
; solid infill extrusion width = 0.70mm
; top infill extrusion width = 0.70mm
; first layer extrusion width = 0.70mm

; external perimeters extrusion width = 0.70mm
; perimeters extrusion width = 0.70mm
; infill extrusion width = 0.70mm
; solid infill extrusion width = 0.70mm
; top infill extrusion width = 0.70mm
; first layer extrusion width = 0.70mm

M190 S40 ; set bed temperature and wait for it to be reached
M104 S230 ; set temperature
;TYPE:Custom
G28 ; home all axes
G1 Z5 F5000 ; lift nozzle
M109 S230 ; set temperature and wait for it to be reached
G21 ; set units to millimeters
G90 ; use absolute coordinates
M82 ; use absolute distances for extrusion
G92 E0
; Filament gcode
M107
;LAYER_CHANGE
;Z:0.25
;HEIGHT:0.25
G1 E-2 F2400
G92 E0
G1 E.00001
G1 Z.25 F9600
G1 X72.076 Y82.913
G1 E2 F2400
;COLOR_CHANGE,T0,#2D1ECA
M600
;TYPE:Skirt/Brim
;WIDTH:0.7
G1 F1800
G1 X106.327 Y53.139 E5.04884
G1 X108.663 Y51.817 E5.22916
G1 X111.331 Y51.117 E5.41446
G1 X112.645 Y51.026 E5.50295
G1 X125.096 Y51.09 E6.33942
G1 X127.458 Y51.616 E6.50199
G1 X145.733 Y58.688 E7.81843
G1 X147.606 Y59.616 E7.95886
G1 X149.348 Y60.798 E8.10028
G1 X150.686 Y61.975 E8.22
G1 X152.079 Y63.554 E8.36146
G1 X153.152 Y65.147 E8.49049
G1 X177.558 Y107.367 E11.76664
G1 X178.113 Y108.492 E11.85091
G1 X178.846 Y111.069 E12.0309
G1 X178.974 Y112.645 E12.13712
G1 X178.973 Y124.006 E12.90035
G1 X178.884 Y125.323 E12.98903
G1 X178.384 Y127.458 E13.13634
G1 X177.334 Y129.637 E13.29883
G1 X175.688 Y131.645 E13.47326
G1 X123.673 Y176.861 E18.10336
G1 X121.337 Y178.183 E18.28368
G1 X118.669 Y178.883 E18.46898
G1 X117.355 Y178.974 E18.55747
G1 X105.994 Y178.973 E19.3207
G1 X104.677 Y178.884 E19.40938
G1 X102.542 Y178.384 E19.55669
G1 X100.363 Y177.334 E19.71918
G1 X98.355 Y175.688 E19.89361
G1 X53.139 Y123.673 E24.52371
G1 X51.817 Y121.336 E24.70409
G1 X51.117 Y118.669 E24.88933
G1 X51.026 Y117.355 E24.97782
G1 X51.027 Y105.994 E25.74105
G1 X51.116 Y104.676 E25.8298
G1 X51.616 Y102.542 E25.97705
G1 X52.666 Y100.363 E26.13954
G1 X54.312 Y98.355 E26.31397
G1 X72.076 Y82.913 E27.89523
G1 X72.5 Y83.4 F9600
G1 F1800
G1 X106.72 Y53.651 E30.9414
G1 X108.915 Y52.412 E31.11073
G1 X111.42 Y51.757 E31.28467
G1 X112.645 Y51.673 E31.36716
G1 X125.022 Y51.732 E32.19866
G1 X127.239 Y52.224 E32.35122
G1 X145.494 Y59.288 E33.66621
G1 X147.288 Y60.179 E33.80078
G1 X148.957 Y61.312 E33.9363
G1 X150.226 Y62.429 E34.04987
G1 X151.561 Y63.941 E34.18537
G1 X152.593 Y65.471 E34.30935
G1 X176.998 Y107.691 E37.58547
G1 X177.516 Y108.74 E37.66407
G1 X178.206 Y111.158 E37.833
G1 X178.327 Y112.645 E37.93323
G1 X178.327 Y124.006 E38.69646
G1 X178.242 Y125.249 E38.78016
G1 X177.776 Y127.239 E38.91747
G1 X176.792 Y129.286 E39.07005
G1 X175.237 Y131.182 E39.23478
G1 X123.28 Y176.349 E43.85978
G1 X121.085 Y177.588 E44.02911
G1 X118.58 Y178.243 E44.20305
G1 X117.355 Y178.327 E44.28554
G1 X107.739 Y178.328 E44.93155
G1 X104.751 Y178.242 E45.13237
G1 X102.761 Y177.776 E45.26968
G1 X100.714 Y176.792 E45.42226
G1 X98.818 Y175.237 E45.58699
G1 X53.651 Y123.28 E50.21199
G1 X52.412 Y121.085 E50.38132
G1 X51.757 Y118.58 E50.55526
G1 X51.673 Y117.355 E50.63775
G1 X51.672 Y107.739 E51.28376
G1 X51.758 Y104.751 E51.48458
G1 X52.224 Y102.761 E51.62189
G1 X53.208 Y100.714 E51.77447
G1 X54.763 Y98.818 E51.9392
G1 X72.5 Y83.4 E53.51803
G1 X72.923 Y83.887 F9600
G1 F1800
G1 X107.113 Y54.164 E56.56153
G1 X109.167 Y53.007 E56.7199
G1 X111.509 Y52.398 E56.88247
G1 X112.645 Y52.319 E56.95897
G1 X124.947 Y52.374 E57.78543
G1 X127.021 Y52.832 E57.92812
G1 X145.254 Y59.889 E59.24156
G1 X146.97 Y60.741 E59.37027
G1 X148.565 Y61.826 E59.49986
G1 X149.765 Y62.882 E59.60725
G1 X151.043 Y64.328 E59.7369
G1 X152.033 Y65.794 E59.85574
G1 X176.438 Y108.014 E63.13186
G1 X176.919 Y108.987 E63.20478
G1 X177.566 Y111.247 E63.36271
G1 X177.681 Y112.645 E63.45695
G1 X177.68 Y124.005 E64.22012
G1 X177.6 Y125.175 E64.2989
G1 X177.168 Y127.021 E64.42627
G1 X176.249 Y128.935 E64.56891
G1 X174.786 Y130.719 E64.72391
G1 X122.887 Y175.836 E69.34377
G1 X120.833 Y176.993 E69.50214
G1 X118.491 Y177.602 E69.66471
G1 X117.355 Y177.681 E69.74121
G1 X107.739 Y177.681 E70.38722
G1 X104.825 Y177.6 E70.58306
G1 X102.979 Y177.168 E70.71043
G1 X101.065 Y176.249 E70.85307
G1 X99.281 Y174.786 E71.00807
G1 X54.164 Y122.887 E75.62793
G1 X53.007 Y120.833 E75.7863
G1 X52.398 Y118.491 E75.94887
G1 X52.319 Y117.355 E76.02537
G1 X52.319 Y107.739 E76.67138
G1 X52.4 Y104.825 E76.86722
G1 X52.832 Y102.979 E76.99459
G1 X53.751 Y101.065 E77.13723
G1 X55.214 Y99.281 E77.29223
G1 X72.923 Y83.887 E78.86858
G1 X73.346 Y84.374 F9600
G1 F1800
G1 X107.507 Y54.677 E81.90947
G1 X109.418 Y53.603 E82.05674
G1 X111.598 Y53.038 E82.20803
G1 X112.645 Y52.965 E82.27854
G1 X124.873 Y53.016 E83.10003
G1 X126.802 Y53.441 E83.23273
G1 X145.014 Y60.489 E84.54464
G1 X146.652 Y61.304 E84.66755
G1 X148.173 Y62.34 E84.79118
G1 X149.305 Y63.336 E84.89247
G1 X150.525 Y64.714 E85.01611
G1 X151.473 Y66.118 E85.12992
G1 X175.879 Y108.337 E88.40601
G1 X176.321 Y109.234 E88.47319
G1 X176.926 Y111.336 E88.62014
G1 X177.035 Y112.645 E88.70838
G1 X177.034 Y124.005 E89.47155
G1 X176.957 Y125.101 E89.54536
G1 X176.559 Y126.802 E89.66272
G1 X175.707 Y128.583 E89.79535
G1 X174.335 Y130.256 E89.9407
G1 X122.493 Y175.323 E94.55546
G1 X120.582 Y176.397 E94.70273
G1 X118.402 Y176.962 E94.85402
G1 X117.355 Y177.035 E94.92453
G1 X107.734 Y177.035 E95.57087
G1 X104.899 Y176.957 E95.7614
G1 X103.198 Y176.559 E95.87876
G1 X101.417 Y175.707 E96.01139
G1 X99.744 Y174.335 E96.15674
G1 X54.677 Y122.493 E100.7715
G1 X53.603 Y120.582 E100.91877
G1 X53.038 Y118.402 E101.07006
G1 X52.965 Y117.355 E101.14057
G1 X52.965 Y107.734 E101.78691
G1 X53.043 Y104.899 E101.97744
G1 X53.441 Y103.198 E102.0948
G1 X54.293 Y101.417 E102.22743
G1 X55.665 Y99.744 E102.37278
G1 X73.346 Y84.374 E103.94665
G1 X73.765 Y84.855 F9600
G1 F1800
G1 X107.9 Y55.19 E106.98481
G1 X109.67 Y54.198 E107.12112
G1 X111.687 Y53.678 E107.26105
G1 X112.645 Y53.612 E107.32556
G1 X124.799 Y53.658 E108.14207
G1 X126.584 Y54.049 E108.26483
G1 X144.775 Y61.089 E109.57523
G1 X146.333 Y61.867 E109.69222
G1 X147.781 Y62.854 E109.80995
G1 X148.845 Y63.79 E109.90515
G1 X150.007 Y65.101 E110.02284
G1 X150.914 Y66.441 E110.13154
G1 X175.319 Y108.661 E113.40766
G1 X175.724 Y109.482 E113.46916
G1 X176.286 Y111.425 E113.60504
G1 X176.388 Y112.645 E113.68729
G1 X176.388 Y124.004 E114.45039
G1 X176.315 Y125.027 E114.51929
G1 X175.951 Y126.584 E114.62671
G1 X175.164 Y128.232 E114.7494
G1 X174.05 Y129.631 E114.86954
G1 X173.598 Y130.056 E114.91122
G1 X122.1 Y174.81 E119.49475
G1 X120.33 Y175.802 E119.63106
G1 X118.313 Y176.322 E119.77099
G1 X117.355 Y176.388 E119.8355
G1 X107.734 Y176.389 E120.48184
G1 X104.973 Y176.315 E120.66739
G1 X103.416 Y175.951 E120.77481
G1 X101.768 Y175.164 E120.8975
G1 X100.369 Y174.05 E121.01764
G1 X99.944 Y173.598 E121.05932
G1 X55.19 Y122.1 E125.64285
G1 X54.198 Y120.33 E125.77916
G1 X53.678 Y118.313 E125.91909
G1 X53.612 Y117.355 E125.9836
G1 X53.611 Y107.734 E126.62994
G1 X53.685 Y104.973 E126.81549
G1 X54.049 Y103.416 E126.92291
G1 X54.836 Y101.768 E127.0456
G1 X55.95 Y100.369 E127.16574
G1 X56.402 Y99.944 E127.20742
G1 X73.765 Y84.855 E128.75279
G1 X74.188 Y85.343 F9600
G1 F1800
G1 X108.294 Y55.703 E131.78838
G1 X109.922 Y54.793 E131.91368
G1 X111.776 Y54.318 E132.04225
G1 X112.645 Y54.258 E132.10077
G1 X124.725 Y54.3 E132.91231
G1 X126.365 Y54.657 E133.02507
G1 X144.535 Y61.69 E134.33398
G1 X146.015 Y62.429 E134.44511
G1 X147.389 Y63.368 E134.55691
G1 X148.384 Y64.243 E134.64592
G1 X149.489 Y65.488 E134.75775
G1 X150.354 Y66.764 E134.86131
G1 X174.76 Y108.984 E138.13746
G1 X175.127 Y109.729 E138.19325
G1 X175.645 Y111.514 E138.31811
G1 X175.742 Y112.645 E138.39437
G1 X175.741 Y124.004 E139.15747
G1 X175.673 Y124.953 E139.22139
G1 X175.343 Y126.365 E139.3188
G1 X174.622 Y127.881 E139.43158
G1 X173.599 Y129.168 E139.54203
G1 X173.174 Y129.568 E139.58124
G1 X121.706 Y174.297 E144.16214
G1 X120.078 Y175.207 E144.28744
G1 X118.224 Y175.682 E144.41601
G1 X117.355 Y175.742 E144.47453
G1 X105.996 Y175.741 E145.23763
G1 X105.047 Y175.673 E145.30155
G1 X103.635 Y175.343 E145.39896
G1 X102.119 Y174.622 E145.51174
G1 X100.832 Y173.599 E145.62219
G1 X100.432 Y173.174 E145.6614
G1 X55.703 Y121.706 E150.2423
G1 X54.793 Y120.078 E150.3676
G1 X54.318 Y118.224 E150.49617
G1 X54.258 Y117.355 E150.55469
G1 X54.259 Y105.996 E151.31779
G1 X54.327 Y105.047 E151.38171
G1 X54.657 Y103.635 E151.47912
G1 X55.378 Y102.119 E151.5919
G1 X56.401 Y100.832 E151.70235
G1 X56.826 Y100.432 E151.74156
G1 X74.188 Y85.343 E153.28688
G1 E151.28688 F2400
G92 E0
G92 E0
G1 X140.201 Y67.732 F9600
G1 E2 F2400
;TYPE:External perimeter
;WIDTH:0.471516
G1 F1800
G1 X140.217 Y67.732 E2.00069
;WIDTH:0.459015
G1 X140.974 Y67.843 E2.03293
G1 X141.713 Y68.066 E2.06545
;WIDTH:0.460385
G1 X142.412 Y68.395 E2.09811
G1 X143.054 Y68.824 E2.13075
;WIDTH:0.462262
G1 X143.627 Y69.342 E2.16356
;WIDTH:0.462867
G1 X144.117 Y69.939 E2.19641
;WIDTH:0.463492
G1 X144.514 Y70.602 E2.22933
;WIDTH:0.466904
G1 X144.79 Y71.266 E2.26022
;WIDTH:0.46772
G1 X144.976 Y71.983 E2.2921
;WIDTH:0.469271
G1 X145.057 Y72.689 E2.3228
;WIDTH:0.470352
G1 X145.043 Y73.398 E2.35351
;WIDTH:0.470699
G1 X144.926 Y74.129 E2.3856
;WIDTH:0.471231
G1 X144.729 Y74.778 E2.41504
G1 X144.406 Y75.478 E2.4485
;WIDTH:0.471354
G1 X144.04 Y76.048 E2.47791
G1 X143.559 Y76.612 E2.51009
;WIDTH:0.471175
G1 X143.029 Y77.083 E2.54086
;WIDTH:0.470532
G1 X142.604 Y77.385 E2.56345
;WIDTH:0.460153
G1 X141.92 Y77.745 E2.59611
;WIDTH:0.462248
G1 X141.191 Y78 E2.62891
;WIDTH:0.463111
G1 X140.432 Y78.144 E2.66179
;WIDTH:0.464135
G1 X139.66 Y78.176 E2.69476
;WIDTH:0.466884
G1 X138.954 Y78.101 E2.72525
G1 X138.205 Y77.915 E2.7584
;WIDTH:0.469376
G1 X137.434 Y77.592 E2.79452
;WIDTH:0.470004
G1 X136.935 Y77.291 E2.81974
;WIDTH:0.470227
G1 X136.351 Y76.836 E2.85179
;WIDTH:0.471358
G1 X135.877 Y76.35 E2.88126
;WIDTH:0.471503
G1 X135.436 Y75.756 E2.91339
G1 X135.096 Y75.134 E2.94418
G1 X134.843 Y74.471 E2.975
;WIDTH:0.47107
G1 X134.714 Y73.988 E2.99669
;WIDTH:0.460147
G1 X134.617 Y73.252 E3.02806
;WIDTH:0.461451
G1 X134.633 Y72.449 E3.0621
G1 X134.755 Y71.717 E3.09355
;WIDTH:0.464156
G1 X135.002 Y70.954 E3.12777
;WIDTH:0.464557
G1 X135.332 Y70.288 E3.15951
;WIDTH:0.466488
G1 X135.748 Y69.688 E3.19084
;WIDTH:0.467483
G1 X136.25 Y69.144 E3.22268
;WIDTH:0.469036
G1 X136.8 Y68.695 E3.25333
;WIDTH:0.469544
G1 X137.431 Y68.309 E3.28531
;WIDTH:0.470655
G1 X138.083 Y68.027 E3.3161
;WIDTH:0.47102
G1 X138.736 Y67.843 E3.34553
;WIDTH:0.471516
G1 X139.507 Y67.735 E3.37934
G1 X140.201 Y67.732 E3.40948
G1 X140.214 Y67.332 F9600
;WIDTH:0.471447
G1 F1800
G1 X140.635 Y67.364 E3.42781
G1 X141.386 Y67.524 E3.46115
;WIDTH:0.471005
G1 X142.138 Y67.797 E3.49585
;WIDTH:0.470531
G1 X142.79 Y68.141 E3.52779
;WIDTH:0.468805
G1 X143.464 Y68.627 E3.56365
;WIDTH:0.468645
G1 X143.998 Y69.136 E3.59547
;WIDTH:0.466561
G1 X144.496 Y69.763 E3.62983
;WIDTH:0.465502
G1 X144.907 Y70.472 E3.66491
;WIDTH:0.464149
G1 X145.213 Y71.245 E3.70038
;WIDTH:0.461742
G1 X145.404 Y72.053 E3.7356
;WIDTH:0.469271
G1 X145.472 Y72.673 E3.76254
G1 X145.473 Y72.88 E3.77148
;WIDTH:0.460133
G1 X145.42 Y73.709 E3.80658
;WIDTH:0.470699
G1 X145.33 Y74.231 E3.82954
;WIDTH:0.471231
G1 X145.114 Y74.937 E3.86158
G1 X144.765 Y75.69 E3.8976
;WIDTH:0.471354
G1 X144.365 Y76.31 E3.92963
G1 X143.844 Y76.917 E3.96436
;WIDTH:0.471175
G1 X143.268 Y77.425 E3.99769
;WIDTH:0.470532
G1 X142.627 Y77.85 E4.03101
;WIDTH:0.469419
G1 X141.906 Y78.196 E4.06557
;WIDTH:0.468768
G1 X141.203 Y78.421 E4.09742
;WIDTH:0.465954
G1 X140.415 Y78.56 E4.13171
;WIDTH:0.465231
G1 X139.586 Y78.583 E4.16719
;WIDTH:0.464211
G1 X138.761 Y78.48 E4.20267
;WIDTH:0.461642
G1 X137.96 Y78.263 E4.23786
G1 X137.201 Y77.927 E4.27306
;WIDTH:0.459602
G1 X136.497 Y77.484 E4.30816
;WIDTH:0.460017
G1 X135.909 Y76.987 E4.34068
;WIDTH:0.471358
G1 X135.552 Y76.613 E4.36313
;WIDTH:0.471523
G1 X135.077 Y75.969 E4.39789
G1 X134.71 Y75.294 E4.43126
G1 X134.438 Y74.575 E4.46465
;WIDTH:0.47107
G1 X134.262 Y73.795 E4.49934
;WIDTH:0.470752
G1 X134.199 Y73.06 E4.53132
;WIDTH:0.469228
G1 X134.239 Y72.261 E4.56588
;WIDTH:0.468043
G1 X134.392 Y71.476 E4.60033
;WIDTH:0.46788
G1 X134.645 Y70.741 E4.6338
;WIDTH:0.465392
G1 X135.011 Y70.029 E4.66806
;WIDTH:0.463921
G1 X135.494 Y69.353 E4.70349
;WIDTH:0.461975
G1 X136.07 Y68.754 E4.73876
;WIDTH:0.461465
G1 X136.728 Y68.248 E4.77394
;WIDTH:0.459969
G1 X137.453 Y67.842 E4.80903
;WIDTH:0.459728
G1 X138.228 Y67.548 E4.84401
;WIDTH:0.459428
G1 X139.04 Y67.373 E4.87904
;WIDTH:0.463712
G1 X139.867 Y67.306 E4.9144
;WIDTH:0.471447
G1 X140.214 Y67.332 E4.92951
G1 E2.92951 F2400
G92 E0
G92 E0
G1 X115.363 Y109.783 F9600
G1 E2 F2400
;WIDTH:0.471516
G1 F1800
G1 X115.379 Y109.783 E2.00069
;WIDTH:0.459015
G1 X116.135 Y109.894 E2.03288
G1 X116.875 Y110.117 E2.06544
;WIDTH:0.460385
G1 X117.574 Y110.446 E2.0981
G1 X118.216 Y110.875 E2.13074
;WIDTH:0.462262
G1 X118.789 Y111.393 E2.16355
;WIDTH:0.462867
G1 X119.279 Y111.99 E2.1964
;WIDTH:0.463492
G1 X119.676 Y112.653 E2.22932
;WIDTH:0.466904
G1 X119.952 Y113.317 E2.26021
;WIDTH:0.46772
G1 X120.138 Y114.034 E2.29209
;WIDTH:0.469271
G1 X120.219 Y114.74 E2.32279
;WIDTH:0.470352
G1 X120.205 Y115.449 E2.3535
;WIDTH:0.470699
G1 X120.088 Y116.18 E2.38559
;WIDTH:0.471231
G1 X119.891 Y116.829 E2.41503
G1 X119.568 Y117.529 E2.44849
;WIDTH:0.471354
G1 X119.202 Y118.099 E2.4779
G1 X118.721 Y118.663 E2.51008
;WIDTH:0.471175
G1 X118.191 Y119.134 E2.54085
;WIDTH:0.470532
G1 X117.766 Y119.437 E2.56347
;WIDTH:0.460153
G1 X117.082 Y119.796 E2.59611
;WIDTH:0.462248
G1 X116.353 Y120.051 E2.62891
;WIDTH:0.463111
G1 X115.594 Y120.196 E2.6618
;WIDTH:0.464135
G1 X114.822 Y120.227 E2.69476
;WIDTH:0.466884
G1 X114.116 Y120.152 E2.72525
G1 X113.367 Y119.966 E2.7584
;WIDTH:0.469376
G1 X112.596 Y119.643 E2.79452
;WIDTH:0.470004
G1 X112.097 Y119.342 E2.81974
;WIDTH:0.470227
G1 X111.513 Y118.887 E2.85179
;WIDTH:0.471358
G1 X111.039 Y118.401 E2.88126
;WIDTH:0.471503
G1 X110.598 Y117.807 E2.91339
G1 X110.258 Y117.185 E2.94418
G1 X110.005 Y116.522 E2.975
;WIDTH:0.47107
G1 X109.876 Y116.039 E2.99669
;WIDTH:0.460147
G1 X109.779 Y115.303 E3.02806
;WIDTH:0.461451
G1 X109.795 Y114.5 E3.0621
G1 X109.917 Y113.768 E3.09355
;WIDTH:0.464156
G1 X110.164 Y113.005 E3.12777
;WIDTH:0.464557
G1 X110.494 Y112.34 E3.15948
;WIDTH:0.466488
G1 X110.91 Y111.739 E3.19084
;WIDTH:0.467483
G1 X111.412 Y111.195 E3.22268
;WIDTH:0.469036
G1 X111.962 Y110.746 E3.25333
;WIDTH:0.469544
G1 X112.593 Y110.361 E3.28528
;WIDTH:0.470655
G1 X113.245 Y110.079 E3.31607
;WIDTH:0.47102
G1 X113.898 Y109.894 E3.34551
;WIDTH:0.471516
G1 X114.669 Y109.786 E3.37932
G1 X115.363 Y109.783 E3.40946
G1 X115.376 Y109.383 F9600
;WIDTH:0.471447
G1 F1800
G1 X115.797 Y109.415 E3.42779
G1 X116.548 Y109.575 E3.46113
;WIDTH:0.471005
G1 X117.3 Y109.849 E3.49585
;WIDTH:0.470531
G1 X117.952 Y110.192 E3.52777
;WIDTH:0.468805
G1 X118.626 Y110.678 E3.56363
;WIDTH:0.468645
G1 X119.16 Y111.187 E3.59545
;WIDTH:0.466561
G1 X119.658 Y111.814 E3.62981
;WIDTH:0.465502
G1 X120.069 Y112.523 E3.66489
;WIDTH:0.464149
G1 X120.374 Y113.296 E3.70035
;WIDTH:0.461742
G1 X120.566 Y114.104 E3.73558
;WIDTH:0.469271
G1 X120.634 Y114.724 E3.76252
G1 X120.635 Y114.931 E3.77146
;WIDTH:0.460133
G1 X120.582 Y115.76 E3.80656
;WIDTH:0.470699
G1 X120.492 Y116.282 E3.82952
;WIDTH:0.471231
G1 X120.276 Y116.988 E3.86156
G1 X119.927 Y117.742 E3.89762
;WIDTH:0.471354
G1 X119.527 Y118.361 E3.92962
G1 X119.006 Y118.968 E3.96435
;WIDTH:0.471175
G1 X118.43 Y119.476 E3.99768
;WIDTH:0.470532
G1 X117.789 Y119.901 E4.031
;WIDTH:0.469419
G1 X117.068 Y120.247 E4.06556
;WIDTH:0.468768
G1 X116.365 Y120.472 E4.09741
;WIDTH:0.465954
G1 X115.577 Y120.611 E4.1317
;WIDTH:0.465231
G1 X114.748 Y120.634 E4.16718
;WIDTH:0.464211
G1 X113.923 Y120.531 E4.20266
;WIDTH:0.461642
G1 X113.122 Y120.314 E4.23785
G1 X112.363 Y119.978 E4.27305
;WIDTH:0.459602
