; generated by PrusaSlicer 2.9.1 on 2025-11-19 at 15:45:59 UTC

; 

; external perimeters extrusion width = 0.70mm
; perimeters extrusion width = 0.70mm
; infill extrusion width = 0.70mm
; solid infill extrusion width = 0.70mm
; top infill extrusion width = 0.70mm
; first layer extrusion width = 0.70mm

; external perimeters extrusion width = 0.70mm
; perimeters extrusion width = 0.70mm
; infill extrusion width = 0.70mm
; solid infill extrusion width = 0.70mm
; top infill extrusion width = 0.70mm
; first layer extrusion width = 0.70mm

M190 S40 ; set bed temperature and wait for it to be reached
M104 S235 ; set temperature
;TYPE:Custom
G28 ; home all axes
G1 Z5 F5000 ; lift nozzle
M109 S235 ; set temperature and wait for it to be reached
G21 ; set units to millimeters
G90 ; use absolute coordinates
M82 ; use absolute distances for extrusion
G92 E0
; Filament gcode
M107
;LAYER_CHANGE
;Z:0.3
;HEIGHT:0.3
G1 E-2 F2400
G92 E0
G1 Z.3 F9600
G1 X104.751 Y104.193
G1 E2 F2400
;TYPE:Skirt/Brim
;WIDTH:0.7
G1 F1800
G1 X105.666 Y103.394 E2.0963
G1 X106.846 Y102.537 E2.21192
G1 X108.393 Y101.653 E2.35317
G1 X110.033 Y100.959 E2.49435
G1 X111.745 Y100.467 E2.63557
G1 X113.503 Y100.182 E2.77676
G1 X133.996 Y99.112 E4.40362
G1 X135.422 Y99.115 E4.51667
G1 X136.767 Y99.234 E4.62372
G1 X138.275 Y99.507 E4.74521
G1 X139.512 Y99.847 E4.84691
G1 X140.954 Y100.384 E4.9689
G1 X142.172 Y100.968 E5.07599
G1 X143.489 Y101.754 E5.19758
G1 X144.526 Y102.506 E5.29913
G1 X145.688 Y103.515 E5.42113
G1 X146.742 Y104.625 E5.54248
G1 X166.726 Y127.625 E7.958
G1 X168.066 Y129.428 E8.13609
G1 X169.005 Y131.11 E8.28881
G1 X169.538 Y132.352 E8.39596
G1 X170.014 Y133.812 E8.5177
G1 X170.396 Y135.626 E8.66466
G1 X170.541 Y136.97 E8.77183
G1 X170.566 Y138.508 E8.89378
G1 X170.399 Y140.352 E9.04057
G1 X170.142 Y141.678 E9.14765
G1 X169.714 Y143.157 E9.26971
G1 X169.222 Y144.415 E9.3768
G1 X168.378 Y146.062 E9.52352
G1 X167.534 Y147.349 E9.64553
G1 X166.694 Y148.407 E9.75263
G1 X165.632 Y149.521 E9.87465
G1 X164.218 Y150.715 E10.02137
G1 X163.104 Y151.48 E10.1285
G1 X161.761 Y152.232 E10.25053
G1 X159.993 Y152.983 E10.40281
G1 X157.832 Y153.582 E10.58059
G1 X155.924 Y153.85 E10.73334
G1 X154.03 Y153.886 E10.88352
G1 X136.382 Y152.807 E12.28523
G1 X135.181 Y152.626 E12.38152
G1 X133.764 Y152.281 E12.49714
G1 X132.616 Y151.888 E12.59334
G1 X131.283 Y151.295 E12.709
G1 X129.477 Y150.216 E12.87578
G1 X127.663 Y148.725 E13.06193
G1 X104.382 Y125.448 E15.67188
G1 X103.457 Y124.414 E15.78187
G1 X102.728 Y123.442 E15.87819
G1 X101.554 Y121.408 E16.06437
G1 X101.077 Y120.292 E16.16059
G1 X100.626 Y118.904 E16.27629
G1 X100.356 Y117.721 E16.37249
G1 X100.16 Y116.275 E16.48817
G1 X100.106 Y115.062 E16.58443
G1 X100.171 Y113.605 E16.70005
G1 X100.334 Y112.402 E16.79629
G1 X100.659 Y110.98 E16.91193
G1 X101.034 Y109.825 E17.0082
G1 X101.607 Y108.484 E17.12381
G1 X102.183 Y107.414 E17.22015
G1 X102.986 Y106.197 E17.33574
G1 X103.743 Y105.248 E17.43198
G1 X104.71 Y104.237 E17.54289
G1 X105.169 Y104.675 F9600
G1 F1800
G1 X105.184 Y104.659 E17.54463
G1 X106.07 Y103.885 E17.6379
G1 X107.188 Y103.073 E17.74744
G1 X108.669 Y102.225 E17.88274
G1 X110.239 Y101.561 E18.01788
G1 X111.877 Y101.089 E18.15302
G1 X113.56 Y100.815 E18.2882
G1 X134.029 Y99.747 E19.91315
G1 X135.385 Y99.749 E20.02065
G1 X136.692 Y99.865 E20.12467
G1 X138.124 Y100.125 E20.24005
G1 X139.327 Y100.455 E20.33894
G1 X140.697 Y100.965 E20.45483
G1 X141.88 Y101.533 E20.55887
G1 X143.131 Y102.279 E20.67434
G1 X144.139 Y103.01 E20.77305
G1 X145.243 Y103.969 E20.88898
G1 X146.263 Y105.042 E21.00635
G1 X166.246 Y128.042 E23.42182
G1 X167.527 Y129.764 E23.59197
G1 X168.429 Y131.379 E23.73862
G1 X168.947 Y132.585 E23.84268
G1 X169.398 Y133.972 E23.95831
G1 X169.766 Y135.714 E24.09946
G1 X169.907 Y137.019 E24.20352
G1 X169.931 Y138.48 E24.31936
G1 X169.771 Y140.25 E24.46025
G1 X169.522 Y141.539 E24.56433
G1 X169.116 Y142.943 E24.6802
G1 X168.638 Y144.166 E24.7843
G1 X167.826 Y145.746 E24.92513
G1 X167.025 Y146.969 E25.04103
G1 X166.208 Y147.997 E25.14513
G1 X165.199 Y149.055 E25.26103
G1 X163.843 Y150.203 E25.40188
G1 X162.761 Y150.945 E25.50589
G1 X161.485 Y151.66 E25.62185
G1 X159.788 Y152.382 E25.76805
G1 X157.698 Y152.961 E25.93998
G1 X155.866 Y153.217 E26.08663
G1 X154.049 Y153.251 E26.2307
G1 X136.458 Y152.176 E27.62788
G1 X135.295 Y152.001 E27.72112
G1 X133.951 Y151.673 E27.8308
G1 X132.839 Y151.293 E27.92396
G1 X131.575 Y150.731 E28.03363
G1 X130.548 Y150.158 E28.12686
G1 X129.406 Y149.379 E28.23645
G1 X127.832 Y147.998 E28.40245
G1 X104.832 Y124.998 E30.98112
G1 X103.434 Y123.34 E31.15305
G1 X102.368 Y121.615 E31.31381
G1 X101.787 Y120.361 E31.42338
G1 X101.39 Y119.253 E31.51669
G1 X101.042 Y117.915 E31.62629
G1 X100.849 Y116.755 E31.71952
G1 X100.742 Y115.114 E31.84989
G1 X100.803 Y113.672 E31.96431
G1 X100.961 Y112.506 E32.05759
G1 X101.269 Y111.158 E32.16721
G1 X101.632 Y110.039 E32.26047
G1 X102.176 Y108.768 E32.37007
G1 X102.733 Y107.732 E32.46332
G1 X103.495 Y106.578 E32.57295
G1 X104.228 Y105.659 E32.66614
G1 X105.127 Y104.719 E32.76926
G1 X105.586 Y105.157 F9600
G1 F1800
G1 X105.616 Y105.125 E32.77274
G1 X106.473 Y104.376 E32.86297
G1 X107.531 Y103.608 E32.96661
G1 X108.944 Y102.798 E33.09573
G1 X110.444 Y102.162 E33.22489
G1 X112.009 Y101.71 E33.35403
G1 X113.617 Y101.448 E33.48319
G1 X134.061 Y100.382 E35.10615
G1 X135.348 Y100.384 E35.20818
G1 X136.617 Y100.496 E35.30917
G1 X137.973 Y100.742 E35.41843
G1 X139.141 Y101.063 E35.51446
G1 X140.439 Y101.546 E35.62426
G1 X141.588 Y102.097 E35.72528
G1 X142.773 Y102.805 E35.83471
G1 X143.752 Y103.515 E35.93059
G1 X144.798 Y104.423 E36.0404
G1 X145.783 Y105.458 E36.15367
G1 X165.767 Y128.458 E38.56919
G1 X166.733 Y129.716 E38.69493
G1 X167.628 Y131.202 E38.83245
G1 X168.213 Y132.457 E38.94222
G1 X168.783 Y134.132 E39.08249
G1 X169.137 Y135.801 E39.21775
G1 X169.273 Y137.068 E39.31877
G1 X169.296 Y138.452 E39.42851
G1 X169.144 Y140.149 E39.56358
G1 X168.902 Y141.399 E39.66452
G1 X168.517 Y142.73 E39.77436
G1 X168.053 Y143.916 E39.87532
G1 X167.274 Y145.431 E40.01037
G1 X166.515 Y146.589 E40.12014
G1 X165.723 Y147.587 E40.22115
G1 X164.767 Y148.589 E40.33094
G1 X163.467 Y149.69 E40.466
G1 X162.417 Y150.411 E40.56698
G1 X161.209 Y151.087 E40.67672
G1 X159.582 Y151.78 E40.81692
G1 X157.564 Y152.34 E40.98295
G1 X155.809 Y152.584 E41.12342
G1 X154.068 Y152.615 E41.26146
G1 X136.534 Y151.545 E42.65411
G1 X135.408 Y151.376 E42.74438
G1 X134.139 Y151.066 E42.84794
G1 X133.062 Y150.698 E42.93817
G1 X131.868 Y150.166 E43.0418
G1 X130.874 Y149.612 E43.13202
G1 X129.795 Y148.876 E43.23557
G1 X128.281 Y147.549 E43.39518
G1 X105.281 Y124.549 E45.97385
G1 X103.954 Y122.975 E46.13706
G1 X102.928 Y121.314 E46.29184
G1 X102.378 Y120.128 E46.39548
G1 X101.994 Y119.057 E46.48568
G1 X101.666 Y117.792 E46.58928
G1 X101.479 Y116.67 E46.67946
G1 X101.378 Y115.104 E46.80387
G1 X101.435 Y113.738 E46.91226
G1 X101.588 Y112.61 E47.0025
G1 X101.879 Y111.336 E47.1061
G1 X102.231 Y110.254 E47.1963
G1 X102.744 Y109.052 E47.29991
G1 X103.284 Y108.05 E47.39015
G1 X104.003 Y106.96 E47.49367
G1 X104.713 Y106.07 E47.58393
G1 X105.544 Y105.2 E47.67931
G1 X105.995 Y105.658 F9600
G1 F1800
G1 X106.285 Y105.371 E47.71166
G1 X107.236 Y104.59 E47.80922
G1 X108.145 Y103.97 E47.89645
G1 X109.511 Y103.23 E48.01961
G1 X110.898 Y102.679 E48.13793
G1 X112.141 Y102.332 E48.24024
G1 X113.674 Y102.081 E48.36339
G1 X134.094 Y101.017 E49.98444
G1 X135.311 Y101.018 E50.08092
G1 X136.541 Y101.128 E50.17882
G1 X137.823 Y101.36 E50.28211
G1 X138.956 Y101.671 E50.37525
G1 X140.182 Y102.127 E50.47895
G1 X141.296 Y102.662 E50.57692
G1 X142.415 Y103.33 E50.68024
G1 X143.365 Y104.019 E50.77328
G1 X144.353 Y104.877 E50.87702
G1 X145.303 Y105.875 E50.98625
G1 X165.287 Y128.875 E53.40177
G1 X166.213 Y130.082 E53.52237
G1 X167.069 Y131.504 E53.65395
G1 X167.622 Y132.69 E53.75769
G1 X168.039 Y133.853 E53.85564
G1 X168.43 Y135.434 E53.98475
G1 X168.61 Y136.73 E54.08848
G1 X168.668 Y137.964 E54.18642
G1 X168.61 Y139.269 E54.28998
G1 X168.367 Y140.882 E54.4193
G1 X168.06 Y142.078 E54.51719
G1 X167.62 Y143.31 E54.6209
G1 X166.915 Y144.779 E54.75008
G1 X166.269 Y145.832 E54.84802
G1 X165.487 Y146.881 E54.95175
G1 X164.662 Y147.8 E55.04966
G1 X163.708 Y148.686 E55.15288
G1 X162.399 Y149.666 E55.28252
G1 X161.34 Y150.302 E55.38045
G1 X159.804 Y151.018 E55.5148
G1 X157.809 Y151.636 E55.68037
G1 X156.137 Y151.916 E55.81477
G1 X154.447 Y151.991 E55.94888
G1 X136.61 Y150.914 E57.36554
G1 X135.522 Y150.75 E57.45277
G1 X134.326 Y150.458 E57.55037
G1 X133.286 Y150.103 E57.63749
G1 X132.161 Y149.602 E57.73512
G1 X131.2 Y149.067 E57.82232
G1 X130.184 Y148.373 E57.91986
G1 X128.731 Y147.099 E58.07306
G1 X105.731 Y124.099 E60.65173
G1 X104.474 Y122.609 E60.80627
G1 X103.487 Y121.013 E60.95504
G1 X102.97 Y119.896 E61.05262
G1 X102.599 Y118.86 E61.13986
G1 X102.289 Y117.669 E61.23743
G1 X102.109 Y116.584 E61.32462
G1 X102.013 Y115.095 E61.44291
G1 X102.068 Y113.804 E61.54535
G1 X102.215 Y112.714 E61.63255
G1 X102.489 Y111.514 E61.73013
G1 X102.829 Y110.468 E61.81733
G1 X103.43 Y109.102 E61.93564
G1 X104.073 Y107.982 E62.03802
G1 X104.706 Y107.082 E62.12525
G1 X105.502 Y106.143 E62.22284
G1 X105.952 Y105.7 E62.2729
G1 X106.433 Y106.145 F9600
G1 F1800
G1 X106.718 Y105.837 E62.30617
G1 X108.487 Y104.506 E62.48168
G1 X109.787 Y103.803 E62.59885
G1 X111.103 Y103.281 E62.71109
G1 X112.274 Y102.954 E62.80748
G1 X113.731 Y102.714 E62.92454
G1 X134.126 Y101.651 E64.54361
G1 X135.274 Y101.653 E64.63462
G1 X136.466 Y101.759 E64.72949
G1 X137.672 Y101.977 E64.82665
G1 X138.771 Y102.279 E64.91701
G1 X139.924 Y102.709 E65.01457
G1 X141.003 Y103.226 E65.10942
G1 X142.057 Y103.855 E65.20673
G1 X142.978 Y104.523 E65.29693
G1 X143.908 Y105.33 E65.39455
G1 X144.823 Y106.292 E65.4998
G1 X164.807 Y129.292 E67.91532
G1 X165.693 Y130.448 E68.03079
G1 X166.51 Y131.807 E68.1565
G1 X167.03 Y132.923 E68.25411
G1 X167.435 Y134.049 E68.34898
G1 X167.807 Y135.56 E68.47235
G1 X167.976 Y136.779 E68.56991
G1 X168.032 Y137.974 E68.66475
G1 X167.978 Y139.203 E68.76228
G1 X167.747 Y140.742 E68.88566
G1 X167.449 Y141.901 E68.98053
G1 X167.036 Y143.061 E69.07815
G1 X166.363 Y144.463 E69.20144
G1 X165.738 Y145.484 E69.29634
G1 X165.002 Y146.47 E69.39388
G1 X164.202 Y147.361 E69.48881
G1 X163.304 Y148.195 E69.58597
G1 X162.056 Y149.132 E69.70969
G1 X161.03 Y149.748 E69.80456
G1 X159.563 Y150.43 E69.93281
G1 X157.675 Y151.015 E70.08951
G1 X156.079 Y151.283 E70.21781
G1 X154.466 Y151.355 E70.34581
G1 X136.686 Y150.283 E71.75793
G1 X134.514 Y149.851 E71.93349
G1 X132.454 Y149.038 E72.10906
G1 X130.572 Y147.871 E72.28462
G1 X129.18 Y146.65 E72.43141
G1 X106.18 Y123.65 E75.01008
G1 X104.993 Y122.243 E75.15602
G1 X104.047 Y120.712 E75.2987
G1 X103.204 Y118.664 E75.47428
G1 X102.739 Y116.499 E75.64983
G1 X102.649 Y115.085 E75.76216
G1 X102.7 Y113.871 E75.85849
G1 X103.099 Y111.693 E76.03403
G1 X103.428 Y110.683 E76.11824
G1 X103.999 Y109.386 E76.23059
G1 X104.603 Y108.332 E76.3269
G1 X105.214 Y107.464 E76.41105
G1 X106.393 Y106.189 E76.54872
G1 X106.858 Y106.619 F9600
G1 F1800
G1 X107.15 Y106.303 E76.58283
G1 X108.829 Y105.041 E76.74935
G1 X110.063 Y104.376 E76.86048
G1 X111.309 Y103.882 E76.96674
G1 X112.406 Y103.576 E77.05703
G1 X113.788 Y103.348 E77.16807
G1 X134.159 Y102.286 E78.78523
G1 X135.237 Y102.288 E78.87069
G1 X136.391 Y102.39 E78.96253
G1 X137.521 Y102.595 E79.05358
G1 X139.667 Y103.29 E79.23241
G1 X140.711 Y103.791 E79.32421
G1 X141.699 Y104.38 E79.4154
G1 X143.462 Y105.784 E79.59407
G1 X144.343 Y106.709 E79.69534
G1 X164.327 Y129.709 E82.11086
G1 X165.174 Y130.814 E82.22124
G1 X165.767 Y131.769 E82.31036
G1 X166.288 Y132.804 E82.40222
G1 X166.831 Y134.246 E82.52438
G1 X167.184 Y135.685 E82.64184
G1 X167.342 Y136.828 E82.73332
G1 X167.397 Y137.985 E82.82515
G1 X167.346 Y139.136 E82.91649
G1 X167.127 Y140.603 E83.03408
G1 X166.839 Y141.725 E83.12591
G1 X166.451 Y142.811 E83.21734
G1 X165.811 Y144.148 E83.33485
G1 X165.206 Y145.135 E83.42663
G1 X164.516 Y146.06 E83.51812
G1 X163.742 Y146.922 E83.60996
G1 X162.9 Y147.704 E83.70106
G1 X161.712 Y148.597 E83.81888
G1 X160.719 Y149.193 E83.91069
G1 X159.321 Y149.842 E84.03288
G1 X157.541 Y150.394 E84.18062
G1 X156.021 Y150.65 E84.30282
G1 X154.485 Y150.72 E84.42472
G1 X136.762 Y149.652 E85.83231
G1 X134.701 Y149.244 E85.99887
G1 X132.747 Y148.474 E86.16537
G1 X130.961 Y147.368 E86.33191
G1 X129.63 Y146.2 E86.4723
G1 X106.63 Y123.2 E89.05097
G1 X105.513 Y121.877 E89.18824
G1 X104.76 Y120.695 E89.29935
G1 X103.908 Y118.775 E89.46588
G1 X103.537 Y117.424 E89.57695
G1 X103.369 Y116.414 E89.65812
G1 X103.284 Y115.076 E89.76441
G1 X103.332 Y113.937 E89.85479
G1 X103.709 Y111.871 E90.02128
G1 X104.026 Y110.897 E90.10248
G1 X104.567 Y109.671 E90.20872
G1 X105.134 Y108.682 E90.2991
G1 X105.723 Y107.845 E90.38024
G1 X106.817 Y106.663 E90.50792
G1 E88.50792 F2400
G92 E0
G92 E0
G1 X153.887 Y142.859 F9600
G1 E2 F2400
;TYPE:Perimeter
;WIDTH:0.595981
G1 F1800
G1 X153.253 Y142.717 E2.04308
;WIDTH:0.596391
G1 X152.547 Y142.448 E2.09321
G1 X151.918 Y142.083 E2.14147
;WIDTH:0.596967
G1 X151.204 Y141.503 E2.20258
;WIDTH:0.596286
G1 X150.796 Y141.041 E2.24347
;WIDTH:0.597392
G1 X150.219 Y140.108 E2.3164
;WIDTH:0.60324
G1 X149.995 Y139.544 E2.35719
G1 X149.786 Y138.66 E2.41824
;WIDTH:0.604114
G1 X149.749 Y138.101 E2.45595
G1 X149.81 Y137.183 E2.51788
;WIDTH:0.599725
G1 X150.009 Y136.4 E2.57182
;WIDTH:0.61146
G1 X150.265 Y135.826 E2.61471
G1 X150.526 Y135.336 E2.65259
;WIDTH:0.595665
G1 X150.947 Y134.769 E2.69939
;WIDTH:0.598214
G1 X151.754 Y134.026 E2.77243
;WIDTH:0.60331
G1 X152.247 Y133.711 E2.81176
G1 X153.086 Y133.33 E2.8737
;WIDTH:0.599634
G1 X153.854 Y133.137 E2.92657
;WIDTH:0.601456
G1 X154.507 Y133.071 E2.97054
G1 X155.355 Y133.115 E3.02742
;WIDTH:0.611271
G1 X155.947 Y133.251 E3.06885
G1 X156.495 Y133.418 E3.10793
;WIDTH:0.592762
G1 X157.424 Y133.91 E3.17721
;WIDTH:0.611561
G1 X158.012 Y134.391 E3.22906
G1 X158.401 Y134.768 E3.26603
;WIDTH:0.598909
G1 X158.76 Y135.237 E3.30541
;WIDTH:0.598728
G1 X159.142 Y135.916 E3.35733
;WIDTH:0.592226
G1 X159.407 Y136.626 E3.40722
;WIDTH:0.596904
G1 X159.56 Y137.337 E3.45553
G1 X159.6 Y138.115 E3.50727
;WIDTH:0.597486
G1 X159.533 Y138.842 E3.55581
G1 X159.336 Y139.596 E3.60763
;WIDTH:0.598532
G1 X159.04 Y140.294 E3.65814
G1 X158.636 Y140.931 E3.70839
;WIDTH:0.591549
G1 X158.14 Y141.502 E3.75812
;WIDTH:0.596666
G1 X157.567 Y141.992 E3.80817
G1 X156.922 Y142.384 E3.85828
;WIDTH:0.597304
G1 X156.227 Y142.68 E3.90849
G1 X155.494 Y142.858 E3.95863
;WIDTH:0.590086
G1 X154.742 Y142.926 E4.00814
;WIDTH:0.595981
G1 X153.989 Y142.882 E4.05815
G1 X153.946 Y142.873 E4.06106
G1 X153.997 Y142.292 F9600
;TYPE:External perimeter
;WIDTH:0.7
G1 F1800
G1 X153.385 Y142.152 E4.11083
G1 X152.765 Y141.907 E4.16368
G1 X152.214 Y141.584 E4.21431
G1 X151.64 Y141.115 E4.27307
G1 X151.23 Y140.654 E4.32198
G1 X150.721 Y139.81 E4.40012
G1 X150.486 Y139.174 E4.45387
G1 X150.36 Y138.548 E4.50449
G1 X150.327 Y137.857 E4.55933
G1 X150.392 Y137.249 E4.60781
G1 X150.572 Y136.552 E4.66488
G1 X151.019 Y135.639 E4.74547
G1 X151.411 Y135.123 E4.79684
G1 X152.143 Y134.463 E4.87498
G1 X152.722 Y134.112 E4.92866
G1 X153.305 Y133.873 E4.97861
G1 X153.986 Y133.704 E5.03424
G1 X154.553 Y133.656 E5.07935
G1 X155.313 Y133.697 E5.13969
G1 X156.266 Y133.952 E5.2179
G1 X157.146 Y134.422 E5.29699
G1 X157.96 Y135.154 E5.38378
G1 X158.297 Y135.594 E5.42772
G1 X158.632 Y136.197 E5.48241
G1 X158.861 Y136.823 E5.53525
G1 X158.987 Y137.449 E5.58587
G1 X159.02 Y138.14 E5.64071
G1 X158.952 Y138.776 E5.69142
G1 X158.775 Y139.445 E5.74628
G1 X158.506 Y140.055 E5.79913
G1 X158.148 Y140.615 E5.85182
G1 X157.707 Y141.116 E5.90473
G1 X157.196 Y141.542 E5.95747
G1 X156.626 Y141.885 E6.01021
G1 X156.008 Y142.138 E6.06315
G1 X155.362 Y142.293 E6.11582
G1 X154.698 Y142.348 E6.16864
G1 X154.056 Y142.302 E6.21967
G1 X153.665 Y142.216 F9600
G1 E4.21967 F2400
G92 E0
G1 X154.847 Y132.552 F9600
G1 E2 F2400
;TYPE:Perimeter
;WIDTH:0.597272
G1 F1800
G1 X155.587 Y132.61 E2.04934
;WIDTH:0.611271
G1 X156.095 Y132.724 E2.08485
G1 X156.581 Y132.894 E2.11997
