; generated by PrusaSlicer 2.9.1 on 2026-01-09 at 22:35:18 UTC

; 

; external perimeters extrusion width = 0.70mm
; perimeters extrusion width = 0.70mm
; infill extrusion width = 0.70mm
; solid infill extrusion width = 0.70mm
; top infill extrusion width = 0.70mm
; first layer extrusion width = 0.70mm

M190 S40 ; set bed temperature and wait for it to be reached
M104 S230 ; set temperature
;TYPE:Custom
G28 ; home all axes
G1 Z5 F5000 ; lift nozzle
M109 S230 ; set temperature and wait for it to be reached
G21 ; set units to millimeters
G90 ; use absolute coordinates
M82 ; use absolute distances for extrusion
G92 E0
; Filament gcode
M107
;LAYER_CHANGE
;Z:0.25
;HEIGHT:0.25
G1 E-2 F2400
G92 E0
G1 Z.25 F9600
G1 X104.098 Y104.08
G1 E2 F2400
;TYPE:Skirt/Brim
;WIDTH:0.7
G1 F1800
G1 X105.748 Y102.65 E2.14668
G1 X107.514 Y101.506 E2.28804
G1 X109.421 Y100.613 E2.4295
G1 X111.431 Y99.988 E2.57091
G1 X113.584 Y99.634 E2.71749
G1 X115.689 Y99.584 E2.85894
G1 X116.739 Y99.668 E2.9297
G1 X118.228 Y99.909 E3.03103
G1 X119.512 Y100.243 E3.12016
G1 X120.881 Y100.734 E3.21787
G1 X121.84 Y101.168 E3.28859
G1 X123.325 Y102.008 E3.40321
G1 X124.51 Y102.849 E3.50083
G1 X125.378 Y103.58 E3.57707
G1 X160.379 Y138.557 E6.90128
G1 X161.333 Y139.596 E6.99604
G1 X162.353 Y140.963 E7.11062
G1 X163.099 Y142.21 E7.20824
G1 X163.597 Y143.226 E7.28425
G1 X164.203 Y144.819 E7.39875
G1 X164.578 Y146.223 E7.49638
G1 X164.847 Y147.908 E7.61101
G1 X164.928 Y149.359 E7.70864
G1 X164.842 Y151.139 E7.82836
G1 X164.619 Y152.575 E7.92599
G1 X164.187 Y154.225 E8.04057
G1 X163.677 Y155.587 E8.13827
G1 X163.193 Y156.609 E8.21424
G1 X162.326 Y158.076 E8.32872
G1 X161.461 Y159.245 E8.42642
G1 X160.312 Y160.505 E8.54098
G1 X159.228 Y161.474 E8.63866
G1 X158.322 Y162.157 E8.71488
G1 X156.876 Y163.051 E8.82909
G1 X155.934 Y163.522 E8.89984
G1 X153.964 Y164.267 E9.04133
G1 X151.837 Y164.75 E9.18786
G1 X149.338 Y164.927 E9.35616
G1 X147.239 Y164.761 E9.49761
G1 X145.104 Y164.288 E9.64452
G1 X143.503 Y163.715 E9.75876
G1 X142.547 Y163.272 E9.82954
G1 X140.736 Y162.197 E9.97102
G1 X139.52 Y161.266 E10.0739
G1 X138.558 Y160.38 E10.16176
G1 X104.058 Y125.88 E13.43951
G1 X103.087 Y124.804 E13.53688
G1 X102.217 Y123.639 E13.63456
G1 X101.16 Y121.818 E13.77601
G1 X100.336 Y119.798 E13.92257
G1 X99.819 Y117.757 E14.06402
G1 X99.584 Y115.625 E14.20812
G1 X99.645 Y113.483 E14.35208
G1 X99.994 Y111.407 E14.4935
G1 X100.623 Y109.397 E14.63499
G1 X101.559 Y107.421 E14.78188
G1 X102.713 Y105.666 E14.92299
G1 X104.059 Y104.125 E15.06045
G1 X104.544 Y104.55 F9600
G1 F1800
G1 X104.561 Y104.532 E15.06211
G1 X106.142 Y103.162 E15.20265
G1 X107.835 Y102.068 E15.33807
G1 X109.662 Y101.213 E15.47358
G1 X111.589 Y100.615 E15.60913
G1 X113.652 Y100.277 E15.74957
G1 X115.668 Y100.23 E15.88504
G1 X118.093 Y100.541 E16.04929
G1 X119.315 Y100.859 E16.13412
G1 X121.561 Y101.751 E16.29647
G1 X122.969 Y102.547 E16.40513
G1 X124.119 Y103.363 E16.49986
G1 X124.95 Y104.064 E16.5729
G1 X159.918 Y139.01 E19.89407
G1 X160.842 Y140.017 E19.98588
G1 X161.81 Y141.313 E20.09455
G1 X162.533 Y142.523 E20.18924
G1 X163.01 Y143.496 E20.26204
G1 X163.584 Y145.007 E20.37063
G1 X163.948 Y146.369 E20.46534
G1 X164.203 Y147.966 E20.57399
G1 X164.282 Y149.373 E20.66866
G1 X164.2 Y151.062 E20.78226
G1 X163.985 Y152.455 E20.87695
G1 X163.575 Y154.019 E20.98557
G1 X163.08 Y155.339 E21.08028
G1 X162.616 Y156.319 E21.15312
G1 X161.793 Y157.709 E21.26164
G1 X160.955 Y158.843 E21.35637
G1 X159.865 Y160.038 E21.46503
G1 X158.814 Y160.977 E21.55971
G1 X157.946 Y161.632 E21.63276
G1 X156.574 Y162.479 E21.74108
G1 X155.672 Y162.931 E21.80886
G1 X153.785 Y163.646 E21.94442
G1 X151.747 Y164.11 E22.08484
G1 X149.336 Y164.28 E22.24721
G1 X147.325 Y164.12 E22.38274
G1 X145.28 Y163.667 E22.52345
G1 X143.762 Y163.122 E22.6318
G1 X142.846 Y162.699 E22.69958
G1 X141.111 Y161.67 E22.8351
G1 X139.932 Y160.768 E22.93483
G1 X139.015 Y159.923 E23.0186
G1 X104.515 Y125.423 E26.29635
G1 X103.591 Y124.4 E26.38896
G1 X102.748 Y123.27 E26.48367
G1 X101.736 Y121.525 E26.61919
G1 X100.948 Y119.589 E26.75961
G1 X100.454 Y117.633 E26.89514
G1 X100.229 Y115.589 E27.03329
G1 X100.289 Y113.538 E27.17114
G1 X100.625 Y111.549 E27.30665
G1 X101.229 Y109.624 E27.44219
G1 X102.126 Y107.731 E27.58292
G1 X103.233 Y106.05 E27.71814
G1 X104.505 Y104.595 E27.84797
G1 X104.991 Y105.02 F9600
G1 F1800
G1 X105.023 Y104.983 E27.85126
G1 X106.537 Y103.675 E27.98567
G1 X108.156 Y102.629 E28.11516
G1 X109.904 Y101.812 E28.24478
G1 X111.746 Y101.242 E28.37432
G1 X113.719 Y100.92 E28.50862
G1 X115.648 Y100.876 E28.63824
G1 X117.959 Y101.173 E28.79477
G1 X119.118 Y101.474 E28.87521
G1 X121.282 Y102.334 E29.03165
G1 X122.613 Y103.087 E29.13438
G1 X124.521 Y104.548 E29.29582
G1 X159.407 Y139.412 E32.6092
G1 X160.945 Y141.2 E32.76764
G1 X161.774 Y142.485 E32.87037
G1 X162.269 Y143.431 E32.9421
G1 X162.783 Y144.661 E33.03166
G1 X163.228 Y146.123 E33.13433
G1 X163.489 Y147.464 E33.22611
G1 X163.627 Y148.987 E33.32884
G1 X163.607 Y150.427 E33.42559
G1 X163.424 Y151.94 E33.52797
G1 X163.124 Y153.272 E33.6197
G1 X162.636 Y154.721 E33.72242
G1 X162.038 Y156.028 E33.81898
G1 X161.261 Y157.343 E33.92159
G1 X160.449 Y158.441 E34.01333
G1 X159.419 Y159.571 E34.11605
G1 X157.57 Y161.106 E34.27749
G1 X156.273 Y161.907 E34.3799
G1 X155.41 Y162.34 E34.44476
G1 X153.607 Y163.025 E34.57433
G1 X151.658 Y163.47 E34.70863
G1 X149.335 Y163.634 E34.86508
G1 X147.412 Y163.48 E34.99468
G1 X145.456 Y163.045 E35.12929
G1 X144.021 Y162.53 E35.23171
G1 X143.145 Y162.126 E35.29652
G1 X141.485 Y161.143 E35.42613
G1 X140.344 Y160.269 E35.52269
G1 X139.472 Y159.466 E35.60233
G1 X104.972 Y124.966 E38.88008
G1 X103.507 Y123.23 E39.03268
G1 X102.494 Y121.589 E39.16224
G1 X101.689 Y119.759 E39.29655
G1 X101.165 Y117.903 E39.42611
G1 X100.898 Y115.985 E39.5562
G1 X100.899 Y113.993 E39.69002
G1 X101.167 Y112.083 E39.81959
G1 X101.693 Y110.227 E39.94919
G1 X102.516 Y108.366 E40.08589
G1 X103.752 Y106.434 E40.23997
G1 X104.951 Y105.066 E40.36218
G1 X105.436 Y105.491 F9600
G1 F1800
G1 X105.486 Y105.435 E40.36722
G1 X106.931 Y104.187 E40.49549
G1 X108.477 Y103.19 E40.61907
G1 X110.145 Y102.412 E40.74272
G1 X111.904 Y101.869 E40.86639
G1 X113.787 Y101.562 E40.99456
G1 X115.627 Y101.522 E41.1182
G1 X117.824 Y101.806 E41.26702
G1 X118.921 Y102.09 E41.34315
G1 X120.165 Y102.536 E41.43193
G1 X122.257 Y103.626 E41.5904
G1 X124.092 Y105.032 E41.7457
G1 X158.95 Y139.869 E45.05646
G1 X160.427 Y141.587 E45.20867
G1 X161.208 Y142.797 E45.30542
G1 X161.681 Y143.701 E45.37396
G1 X162.179 Y144.89 E45.46056
G1 X162.598 Y146.269 E45.55738
G1 X162.851 Y147.566 E45.64616
G1 X162.981 Y149.001 E45.74296
G1 X162.961 Y150.393 E45.83648
G1 X162.789 Y151.819 E45.93297
G1 X162.498 Y153.109 E46.02181
G1 X162.039 Y154.474 E46.11856
G1 X161.461 Y155.738 E46.21193
G1 X160.728 Y156.977 E46.30864
G1 X159.942 Y158.039 E46.3974
G1 X158.972 Y159.104 E46.49418
G1 X157.193 Y160.58 E46.64947
G1 X155.148 Y161.749 E46.80772
G1 X153.428 Y162.404 E46.93136
G1 X151.568 Y162.83 E47.05955
G1 X149.333 Y162.988 E47.21007
G1 X147.498 Y162.839 E47.33375
G1 X145.632 Y162.423 E47.46219
G1 X143.443 Y161.553 E47.62044
G1 X141.859 Y160.616 E47.74408
G1 X140.755 Y159.771 E47.83748
G1 X139.929 Y159.009 E47.91298
G1 X105.429 Y124.509 E51.19073
G1 X104.038 Y122.862 E51.33556
G1 X103.07 Y121.296 E51.45924
G1 X102.3 Y119.55 E51.58744
G1 X101.799 Y117.779 E51.71109
G1 X101.544 Y115.95 E51.83515
G1 X101.543 Y114.048 E51.96293
G1 X101.798 Y112.225 E52.08659
G1 X102.298 Y110.454 E52.21022
G1 X103.083 Y108.676 E52.34079
G1 X104.272 Y106.819 E52.48892
G1 X105.397 Y105.536 E52.60355
G1 X105.882 Y105.962 F9600
G1 F1800
G1 X105.948 Y105.886 E52.61031
G1 X107.325 Y104.699 E52.73244
G1 X108.797 Y103.751 E52.85006
G1 X110.386 Y103.011 E52.96782
G1 X112.061 Y102.495 E53.08557
G1 X113.854 Y102.205 E53.20759
G1 X115.607 Y102.168 E53.32538
G1 X117.69 Y102.438 E53.46649
G1 X118.724 Y102.706 E53.53825
G1 X119.926 Y103.136 E53.62401
G1 X121.901 Y104.166 E53.77365
G1 X123.664 Y105.516 E53.92282
G1 X158.493 Y140.326 E57.23092
G1 X159.909 Y141.973 E57.37684
G1 X160.642 Y143.11 E57.46772
G1 X161.094 Y143.972 E57.53311
G1 X161.575 Y145.12 E57.61673
G1 X161.968 Y146.414 E57.70758
G1 X162.213 Y147.668 E57.79342
G1 X162.335 Y149.015 E57.88428
G1 X162.316 Y150.36 E57.97465
G1 X162.154 Y151.699 E58.06526
G1 X161.873 Y152.945 E58.15107
G1 X161.442 Y154.227 E58.24193
G1 X160.884 Y155.448 E58.33212
G1 X160.196 Y156.61 E58.42284
G1 X159.436 Y157.638 E58.50873
G1 X158.525 Y158.637 E58.59956
G1 X156.817 Y160.055 E58.74869
G1 X154.887 Y161.158 E58.89803
G1 X153.249 Y161.783 E59.01581
G1 X151.479 Y162.189 E59.13781
G1 X149.332 Y162.341 E59.28241
G1 X147.115 Y162.119 E59.43209
G1 X145.359 Y161.657 E59.55407
G1 X143.742 Y160.98 E59.67184
G1 X141.906 Y159.857 E59.81643
G1 X140.387 Y158.552 E59.95096
G1 X105.887 Y124.052 E63.22871
G1 X104.569 Y122.493 E63.36586
G1 X103.646 Y121.003 E63.48361
G1 X102.912 Y119.341 E63.60567
G1 X102.434 Y117.655 E63.7234
G1 X102.189 Y115.914 E63.84151
G1 X102.187 Y114.103 E63.96317
G1 X102.428 Y112.367 E64.08091
G1 X102.904 Y110.68 E64.19867
G1 X103.65 Y108.986 E64.32302
G1 X104.792 Y107.203 E64.46527
G1 X105.842 Y106.007 E64.57219
G1 X106.327 Y106.433 F9600
G1 F1800
G1 X106.411 Y106.338 E64.58071
G1 X107.719 Y105.211 E64.6967
G1 X109.118 Y104.312 E64.80842
G1 X110.628 Y103.611 E64.92026
G1 X112.444 Y103.07 E65.04756
G1 X113.922 Y102.848 E65.14797
G1 X115.586 Y102.815 E65.25978
G1 X117.556 Y103.07 E65.39323
G1 X118.527 Y103.321 E65.46061
G1 X119.688 Y103.737 E65.54346
G1 X121.545 Y104.706 E65.68418
G1 X123.235 Y105.999 E65.82713
G1 X158.036 Y140.783 E69.13267
G1 X159.391 Y142.36 E69.27235
G1 X160.507 Y144.242 E69.41934
G1 X160.971 Y145.35 E69.50004
G1 X161.339 Y146.559 E69.58494
G1 X161.575 Y147.77 E69.66783
G1 X161.688 Y149.029 E69.75275
G1 X161.67 Y150.326 E69.83989
G1 X161.519 Y151.578 E69.92461
G1 X161.248 Y152.781 E70.00745
G1 X160.845 Y153.979 E70.09236
G1 X159.896 Y155.88 E70.2351
G1 X159.179 Y156.922 E70.32007
G1 X158.38 Y157.861 E70.4029
G1 X156.741 Y159.314 E70.55005
G1 X155.014 Y160.379 E70.68636
G1 X153.07 Y161.162 E70.82715
G1 X151.389 Y161.549 E70.94303
G1 X149.33 Y161.695 E71.0817
G1 X147.245 Y161.486 E71.22247
G1 X145.577 Y161.048 E71.33833
G1 X144.041 Y160.407 E71.45014
G1 X142.28 Y159.33 E71.58882
G1 X140.844 Y158.095 E71.71606
G1 X106.344 Y123.595 E74.99381
G1 X105.1 Y122.124 E75.12323
G1 X104.222 Y120.71 E75.23505
G1 X103.524 Y119.132 E75.35097
G1 X103.068 Y117.531 E75.4628
G1 X102.834 Y115.878 E75.57496
G1 X102.831 Y114.158 E75.69051
G1 X103.059 Y112.51 E75.80228
G1 X103.509 Y110.907 E75.91413
G1 X104.217 Y109.296 E76.03235
G1 X105.311 Y107.587 E76.16867
G1 X106.287 Y106.478 E76.26792
G1 E74.26792 F2400
G92 E0
G92 E0
G1 X149.863 Y144.283 F9600
G1 E2 F2400
;TYPE:External perimeter
;WIDTH:0.471516
G1 F1800
G1 X149.879 Y144.283 E2.00069
;WIDTH:0.459015
G1 X150.635 Y144.394 E2.03288
G1 X151.375 Y144.617 E2.06544
;WIDTH:0.460385
G1 X152.074 Y144.946 E2.0981
G1 X152.716 Y145.375 E2.13074
;WIDTH:0.462262
G1 X153.289 Y145.893 E2.16355
;WIDTH:0.462867
G1 X153.779 Y146.49 E2.1964
;WIDTH:0.463492
G1 X154.176 Y147.153 E2.22932
;WIDTH:0.466904
G1 X154.452 Y147.817 E2.26021
;WIDTH:0.46772
G1 X154.638 Y148.534 E2.29209
;WIDTH:0.469271
G1 X154.719 Y149.24 E2.32279
;WIDTH:0.470352
G1 X154.705 Y149.949 E2.3535
;WIDTH:0.470699
G1 X154.588 Y150.68 E2.38559
;WIDTH:0.471231
G1 X154.391 Y151.329 E2.41503
G1 X154.068 Y152.029 E2.44849
;WIDTH:0.471354
G1 X153.702 Y152.599 E2.4779
G1 X153.221 Y153.163 E2.51008
;WIDTH:0.471175
G1 X152.691 Y153.634 E2.54085
;WIDTH:0.470532
G1 X152.266 Y153.937 E2.56347
;WIDTH:0.460153
G1 X151.582 Y154.296 E2.59611
;WIDTH:0.462248
G1 X150.853 Y154.551 E2.62891
;WIDTH:0.463111
G1 X150.094 Y154.696 E2.6618
;WIDTH:0.464135
G1 X149.322 Y154.727 E2.69476
;WIDTH:0.466884
G1 X148.616 Y154.652 E2.72525
G1 X147.867 Y154.466 E2.7584
;WIDTH:0.469376
G1 X147.096 Y154.143 E2.79452
;WIDTH:0.470004
G1 X146.597 Y153.842 E2.81974
;WIDTH:0.470227
G1 X146.013 Y153.387 E2.85179
;WIDTH:0.471358
G1 X145.539 Y152.901 E2.88126
;WIDTH:0.471503
G1 X145.098 Y152.307 E2.91339
G1 X144.758 Y151.685 E2.94418
G1 X144.505 Y151.022 E2.975
;WIDTH:0.47107
G1 X144.376 Y150.539 E2.99669
;WIDTH:0.460147
G1 X144.279 Y149.803 E3.02806
;WIDTH:0.461451
G1 X144.295 Y149 E3.0621
G1 X144.417 Y148.268 E3.09355
;WIDTH:0.464156
G1 X144.664 Y147.505 E3.12777
;WIDTH:0.464557
G1 X144.994 Y146.84 E3.15948
;WIDTH:0.466488
G1 X145.41 Y146.239 E3.19084
;WIDTH:0.467483
G1 X145.912 Y145.695 E3.22268
;WIDTH:0.469036
G1 X146.462 Y145.246 E3.25333
;WIDTH:0.469544
G1 X147.093 Y144.861 E3.28528
;WIDTH:0.470655
G1 X147.745 Y144.579 E3.31607
;WIDTH:0.47102
G1 X148.398 Y144.394 E3.34551
;WIDTH:0.471516
G1 X149.169 Y144.286 E3.37932
G1 X149.803 Y144.284 E3.40686
G1 X150.2 Y144.332 F9600
G1 X149.876 Y143.883
;WIDTH:0.471447
G1 F1800
G1 X150.297 Y143.915 E3.42519
G1 X151.048 Y144.075 E3.45853
;WIDTH:0.471005
G1 X151.8 Y144.349 E3.49325
;WIDTH:0.470531
G1 X152.452 Y144.692 E3.52517
;WIDTH:0.468805
G1 X153.126 Y145.178 E3.56103
;WIDTH:0.468645
G1 X153.66 Y145.687 E3.59285
;WIDTH:0.466561
G1 X154.158 Y146.314 E3.62721
;WIDTH:0.465502
G1 X154.569 Y147.023 E3.66229
;WIDTH:0.464149
G1 X154.874 Y147.796 E3.69775
;WIDTH:0.461742
G1 X155.066 Y148.604 E3.73298
;WIDTH:0.469271
G1 X155.134 Y149.224 E3.75992
G1 X155.135 Y149.431 E3.76886
;WIDTH:0.460133
G1 X155.082 Y150.26 E3.80396
;WIDTH:0.470699
G1 X154.992 Y150.782 E3.82692
;WIDTH:0.471231
G1 X154.776 Y151.488 E3.85896
G1 X154.427 Y152.242 E3.89502
;WIDTH:0.471354
G1 X154.027 Y152.861 E3.92702
G1 X153.506 Y153.468 E3.96175
;WIDTH:0.471175
G1 X152.93 Y153.976 E3.99508
;WIDTH:0.470532
G1 X152.289 Y154.401 E4.0284
;WIDTH:0.469419
G1 X151.568 Y154.747 E4.06296
;WIDTH:0.468768
G1 X150.865 Y154.972 E4.09481
;WIDTH:0.465954
G1 X150.077 Y155.111 E4.1291
;WIDTH:0.465231
G1 X149.248 Y155.134 E4.16458
;WIDTH:0.464211
G1 X148.423 Y155.031 E4.20006
;WIDTH:0.461642
G1 X147.622 Y154.814 E4.23525
G1 X146.863 Y154.478 E4.27045
;WIDTH:0.459602
G1 X146.159 Y154.035 E4.30555
;WIDTH:0.460017
G1 X145.571 Y153.538 E4.33807
;WIDTH:0.471358
G1 X145.214 Y153.164 E4.36052
;WIDTH:0.471523
G1 X144.739 Y152.52 E4.39528
G1 X144.372 Y151.845 E4.42865
G1 X144.1 Y151.126 E4.46204
;WIDTH:0.47107
G1 X143.924 Y150.346 E4.49673
;WIDTH:0.470752
G1 X143.861 Y149.611 E4.52871
;WIDTH:0.469228
G1 X143.901 Y148.812 E4.56327
;WIDTH:0.468043
G1 X144.054 Y148.027 E4.59772
;WIDTH:0.46788
G1 X144.307 Y147.292 E4.63119
;WIDTH:0.465392
G1 X144.673 Y146.58 E4.66545
;WIDTH:0.463921
G1 X145.156 Y145.904 E4.70088
;WIDTH:0.461975
G1 X145.732 Y145.305 E4.73615
;WIDTH:0.461465
G1 X146.39 Y144.799 E4.77133
;WIDTH:0.459969
G1 X147.115 Y144.393 E4.80642
;WIDTH:0.459728
G1 X147.89 Y144.099 E4.8414
;WIDTH:0.459428
G1 X148.702 Y143.924 E4.87643
;WIDTH:0.463712
G1 X149.529 Y143.857 E4.91179
;WIDTH:0.471447
G1 X149.817 Y143.879 E4.92433
G1 X150.215 Y143.909 F9600
G1 E2.92433 F2400
G92 E0
G92 E0
G1 X138.363 Y132.783 F9600
G1 E2 F2400
;WIDTH:0.471516
G1 F1800
G1 X138.379 Y132.783 E2.00069
;WIDTH:0.459015
G1 X139.135 Y132.894 E2.03288
G1 X139.875 Y133.117 E2.06544
;WIDTH:0.460385
G1 X140.574 Y133.446 E2.0981
G1 X141.216 Y133.875 E2.13074
;WIDTH:0.462262
G1 X141.789 Y134.393 E2.16355
;WIDTH:0.462867
G1 X142.279 Y134.99 E2.1964
;WIDTH:0.463492
G1 X142.676 Y135.653 E2.22932
;WIDTH:0.466904
G1 X142.952 Y136.317 E2.26021
;WIDTH:0.46772
G1 X143.138 Y137.034 E2.29209
;WIDTH:0.469271
G1 X143.219 Y137.74 E2.32279
;WIDTH:0.470352
G1 X143.205 Y138.449 E2.3535
;WIDTH:0.470699
G1 X143.088 Y139.18 E2.38559
;WIDTH:0.471231
G1 X142.891 Y139.829 E2.41503
G1 X142.568 Y140.529 E2.44849
;WIDTH:0.471354
G1 X142.202 Y141.099 E2.4779
G1 X141.721 Y141.663 E2.51008
;WIDTH:0.471175
G1 X141.191 Y142.134 E2.54085
;WIDTH:0.470532
G1 X140.766 Y142.437 E2.56347
;WIDTH:0.460153
G1 X140.082 Y142.796 E2.59611
;WIDTH:0.462248
G1 X139.353 Y143.051 E2.62891
;WIDTH:0.463111
G1 X138.594 Y143.196 E2.6618
;WIDTH:0.464135
G1 X137.822 Y143.227 E2.69476
;WIDTH:0.466884
G1 X137.116 Y143.152 E2.72525
G1 X136.367 Y142.966 E2.7584
;WIDTH:0.469376
G1 X135.596 Y142.643 E2.79452
