; generated by PrusaSlicer 2.9.1 on 2026-02-17 at 00:51:21 UTC

; 

; external perimeters extrusion width = 0.70mm
; perimeters extrusion width = 0.70mm
; infill extrusion width = 0.70mm
; solid infill extrusion width = 0.70mm
; top infill extrusion width = 0.70mm
; first layer extrusion width = 0.70mm

M190 S80 ; set bed temperature and wait for it to be reached
M104 S245 ; set temperature
;TYPE:Custom
G28 ; home all axes
G1 Z5 F5000 ; lift nozzle
M109 S245 ; set temperature and wait for it to be reached
G21 ; set units to millimeters
G90 ; use absolute coordinates
M82 ; use absolute distances for extrusion
G92 E0
; Filament gcode
M107
;LAYER_CHANGE
;Z:0.25
;HEIGHT:0.25
G1 E-2 F2400
G92 E0
G1 Z.25 F9600
G1 X123.434 Y109.031
G1 E2 F2400
;TYPE:Skirt/Brim
;WIDTH:0.7
G1 F1800
G1 X124.662 Y107.882 E2.11298
G1 X125.933 Y107.247 E2.20843
G1 X126.984 Y107.026 E2.28058
G1 X149.072 Y107.019 E3.76446
G1 X150.073 Y107.215 E3.83298
G1 X151.018 Y107.617 E3.90197
G1 X151.695 Y108.073 E3.95681
G1 X152.687 Y109.041 E4.04992
G1 X153.38 Y110.078 E4.13371
G1 X153.72 Y110.974 E4.19809
G1 X153.876 Y111.892 E4.26065
G1 X153.876 Y125.099 E5.1479
G1 X153.61 Y126.344 E5.23343
G1 X153.753 Y126.723 E5.26064
G1 X153.937 Y127.732 E5.32954
G1 X153.937 Y140.94 E6.21686
G1 X153.722 Y142.059 E6.29341
G1 X153.265 Y143.063 E6.36752
G1 X153.411 Y143.9 E6.4246
G1 X153.411 Y157.104 E7.31165
G1 X153.255 Y158.022 E7.37421
G1 X152.915 Y158.918 E7.43859
G1 X152.213 Y159.965 E7.52327
G1 X150.984 Y161.114 E7.6363
G1 X149.715 Y161.749 E7.73163
G1 X148.535 Y161.983 E7.81245
G1 X126.65 Y161.983 E9.28269
G1 X125.732 Y161.827 E9.34525
G1 X124.836 Y161.488 E9.40961
G1 X123.789 Y160.785 E9.49433
G1 X122.64 Y159.557 E9.60731
G1 X122.006 Y158.287 E9.70267
G1 X121.771 Y157.108 E9.78343
G1 X121.771 Y143.901 E10.67068
G1 X121.986 Y142.782 E10.74723
G1 X122.443 Y141.778 E10.82134
G1 X122.297 Y140.941 E10.87842
G1 X122.297 Y127.732 E11.7658
G1 X122.563 Y126.488 E11.85126
G1 X122.42 Y126.109 E11.87847
G1 X122.236 Y125.099 E11.94744
G1 X122.236 Y111.892 E12.83469
G1 X122.392 Y110.974 E12.89725
G1 X122.731 Y110.078 E12.96161
G1 X123.4 Y109.081 E13.04227
G1 X123.904 Y109.476 F9600
G1 F1800
G1 X125.022 Y108.42 E13.14558
G1 X125.575 Y108.095 E13.18867
G1 X126.15 Y107.856 E13.2305
G1 X127.081 Y107.665 E13.29435
G1 X149.041 Y107.665 E14.76963
G1 X149.855 Y107.825 E14.82536
G1 X150.687 Y108.173 E14.88595
G1 X151.266 Y108.558 E14.93266
G1 X152.212 Y109.48 E15.0214
G1 X152.791 Y110.345 E15.09133
G1 X153.089 Y111.118 E15.14699
G1 X153.229 Y111.921 E15.20175
G1 X153.229 Y125.068 E16.08497
G1 X153.063 Y125.957 E16.14573
G1 X152.911 Y126.342 E16.17354
G1 X153.125 Y126.877 E16.21225
G1 X153.291 Y127.763 E16.27281
G1 X153.291 Y140.91 E17.15603
G1 X153.112 Y141.843 E17.21985
G1 X152.584 Y142.932 E17.30115
G1 X152.764 Y143.93 E17.36928
G1 X152.764 Y157.076 E18.25243
G1 X152.624 Y157.878 E18.30712
G1 X152.326 Y158.651 E18.36278
G1 X151.742 Y159.52 E18.43312
G1 X150.624 Y160.576 E18.53643
G1 X150.072 Y160.901 E18.57946
G1 X149.497 Y161.139 E18.62127
G1 X148.504 Y161.337 E18.68929
G1 X126.679 Y161.337 E20.1555
G1 X125.876 Y161.197 E20.21026
G1 X125.103 Y160.899 E20.26592
G1 X124.234 Y160.315 E20.33626
G1 X123.178 Y159.197 E20.43957
G1 X122.853 Y158.644 E20.48266
G1 X122.615 Y158.07 E20.5244
G1 X122.417 Y157.076 E20.59249
G1 X122.417 Y143.931 E21.47557
G1 X122.596 Y142.998 E21.53939
G1 X123.124 Y141.909 E21.62069
G1 X122.944 Y140.911 E21.68882
G1 X122.944 Y127.763 E22.57211
G1 X123.11 Y126.874 E22.63287
G1 X123.262 Y126.489 E22.66068
G1 X123.048 Y125.955 E22.69933
G1 X122.882 Y125.068 E22.75995
G1 X122.882 Y111.921 E23.64317
G1 X123.023 Y111.118 E23.69794
G1 X123.321 Y110.345 E23.7536
G1 X123.871 Y109.526 E23.81988
G1 X124.376 Y109.919 F9600
G1 F1800
G1 X125.386 Y108.956 E23.91363
G1 X126.367 Y108.466 E23.9873
G1 X127.175 Y108.306 E24.04264
G1 X149.007 Y108.312 E25.50932
G1 X149.694 Y108.451 E25.55641
G1 X150.36 Y108.731 E25.60495
G1 X150.839 Y109.043 E25.64335
G1 X151.736 Y109.919 E25.72758
G1 X152.203 Y110.615 E25.78389
G1 X152.459 Y111.266 E25.83088
G1 X152.583 Y111.95 E25.87758
G1 X152.583 Y125.036 E26.7567
G1 X152.436 Y125.797 E26.80877
G1 X152.208 Y126.34 E26.84833
G1 X152.497 Y127.035 E26.8989
G1 X152.644 Y127.795 E26.9509
G1 X152.644 Y140.88 E27.82995
G1 X152.502 Y141.627 E27.88103
G1 X152.238 Y142.268 E27.9276
G1 X151.846 Y142.887 E27.97682
G1 X152.118 Y143.96 E28.05118
G1 X152.118 Y157.046 E28.9303
G1 X151.994 Y157.73 E28.977
G1 X151.738 Y158.381 E29.02399
G1 X151.27 Y159.078 E29.08039
G1 X150.261 Y160.04 E29.17405
G1 X149.279 Y160.53 E29.24778
G1 X148.472 Y160.691 E29.30306
G1 X126.709 Y160.691 E30.7651
G1 X126.025 Y160.567 E30.8118
G1 X125.373 Y160.31 E30.85888
G1 X124.677 Y159.843 E30.91519
G1 X123.714 Y158.834 E31.00889
G1 X123.224 Y157.852 E31.08262
G1 X123.064 Y157.045 E31.13789
G1 X123.064 Y143.961 E32.01688
G1 X123.206 Y143.214 E32.06796
G1 X123.47 Y142.573 E32.11453
G1 X123.862 Y141.954 E32.16375
G1 X123.59 Y140.881 E32.23811
G1 X123.59 Y127.795 E33.11723
G1 X123.737 Y127.034 E33.1693
G1 X123.965 Y126.492 E33.2088
G1 X123.676 Y125.797 E33.25937
G1 X123.529 Y125.036 E33.31144
G1 X123.529 Y111.95 E34.19056
G1 X123.652 Y111.266 E34.23725
G1 X123.909 Y110.615 E34.28427
G1 X124.343 Y109.968 E34.33661
G1 X124.85 Y110.359 F9600
G1 F1800
G1 X125.752 Y109.489 E34.4208
G1 X126.115 Y109.27 E34.44928
G1 X126.585 Y109.075 E34.48346
G1 X127.207 Y108.952 E34.52606
G1 X148.975 Y108.958 E35.98844
G1 X149.477 Y109.061 E36.02287
G1 X150.412 Y109.53 E36.09314
G1 X151.261 Y110.358 E36.17281
G1 X151.617 Y110.889 E36.21576
G1 X151.831 Y111.42 E36.25422
G1 X151.937 Y111.982 E36.29264
G1 X151.937 Y125.003 E37.16739
G1 X151.81 Y125.632 E37.2105
G1 X151.475 Y126.397 E37.2666
G1 X151.871 Y127.198 E37.32663
G1 X151.998 Y127.828 E37.3698
G1 X151.998 Y140.85 E38.24462
G1 X151.892 Y141.411 E38.28297
G1 X151.652 Y141.993 E38.32526
G1 X151.073 Y142.723 E38.38785
G1 X151.363 Y143.423 E38.43875
G1 X151.472 Y143.991 E38.4776
G1 X151.472 Y157.014 E39.35249
G1 X151.366 Y157.576 E39.39091
G1 X151.152 Y158.108 E39.42943
G1 X150.796 Y158.637 E39.47227
G1 X149.894 Y159.507 E39.55646
G1 X149.531 Y159.726 E39.58494
G1 X149.061 Y159.921 E39.61912
G1 X148.44 Y160.044 E39.66165
G1 X126.74 Y160.044 E41.11946
G1 X126.178 Y159.938 E41.15788
G1 X125.647 Y159.724 E41.19634
G1 X125.117 Y159.369 E41.23919
G1 X124.248 Y158.467 E41.32333
G1 X124.028 Y158.104 E41.35185
G1 X123.834 Y157.634 E41.38601
G1 X123.71 Y157.013 E41.42855
G1 X123.71 Y143.991 E42.30337
G1 X123.816 Y143.429 E42.34179
G1 X124.056 Y142.848 E42.38402
G1 X124.635 Y142.118 E42.44661
G1 X124.345 Y141.418 E42.49751
G1 X124.236 Y140.85 E42.53636
G1 X124.236 Y127.828 E43.41118
G1 X124.363 Y127.199 E43.45429
G1 X124.698 Y126.435 E43.51033
G1 X124.302 Y125.634 E43.57036
G1 X124.175 Y125.003 E43.6136
G1 X124.175 Y111.982 E44.48835
G1 X124.281 Y111.42 E44.52677
G1 X124.495 Y110.889 E44.56523
G1 X124.817 Y110.409 E44.60406
G1 X125.326 Y110.797 F9600
G1 F1800
G1 X126.123 Y110.02 E44.67884
G1 X126.803 Y109.685 E44.72977
G1 X127.238 Y109.598 E44.75957
G1 X148.938 Y109.604 E46.21738
G1 X149.309 Y109.685 E46.24289
G1 X149.988 Y110.02 E46.29376
G1 X150.785 Y110.797 E46.36854
G1 X151.032 Y111.167 E46.39843
G1 X151.29 Y112.015 E46.45798
G1 X151.29 Y124.971 E47.32837
G1 X151 Y125.881 E47.39253
G1 X150.633 Y126.414 E47.436
G1 X151.061 Y126.949 E47.48203
G1 X151.352 Y127.86 E47.54628
G1 X151.352 Y140.816 E48.41667
G1 X151.07 Y141.71 E48.47965
G1 X150.226 Y142.654 E48.56472
G1 X150.535 Y143.113 E48.60189
G1 X150.825 Y144.025 E48.66618
G1 X150.825 Y156.981 E49.53657
G1 X150.567 Y157.83 E49.59618
G1 X150.32 Y158.199 E49.62601
G1 X149.523 Y158.977 E49.70083
G1 X148.843 Y159.311 E49.75173
G1 X148.408 Y159.398 E49.78153
G1 X126.773 Y159.398 E51.23497
G1 X125.925 Y159.14 E51.29452
G1 X125.555 Y158.893 E51.32441
G1 X124.778 Y158.096 E51.39919
G1 X124.443 Y157.416 E51.45012
G1 X124.356 Y156.981 E51.47992
G1 X124.356 Y144.025 E52.35031
G1 X124.638 Y143.131 E52.41329
G1 X125.482 Y142.187 E52.49836
G1 X125.173 Y141.728 E52.53553
G1 X124.883 Y140.816 E52.59982
G1 X124.883 Y127.86 E53.47021
G1 X125.173 Y126.95 E53.53437
G1 X125.54 Y126.418 E53.57779
G1 X125.112 Y125.882 E53.62387
G1 X124.821 Y124.971 E53.68812
G1 X124.821 Y112.015 E54.55851
G1 X125.079 Y111.167 E54.61806
G1 X125.293 Y110.847 E54.64392
G1 X125.805 Y111.233 F9600
G1 F1800
G1 X126.501 Y110.545 E54.70967
G1 X127.27 Y110.245 E54.76512
G1 X148.901 Y110.251 E56.2183
G1 X149.611 Y110.545 E56.26993
G1 X150.447 Y111.443 E56.35235
G1 X150.644 Y112.047 E56.39503
G1 X150.644 Y124.94 E57.26118
G1 X150.42 Y125.594 E57.30762
G1 X149.676 Y126.385 E57.38057
G1 X150.482 Y127.237 E57.45936
G1 X150.705 Y127.892 E57.50584
G1 X150.705 Y140.784 E58.37193
G1 X150.405 Y141.554 E58.42745
G1 X149.714 Y142.252 E58.49343
G1 X149.206 Y142.607 E58.53506
G1 X149.955 Y143.402 E58.60844
G1 X150.179 Y144.056 E58.65488
G1 X150.179 Y156.949 E59.52103
G1 X149.842 Y157.763 E59.58022
G1 X148.984 Y158.554 E59.65862
G1 X148.377 Y158.752 E59.70151
G1 X126.805 Y158.752 E61.15072
G1 X125.991 Y158.415 E61.20991
G1 X125.201 Y157.557 E61.28826
G1 X125.003 Y156.949 E61.33122
G1 X125.003 Y144.056 E62.19737
G1 X125.303 Y143.287 E62.25282
G1 X125.994 Y142.589 E62.3188
G1 X126.502 Y142.234 E62.36043
G1 X125.753 Y141.439 E62.43381
G1 X125.529 Y140.785 E62.48025
G1 X125.529 Y127.892 E63.3464
G1 X125.753 Y127.237 E63.39291
G1 X126.497 Y126.446 E63.46586
G1 X125.691 Y125.594 E63.54465
G1 X125.468 Y124.94 E63.59107
G1 X125.468 Y112.047 E64.45722
G1 X125.782 Y111.289 E64.51234
G1 E62.51234 F2400
G92 E0
G1 X126.837 Y142.9 F9600
G1 E2 F2400
G1 F1800
G1 X148.407 Y142.913 E3.44908
G1 X148.757 Y143.071 E3.47488
G1 X149.362 Y143.676 E3.53236
G1 X149.533 Y144.088 E3.56233
G1 X149.533 Y156.917 E4.42419
G1 X149.362 Y157.329 E4.45416
G1 X148.704 Y157.97 E4.51587
G1 X148.345 Y158.105 E4.54164
G1 X126.837 Y158.105 E5.98655
G1 X126.425 Y157.935 E6.01649
G1 X125.784 Y157.276 E6.07825
G1 X125.649 Y156.918 E6.10395
G1 X125.649 Y144.088 E6.96587
G1 X125.82 Y143.676 E6.99584
G1 X126.478 Y143.036 E7.05751
G1 X126.781 Y142.922 E7.07926
G1 X126.814 Y143.596 F9600
G1 F1800
G1 X148.249 Y143.547 E8.51927
G1 X148.886 Y144.184 E8.57979
G1 X148.886 Y156.821 E9.42875
G1 X148.368 Y157.41 E9.48144
G1 X126.933 Y157.459 E10.92145
G1 X126.345 Y156.94 E10.97414
G1 X126.295 Y144.184 E11.8311
G1 X126.774 Y143.641 E11.87974
G1 X127.131 Y144.193 F9600
G1 F1800
G1 X148.051 Y144.193 E13.28515
G1 X148.24 Y144.382 E13.30311
G1 X148.24 Y156.623 E14.12546
G1 X148.051 Y156.813 E14.14346
G1 X127.131 Y156.813 E15.54887
G1 X126.942 Y156.623 E15.56687
G1 X126.942 Y144.382 E16.38922
G1 X127.089 Y144.236 E16.40314
G1 E14.40314 F2400
G92 E0
G1 X127.363 Y141.94 F9600
G1 E2 F2400
G1 F1800
G1 X126.951 Y141.77 E2.02994
G1 X126.346 Y141.164 E2.08747
G1 X126.175 Y140.753 E2.11738
G1 X126.175 Y127.923 E2.9793
G1 X126.346 Y127.512 E3.00921
G1 X126.951 Y126.906 E3.06674
G1 X127.628 Y126.683 E3.11462
G1 X127.618 Y126.143 E3.1509
G1 X127.234 Y126.081 E3.17703
G1 X126.89 Y125.925 E3.20241
G1 X126.285 Y125.32 E3.25989
G1 X126.114 Y124.908 E3.28986
G1 X126.114 Y112.079 E4.15172
G1 X126.285 Y111.667 E4.18169
G1 X126.89 Y111.061 E4.23922
G1 X127.302 Y110.891 E4.26916
G1 X148.872 Y110.903 E5.71824
G1 X149.222 Y111.061 E5.74404
G1 X149.827 Y111.667 E5.80157
G1 X149.998 Y112.079 E5.83154
G1 X149.998 Y124.908 E6.6934
G1 X149.827 Y125.32 E6.72337
G1 X149.222 Y125.925 E6.78085
G1 X148.545 Y126.148 E6.82873
G1 X148.555 Y126.689 E6.86508
G1 X148.939 Y126.75 E6.8912
G1 X149.283 Y126.906 E6.91658
G1 X149.888 Y127.512 E6.97411
G1 X150.059 Y127.923 E7.00402
G1 X150.059 Y140.753 E7.86594
G1 X149.888 Y141.164 E7.89585
G1 X149.283 Y141.77 E7.95338
G1 X148.871 Y141.94 E7.98332
G1 X127.423 Y141.94 E9.4242
G1 X127.459 Y141.294 F9600
G1 F1800
G1 X126.871 Y140.775 E9.47689
G1 X126.822 Y128.02 E10.33378
G1 X127.341 Y127.431 E10.38652
G1 X148.775 Y127.382 E11.82646
G1 X149.413 Y128.02 E11.88707
G1 X149.413 Y140.657 E12.73603
G1 X148.894 Y141.245 E12.78872
G1 X127.519 Y141.294 E14.2247
G1 X127.657 Y140.648 F9600
G1 F1800
G1 X127.468 Y140.458 E14.2427
G1 X127.468 Y128.218 E15.06499
G1 X127.657 Y128.028 E15.08299
G1 X148.577 Y128.028 E16.4884
G1 X148.766 Y128.218 E16.5064
G1 X148.766 Y140.458 E17.32869
G1 X148.577 Y140.648 E17.34669
G1 X127.717 Y140.648 E18.74807
G1 E16.74807 F2400
G92 E0
G1 X127.683 Y125.449 F9600
G1 E2 F2400
G1 F1800
G1 X127.398 Y125.449 E2.01915
G1 X126.81 Y124.931 E2.07179
G1 X126.76 Y112.175 E2.92875
G1 X127.279 Y111.586 E2.98149
G1 X148.714 Y111.537 E4.4215
G1 X149.351 Y112.175 E4.48207
G1 X149.351 Y124.812 E5.33103
G1 X148.832 Y125.4 E5.38372
G1 X127.743 Y125.449 E6.80049
G1 X127.743 Y124.803 F9600
G1 F1800
G1 X127.596 Y124.803 E6.81037
G1 X127.407 Y124.614 E6.82833
G1 X127.407 Y112.373 E7.65068
G1 X127.596 Y112.184 E7.66864
G1 X148.516 Y112.184 E9.07405
G1 X148.705 Y112.373 E9.09201
G1 X148.705 Y124.614 E9.91436
G1 X148.516 Y124.803 E9.93232
G1 X127.803 Y124.803 E11.32382
G1 E9.32382 F2400
G92 E0
G92 E0
G1 X145.082 Y152.934 F9600
G1 E2 F2400
;TYPE:Perimeter
;WIDTH:0.699999
G1 F1800
G1 X144.828 Y153.15 E2.0224
G1 X144.532 Y153.35 E2.0464
G1 X144.128 Y153.547 E2.0766
G1 X143.464 Y153.746 E2.12317
G1 X142.775 Y153.785 E2.16953
G1 X142.327 Y153.738 E2.19979
G1 X141.874 Y153.626 E2.23114
G1 X141.457 Y153.457 E2.26137
G1 X141.053 Y153.224 E2.2927
G1 X140.699 Y152.947 E2.3229
G1 X140.374 Y152.611 E2.3543
G1 X140.11 Y152.247 E2.38451
G1 X139.805 Y151.644 E2.42991
G1 X139.659 Y151.045 E2.47133
G1 X139.605 Y150.651 E2.49805
G1 X139.635 Y150.136 E2.53271
G1 X139.692 Y149.736 E2.55985
G1 X139.894 Y149.163 E2.60067
G1 X140.106 Y148.766 E2.63091
G1 X140.38 Y148.388 E2.66227
G1 X140.692 Y148.065 E2.69244
G1 X141.06 Y147.777 E2.72383
G1 X141.45 Y147.552 E2.75408
G1 X142.209 Y147.284 E2.80816
G1 X142.776 Y147.22 E2.84649
G1 X143.348 Y147.244 E2.88495
G1 X144.128 Y147.459 E2.9393
G1 X144.532 Y147.656 E2.9695
G1 X144.919 Y147.917 E3.00086
G1 X145.253 Y148.218 E3.03107
G1 X145.553 Y148.576 E3.06245
G1 X145.792 Y148.957 E3.09266
G1 X145.982 Y149.383 E3.124
G1 X145.991 Y149.536 E3.1343
;WIDTH:0.654804
G1 X146 Y149.688 E3.14381
;WIDTH:0.609608
G1 X146.009 Y149.84 E3.15261
;WIDTH:0.564412
G1 X146.018 Y149.992 E3.16069
;WIDTH:0.519217
G1 X146.027 Y150.145 E3.16811
;WIDTH:0.474021
G1 X146.036 Y150.297 E3.17476
;WIDTH:0.428825
G1 X146.036 Y150.709 E3.19083
;WIDTH:0.466012
G1 X145.982 Y151.224 E3.21302
;WIDTH:0.51281
G1 X145.982 Y151.304 E3.21684
;WIDTH:0.559607
G1 X145.982 Y151.383 E3.22099
;WIDTH:0.606405
G1 X145.982 Y151.463 E3.22559
;WIDTH:0.653202
G1 X145.982 Y151.543 E3.23058
;WIDTH:0.699999
G1 X145.982 Y151.622 E3.23589
G1 X145.792 Y152.049 E3.26729
G1 X145.553 Y152.43 E3.2975
G1 X145.253 Y152.788 E3.32888
G1 X145.128 Y152.895 E3.33993
G1 X144.65 Y152.453 F9600
G1 F1800
G1 X144.558 Y152.553 E3.34906
G1 X143.928 Y152.932 E3.39845
G1 X143.352 Y153.109 E3.43893
G1 X142.752 Y153.14 E3.47929
G1 X142.484 Y153.111 E3.4974
G1 X141.781 Y152.897 E3.54677
G1 X141.164 Y152.498 E3.59613
G1 X140.681 Y151.944 E3.64551
G1 X140.41 Y151.417 E3.68532
G1 X140.291 Y150.91 E3.72031
G1 X140.251 Y150.638 E3.73878
G1 X140.286 Y150.087 E3.77587
G1 X140.435 Y149.567 E3.81221
G1 X140.629 Y149.146 E3.84335
G1 X141.09 Y148.574 E3.8927
G1 X141.692 Y148.152 E3.94209
G1 X142.32 Y147.921 E3.98704
G1 X142.844 Y147.863 E4.02246
G1 X143.283 Y147.887 E4.052
G1 X143.928 Y148.074 E4.09712
G1 X144.466 Y148.391 E4.13907
G1 X144.758 Y148.633 E4.16455
G1 X145.201 Y149.22 E4.21395
G1 X145.466 Y149.906 E4.26335
G1 X145.54 Y150.503 E4.30376
G1 X145.466 Y151.1 E4.34417
G1 X145.391 Y151.359 E4.36228
G1 X145.058 Y152.015 E4.4117
G1 X144.691 Y152.409 E4.44787
G1 X144.226 Y151.983 F9600
;TYPE:External perimeter
G1 F1800
G1 X143.809 Y152.278 E4.48219
G1 X143.285 Y152.462 E4.5195
G1 X142.729 Y152.494 E4.55691
G1 X142.187 Y152.371 E4.59425
G1 X141.7 Y152.104 E4.63156
G1 X141.304 Y151.713 E4.66895
G1 X141.032 Y151.228 E4.70631
G1 X140.898 Y150.626 E4.74774
G1 X140.935 Y150.099 E4.78323
G1 X141.109 Y149.605 E4.81842
G1 X141.426 Y149.148 E4.85578
G1 X141.856 Y148.796 E4.89311
G1 X142.367 Y148.576 E4.93049
