; generated by PrusaSlicer 2.9.1 on 2026-02-14 at 19:12:13 UTC

; 

; external perimeters extrusion width = 0.70mm
; perimeters extrusion width = 0.70mm
; infill extrusion width = 0.70mm
; solid infill extrusion width = 0.70mm
; top infill extrusion width = 0.70mm
; first layer extrusion width = 0.70mm

; external perimeters extrusion width = 0.70mm
; perimeters extrusion width = 0.70mm
; infill extrusion width = 0.70mm
; solid infill extrusion width = 0.70mm
; top infill extrusion width = 0.70mm
; first layer extrusion width = 0.70mm

M190 S80 ; set bed temperature and wait for it to be reached
M104 S245 ; set temperature
;TYPE:Custom
G28 ; home all axes
G1 Z5 F5000 ; lift nozzle
M109 S245 ; set temperature and wait for it to be reached
G21 ; set units to millimeters
G90 ; use absolute coordinates
M82 ; use absolute distances for extrusion
G92 E0
; Filament gcode
M107
;LAYER_CHANGE
;Z:0.25
;HEIGHT:0.25
G1 E-2 F2400
G92 E0
G1 Z.25 F9600
G1 X65.778 Y66.753
G1 E2 F2400
;TYPE:Skirt/Brim
;WIDTH:0.7
G1 F1800
G1 X68.07 Y64.494 E2.21619
G1 X71.171 Y61.781 E2.49299
G1 X74.43 Y59.257 E2.76991
G1 X77.985 Y56.836 E3.05886
G1 X81.498 Y54.744 E3.33354
G1 X85.144 Y52.86 E3.60925
G1 X88.846 Y51.21 E3.88154
G1 X92.652 Y49.779 E4.1547
G1 X96.876 Y48.485 E4.45149
G1 X100.764 Y47.542 E4.72026
G1 X104.724 Y46.826 E4.99061
G1 X108.776 Y46.338 E5.26479
G1 X112.852 Y46.09 E5.53912
G1 X117.097 Y46.092 E5.8243
G1 X121.165 Y46.333 E6.09807
G1 X125.22 Y46.818 E6.37243
G1 X129.256 Y47.546 E6.64794
G1 X133.242 Y48.514 E6.9235
G1 X137.35 Y49.78 E7.21228
G1 X141.117 Y51.195 E7.48261
G1 X144.815 Y52.836 E7.7544
G1 X148.733 Y54.877 E8.05118
G1 X152.149 Y56.921 E8.31861
G1 X155.443 Y59.164 E8.58633
G1 X158.828 Y61.781 E8.87377
G1 X161.931 Y64.495 E9.15072
G1 X164.864 Y67.389 E9.42753
G1 X167.595 Y70.424 E9.70182
G1 X170.14 Y73.615 E9.97602
G1 X172.482 Y76.934 E10.24891
G1 X174.635 Y80.404 E10.52325
G1 X176.675 Y84.187 E10.81199
G1 X178.368 Y87.838 E11.08235
G1 X179.851 Y91.6 E11.35401
G1 X181.177 Y95.667 E11.64139
G1 X182.206 Y99.618 E11.91567
G1 X183.002 Y103.643 E12.19131
G1 X183.567 Y107.806 E12.47355
G1 X183.9 Y112.322 E12.77776
G1 X183.814 Y113.172 E12.83515
G1 X183.591 Y113.971 E12.89088
G1 X183.044 Y114.993 E12.96875
G1 X183.585 Y116.013 E13.04632
G1 X183.828 Y116.904 E13.10836
G1 X183.901 Y117.802 E13.16889
G1 X183.548 Y122.371 E13.47675
G1 X183.002 Y126.357 E13.74703
G1 X182.219 Y130.324 E14.01868
G1 X181.184 Y134.312 E14.29547
G1 X179.911 Y138.233 E14.57242
G1 X178.337 Y142.234 E14.86126
G1 X176.622 Y145.918 E15.13426
G1 X174.684 Y149.511 E15.40851
G1 X172.537 Y152.983 E15.68275
G1 X170.188 Y156.322 E15.95701
G1 X167.506 Y159.681 E16.24578
G1 X164.809 Y162.668 E16.51614
G1 X161.929 Y165.506 E16.78777
G1 X158.691 Y168.332 E17.0765
G1 X155.473 Y170.814 E17.34952
G1 X152.099 Y173.111 E17.62373
G1 X148.595 Y175.205 E17.89796
G1 X144.972 Y177.088 E18.17226
G1 X141.044 Y178.835 E18.46107
G1 X137.239 Y180.258 E18.73398
G1 X133.337 Y181.46 E19.00827
G1 X129.372 Y182.429 E19.28248
G1 X125.355 Y183.161 E19.55679
G1 X121.086 Y183.674 E19.84565
G1 X116.99 Y183.915 E20.1213
G1 X112.888 Y183.911 E20.39687
G1 X108.814 Y183.666 E20.67106
G1 X104.742 Y183.176 E20.94659
G1 X100.725 Y182.45 E21.22082
G1 X96.758 Y181.486 E21.49508
G1 X92.65 Y180.22 E21.78386
G1 X88.883 Y178.805 E22.05419
G1 X85.186 Y177.164 E22.32592
G1 X81.419 Y175.208 E22.61107
G1 X77.985 Y173.164 E22.87954
G1 X74.464 Y170.768 E23.16565
G1 X71.264 Y168.295 E23.43734
G1 X68.2 Y165.626 E23.71032
G1 X65.136 Y162.611 E23.9991
G1 X62.418 Y159.591 E24.27205
G1 X59.871 Y156.401 E24.54628
G1 X57.528 Y153.082 E24.81921
G1 X55.365 Y149.596 E25.09482
G1 X53.325 Y145.813 E25.38356
G1 X51.632 Y142.162 E25.65392
G1 X50.149 Y138.4 E25.92558
G1 X48.822 Y134.333 E26.21298
G1 X47.794 Y130.382 E26.48725
G1 X46.998 Y126.357 E26.76289
G1 X46.433 Y122.194 E27.04513
G1 X46.1 Y117.678 E27.34934
G1 X46.186 Y116.828 E27.40673
G1 X46.409 Y116.029 E27.46246
G1 X46.956 Y115.007 E27.54033
G1 X46.415 Y113.987 E27.6179
G1 X46.172 Y113.096 E27.67994
G1 X46.099 Y112.198 E27.74047
G1 X46.452 Y107.629 E28.04833
G1 X47.001 Y103.624 E28.3199
G1 X47.789 Y99.639 E28.5928
G1 X48.822 Y95.669 E28.86839
G1 X50.09 Y91.765 E29.14415
G1 X51.715 Y87.655 E29.44106
G1 X53.405 Y84.028 E29.70988
G1 X55.355 Y80.42 E29.9854
G1 X57.485 Y76.984 E30.25699
G1 X59.812 Y73.678 E30.52859
G1 X62.494 Y70.319 E30.81736
G1 X65.191 Y67.332 E31.08772
G1 X65.735 Y66.795 E31.13907
G1 X66.189 Y67.255 F9600
G1 F1800
G1 X68.517 Y64.962 E31.35859
G1 X71.59 Y62.274 E31.63287
G1 X74.818 Y59.774 E31.90716
G1 X78.324 Y57.386 E32.19214
G1 X81.82 Y55.304 E32.4655
G1 X85.433 Y53.439 E32.73865
G1 X89.1 Y51.804 E33.00838
G1 X92.87 Y50.387 E33.27895
G1 X97.037 Y49.111 E33.57172
G1 X100.888 Y48.177 E33.83793
G1 X104.83 Y47.464 E34.10705
G1 X108.844 Y46.981 E34.37866
G1 X112.882 Y46.736 E34.65043
G1 X117.087 Y46.738 E34.93292
G1 X121.117 Y46.977 E35.20413
G1 X125.134 Y47.459 E35.47593
G1 X129.132 Y48.181 E35.74886
G1 X133.08 Y49.139 E36.02178
G1 X137.132 Y50.388 E36.30663
G1 X140.881 Y51.796 E36.57567
G1 X144.543 Y53.423 E36.84487
G1 X148.41 Y55.436 E37.13775
G1 X151.808 Y57.47 E37.4038
G1 X155.071 Y59.693 E37.66905
G1 X158.41 Y62.274 E37.95257
G1 X161.484 Y64.962 E38.2269
G1 X164.39 Y67.829 E38.50114
G1 X167.095 Y70.835 E38.77281
G1 X169.618 Y73.995 E39.04446
G1 X171.949 Y77.299 E39.3161
G1 X174.08 Y80.736 E39.58778
G1 X176.093 Y84.468 E39.87264
G1 X177.777 Y88.102 E40.14171
G1 X179.246 Y91.828 E40.41078
G1 X180.554 Y95.839 E40.69421
G1 X181.574 Y99.753 E40.96594
G1 X182.363 Y103.739 E41.23892
G1 X182.923 Y107.863 E41.51851
G1 X183.254 Y112.34 E41.8201
G1 X183.175 Y113.074 E41.8697
G1 X182.977 Y113.767 E41.91812
G1 X182.721 Y114.314 E41.95869
G1 X182.25 Y115 E42.01459
G1 X182.655 Y115.574 E42.06178
G1 X182.971 Y116.218 E42.10997
G1 X183.187 Y116.991 E42.16389
G1 X183.255 Y117.78 E42.21709
G1 X182.907 Y122.293 E42.52117
G1 X182.363 Y126.26 E42.79017
G1 X181.587 Y130.189 E43.05922
G1 X180.56 Y134.14 E43.33347
G1 X179.299 Y138.024 E43.60781
G1 X177.746 Y141.97 E43.89269
G1 X176.04 Y145.637 E44.16439
G1 X174.12 Y149.195 E44.436
G1 X171.993 Y152.634 E44.70765
G1 X169.665 Y155.942 E44.9794
G1 X167.019 Y159.255 E45.26424
G1 X164.336 Y162.228 E45.53327
G1 X161.483 Y165.039 E45.80234
G1 X158.288 Y167.826 E46.08717
G1 X155.086 Y170.296 E46.35884
G1 X151.743 Y172.571 E46.63049
G1 X148.272 Y174.645 E46.90213
G1 X144.683 Y176.51 E47.17385
G1 X140.809 Y178.233 E47.45869
G1 X137.021 Y179.65 E47.73039
G1 X133.156 Y180.84 E48.00207
G1 X129.228 Y181.799 E48.2737
G1 X125.249 Y182.524 E48.54541
G1 X121.039 Y183.03 E48.83027
G1 X116.981 Y183.269 E49.10336
G1 X112.899 Y183.265 E49.37759
G1 X108.862 Y183.021 E49.64929
G1 X104.829 Y182.536 E49.92218
G1 X100.85 Y181.815 E50.19384
G1 X96.92 Y180.861 E50.46553
G1 X92.868 Y179.612 E50.75038
G1 X89.119 Y178.204 E51.01942
G1 X85.457 Y176.577 E51.28862
G1 X81.725 Y174.639 E51.57113
G1 X78.324 Y172.614 E51.83704
G1 X74.851 Y170.25 E52.11928
G1 X71.667 Y167.789 E52.38963
G1 X68.632 Y165.145 E52.66004
G1 X65.61 Y162.171 E52.94488
G1 X62.905 Y159.165 E53.21655
G1 X60.382 Y156.005 E53.4882
G1 X58.062 Y152.717 E53.75854
G1 X55.92 Y149.264 E54.03152
G1 X53.907 Y145.532 E54.31638
G1 X52.223 Y141.899 E54.58539
G1 X50.754 Y138.173 E54.85446
G1 X49.446 Y134.161 E55.13795
G1 X48.426 Y130.247 E55.40968
G1 X47.637 Y126.261 E55.68266
G1 X47.077 Y122.137 E55.96225
G1 X46.746 Y117.66 E56.26384
G1 X46.825 Y116.926 E56.31344
G1 X47.023 Y116.233 E56.36186
G1 X47.279 Y115.686 E56.40243
G1 X47.75 Y115 E56.45833
G1 X47.345 Y114.426 E56.50552
G1 X47.029 Y113.782 E56.55371
G1 X46.813 Y113.009 E56.60763
G1 X46.745 Y112.22 E56.66083
G1 X47.093 Y107.707 E56.96491
G1 X47.637 Y103.74 E57.23391
G1 X48.417 Y99.792 E57.50426
G1 X49.44 Y95.86 E57.77721
G1 X50.701 Y91.974 E58.05167
G1 X52.305 Y87.92 E58.34456
G1 X53.978 Y84.327 E58.61082
G1 X55.91 Y80.753 E58.88376
G1 X58.019 Y77.348 E59.15283
G1 X60.335 Y74.058 E59.42312
G1 X62.981 Y70.745 E59.70796
G1 X65.664 Y67.772 E59.97699
G1 X66.146 Y67.297 E60.02245
G1 X66.599 Y67.758 F9600
G1 F1800
G1 X68.964 Y65.429 E60.24544
G1 X72.008 Y62.767 E60.5171
G1 X75.206 Y60.291 E60.78881
G1 X78.663 Y57.936 E61.06982
G1 X82.125 Y55.874 E61.34053
G1 X85.721 Y54.017 E61.61242
G1 X89.354 Y52.399 E61.8796
G1 X93.088 Y50.996 E62.14757
G1 X97.199 Y49.737 E62.43641
G1 X101.013 Y48.811 E62.70008
G1 X104.935 Y48.102 E62.96783
G1 X108.912 Y47.624 E63.23693
G1 X112.911 Y47.381 E63.50608
G1 X117.077 Y47.384 E63.78595
G1 X121.069 Y47.622 E64.05461
G1 X125.047 Y48.099 E64.32377
G1 X129.007 Y48.815 E64.59412
G1 X132.918 Y49.765 E64.8645
G1 X136.914 Y50.997 E65.14542
G1 X140.627 Y52.391 E65.41186
G1 X144.272 Y54.01 E65.6798
G1 X148.086 Y55.996 E65.96868
G1 X151.452 Y58.01 E66.2322
G1 X154.683 Y60.211 E66.49484
G1 X157.992 Y62.767 E66.77574
G1 X161.037 Y65.429 E67.04745
G1 X163.917 Y68.269 E67.31918
G1 X166.596 Y71.245 E67.58818
G1 X169.107 Y74.391 E67.8586
G1 X171.415 Y77.664 E68.12765
G1 X173.526 Y81.068 E68.39674
G1 X175.51 Y84.749 E68.67766
G1 X177.187 Y88.365 E68.94544
G1 X178.641 Y92.055 E69.21189
G1 X179.931 Y96.012 E69.49149
G1 X180.941 Y99.888 E69.76058
G1 X181.723 Y103.836 E70.03096
G1 X182.28 Y107.921 E70.30793
G1 X182.607 Y112.356 E70.60668
G1 X182.536 Y112.971 E70.64827
G1 X182.365 Y113.559 E70.68941
G1 X182.15 Y114.011 E70.72304
G1 X181.456 Y115.006 E70.80454
G1 X182.09 Y115.889 E70.87757
G1 X182.359 Y116.427 E70.91798
G1 X182.547 Y117.082 E70.96376
G1 X182.608 Y117.758 E71.00936
G1 X182.265 Y122.215 E71.30967
G1 X181.727 Y126.144 E71.57608
G1 X180.955 Y130.054 E71.84383
G1 X179.937 Y133.968 E72.11552
G1 X178.688 Y137.815 E72.38724
G1 X177.156 Y141.707 E72.66823
G1 X175.467 Y145.338 E72.93726
G1 X173.556 Y148.88 E73.20764
G1 X171.448 Y152.286 E73.47673
G1 X169.142 Y155.562 E73.74587
G1 X166.533 Y158.829 E74.02675
G1 X163.862 Y161.788 E74.29454
G1 X161.036 Y164.571 E74.561
G1 X157.886 Y167.321 E74.84191
G1 X154.714 Y169.767 E75.111
G1 X151.387 Y172.032 E75.38139
G1 X147.948 Y174.085 E75.65046
G1 X144.394 Y175.932 E75.91954
G1 X140.573 Y177.631 E76.20047
G1 X136.822 Y179.035 E76.46954
G1 X132.975 Y180.219 E76.73995
G1 X129.084 Y181.169 E77.00903
G1 X125.143 Y181.886 E77.27813
G1 X120.991 Y182.385 E77.55907
G1 X116.953 Y182.623 E77.83081
G1 X112.909 Y182.619 E78.10249
G1 X108.911 Y182.376 E78.37157
G1 X104.916 Y181.895 E78.64189
G1 X100.974 Y181.181 E78.91102
G1 X97.082 Y180.235 E79.1801
G1 X93.086 Y179.003 E79.46102
G1 X89.373 Y177.609 E79.72746
G1 X85.729 Y175.99 E79.99534
G1 X82.031 Y174.07 E80.27526
G1 X78.663 Y172.064 E80.53862
G1 X75.239 Y169.733 E80.81689
G1 X72.084 Y167.296 E81.08471
G1 X69.064 Y164.664 E81.35383
G1 X66.084 Y161.732 E81.63468
G1 X63.404 Y158.755 E81.90378
G1 X60.893 Y155.609 E82.1742
G1 X58.596 Y152.352 E82.44195
G1 X56.474 Y148.932 E82.71234
G1 X54.49 Y145.251 E82.99326
G1 X52.821 Y141.653 E83.25971
G1 X51.359 Y137.945 E83.52748
G1 X50.069 Y133.988 E83.80708
G1 X49.059 Y130.112 E84.07617
G1 X48.277 Y126.164 E84.34655
G1 X47.721 Y122.079 E84.62351
G1 X47.393 Y117.644 E84.92227
G1 X47.464 Y117.029 E84.96386
G1 X47.635 Y116.441 E85.005
G1 X47.85 Y115.989 E85.03863
G1 X48.544 Y114.994 E85.12013
G1 X47.91 Y114.111 E85.19316
G1 X47.641 Y113.573 E85.23357
G1 X47.453 Y112.918 E85.27935
G1 X47.392 Y112.242 E85.32495
G1 X47.735 Y107.785 E85.62526
G1 X48.273 Y103.856 E85.89167
G1 X49.045 Y99.946 E86.15942
G1 X50.063 Y96.032 E86.43111
G1 X51.313 Y92.183 E86.70298
G1 X52.895 Y88.184 E86.99189
G1 X54.551 Y84.626 E87.25554
G1 X56.474 Y81.068 E87.52724
G1 X58.563 Y77.697 E87.79366
G1 X60.858 Y74.438 E88.06144
G1 X63.467 Y71.171 E88.34232
G1 X66.124 Y68.226 E88.60879
G1 X66.557 Y67.8 E88.6496
G1 X67.01 Y68.26 F9600
G1 F1800
G1 X69.41 Y65.896 E88.87591
G1 X72.426 Y63.26 E89.14501
G1 X75.594 Y60.808 E89.41414
G1 X79.002 Y58.487 E89.69114
G1 X82.447 Y56.434 E89.96056
G1 X86.009 Y54.596 E90.22984
G1 X89.608 Y52.993 E90.49452
G1 X93.306 Y51.605 E90.75988
G1 X97.361 Y50.362 E91.04481
G1 X101.137 Y49.445 E91.30586
G1 X105.041 Y48.74 E91.57237
G1 X108.979 Y48.267 E91.83883
G1 X112.94 Y48.027 E92.10542
G1 X117.067 Y48.031 E92.38267
G1 X121.021 Y48.267 E92.64877
G1 X124.96 Y48.74 E92.91529
G1 X128.883 Y49.449 E93.18311
G1 X132.756 Y50.391 E93.45088
G1 X136.696 Y51.605 E93.72785
G1 X140.391 Y52.993 E93.99302
G1 X144 Y54.596 E94.25831
G1 X147.762 Y56.555 E94.54325
G1 X151.096 Y58.55 E94.80427
G1 X154.311 Y60.739 E95.06557
G1 X157.574 Y63.26 E95.34258
G1 X160.59 Y65.896 E95.61168
G1 X163.443 Y68.708 E95.88079
G1 X166.097 Y71.656 E96.14727
G1 X168.584 Y74.771 E96.41505
G1 X170.871 Y78.013 E96.68159
G1 X172.971 Y81.401 E96.94937
G1 X174.928 Y85.03 E97.22636
G1 X176.589 Y88.611 E97.49155
G1 X178.036 Y92.283 E97.7567
G1 X179.308 Y96.184 E98.03235
G1 X180.309 Y100.023 E98.29888
G1 X181.084 Y103.933 E98.56666
G1 X181.636 Y107.979 E98.84099
G1 X181.961 Y112.318 E99.1333
G1 X181.907 Y112.822 E99.16735
G1 X181.603 Y113.665 E99.22755
G1 X180.991 Y114.543 E99.29945
G1 X180.535 Y115.001 E99.34287
G1 X180.949 Y115.408 E99.38187
G1 X181.55 Y116.245 E99.45109
G1 X181.907 Y117.178 E99.5182
G1 X181.962 Y117.738 E99.556
G1 X181.623 Y122.136 E99.85234
G1 X181.088 Y126.047 E100.11753
G1 X180.322 Y129.92 E100.38276
G1 X179.314 Y133.796 E100.65181
G1 X178.076 Y137.606 E100.92094
G1 X176.566 Y141.443 E101.19795
G1 X174.893 Y145.04 E101.46446
G1 X173.001 Y148.548 E101.73222
G1 X170.914 Y151.922 E101.99874
G1 X168.619 Y155.182 E102.26657
G1 X166.047 Y158.403 E102.54348
G1 X163.402 Y161.334 E102.80871
G1 X160.59 Y164.104 E103.07388
G1 X157.483 Y166.815 E103.3509
G1 X154.342 Y169.238 E103.6174
G1 X151.048 Y171.482 E103.88516
G1 X147.642 Y173.516 E104.15167
G1 X144.104 Y175.353 E104.41948
G1 X140.337 Y177.029 E104.69647
G1 X136.622 Y178.42 E104.96297
G1 X132.813 Y179.593 E105.23072
G1 X128.959 Y180.534 E105.49724
G1 X125.037 Y181.249 E105.76506
G1 X120.943 Y181.74 E106.04207
G1 X116.944 Y181.976 E106.31119
G1 X112.938 Y181.973 E106.58031
G1 X108.979 Y181.733 E106.84676
G1 X105.021 Y181.257 E107.11458
G1 X101.118 Y180.551 E107.38104
G1 X97.244 Y179.609 E107.64888
G1 X93.304 Y178.395 E107.92585
G1 X89.609 Y177.007 E108.19102
G1 X86 Y175.404 E108.45631
G1 X82.338 Y173.501 E108.73356
G1 X79.002 Y171.513 E108.99445
G1 X75.61 Y169.204 E109.27011
G1 X72.487 Y166.79 E109.53528
G1 X69.496 Y164.184 E109.80179
G1 X66.557 Y161.292 E110.07879
G1 X63.903 Y158.344 E110.34527
G1 X61.416 Y155.229 E110.61305
G1 X59.129 Y151.987 E110.87959
G1 X57.029 Y148.599 E111.14737
G1 X55.072 Y144.97 E111.42436
G1 X53.411 Y141.389 E111.68955
G1 X51.964 Y137.717 E111.9547
G1 X50.691 Y133.816 E112.23037
G1 X49.691 Y129.977 E112.49688
G1 X48.916 Y126.067 E112.76466
G1 X48.364 Y122.021 E113.03899
G1 X48.039 Y117.682 E113.3313
G1 X48.093 Y117.178 E113.36535
G1 X48.397 Y116.335 E113.42555
G1 X49.009 Y115.457 E113.49745
G1 X49.465 Y114.999 E113.54087
G1 X49.051 Y114.592 E113.57987
G1 X48.45 Y113.755 E113.64909
G1 X48.093 Y112.822 E113.7162
G1 X48.038 Y112.262 E113.754
G1 X48.377 Y107.863 E114.0504
G1 X48.912 Y103.953 E114.31552
G1 X49.678 Y100.08 E114.58075
G1 X50.686 Y96.204 E114.8498
G1 X51.925 Y92.393 E115.11901
G1 X53.485 Y88.448 E115.404
G1 X55.124 Y84.925 E115.66504
G1 X57.028 Y81.401 E115.93413
G1 X59.108 Y78.045 E116.19938
G1 X61.381 Y74.818 E116.46455
G1 X63.953 Y71.597 E116.74146
G1 X66.598 Y68.666 E117.00669
G1 X66.967 Y68.302 E117.04151
G1 X67.421 Y68.763 F9600
G1 F1800
G1 X69.857 Y66.363 E117.27124
G1 X72.844 Y63.753 E117.53772
G1 X75.982 Y61.325 E117.80427
G1 X79.342 Y59.037 E118.07736
G1 X82.753 Y57.004 E118.34413
G1 X86.297 Y55.174 E118.61208
G1 X89.862 Y53.587 E118.87424
G1 X93.523 Y52.213 E119.13694
G1 X97.523 Y50.988 E119.41798
G1 X101.262 Y50.08 E119.67647
G1 X105.146 Y49.377 E119.94164
G1 X109.047 Y48.909 E120.20559
G1 X112.969 Y48.673 E120.46955
G1 X117.057 Y48.677 E120.74418
G1 X120.954 Y48.909 E121.00644
G1 X124.874 Y49.38 E121.27168
G1 X128.758 Y50.084 E121.53686
G1 X132.594 Y51.017 E121.80208
G1 X136.478 Y52.214 E122.07512
G1 X140.138 Y53.587 E122.33773
G1 X143.729 Y55.183 E122.60173
G1 X147.439 Y57.115 E122.88274
G1 X150.741 Y59.089 E123.14119
G1 X153.94 Y61.268 E123.40122
