; generated by PrusaSlicer 2.9.1 on 2026-02-15 at 20:31:07 UTC

; 

; external perimeters extrusion width = 0.70mm
; perimeters extrusion width = 0.70mm
; infill extrusion width = 0.70mm
; solid infill extrusion width = 0.70mm
; top infill extrusion width = 0.70mm
; first layer extrusion width = 0.70mm

M190 S40 ; set bed temperature and wait for it to be reached
M104 S230 ; set temperature
;TYPE:Custom
G28 ; home all axes
G1 Z5 F5000 ; lift nozzle
M109 S230 ; set temperature and wait for it to be reached
G21 ; set units to millimeters
G90 ; use absolute coordinates
M82 ; use absolute distances for extrusion
G92 E0
; Filament gcode
M107
;LAYER_CHANGE
;Z:0.25
;HEIGHT:0.25
G1 E-2 F2400
G92 E0
G1 Z.25 F9600
G1 X72.076 Y82.913
G1 E2 F2400
;TYPE:Skirt/Brim
;WIDTH:0.7
G1 F1800
G1 X106.326 Y53.139 E5.04879
G1 X108.663 Y51.817 E5.22917
G1 X111.331 Y51.117 E5.41447
G1 X112.645 Y51.026 E5.50296
G1 X125.096 Y51.09 E6.33943
G1 X127.457 Y51.616 E6.50193
G1 X129.638 Y52.666 E6.66455
G1 X131.484 Y54.147 E6.82354
G1 X176.861 Y106.327 E11.4691
G1 X178.184 Y108.664 E11.64951
G1 X178.882 Y111.326 E11.83439
G1 X178.974 Y112.786 E11.93267
G1 X178.973 Y124.006 E12.68643
G1 X178.884 Y125.324 E12.77518
G1 X178.384 Y127.458 E12.92243
G1 X177.334 Y129.637 E13.08492
G1 X175.688 Y131.645 E13.25935
G1 X123.673 Y176.862 E17.88949
G1 X121.337 Y178.183 E18.06978
G1 X118.669 Y178.883 E18.25508
G1 X117.355 Y178.974 E18.34357
G1 X105.994 Y178.973 E19.1068
G1 X104.677 Y178.884 E19.19548
G1 X102.542 Y178.384 E19.34279
G1 X100.362 Y177.334 E19.50535
G1 X98.355 Y175.688 E19.67973
G1 X53.139 Y123.673 E24.30983
G1 X51.817 Y121.337 E24.49015
G1 X51.118 Y118.673 E24.67518
G1 X51.027 Y117.359 E24.76367
G1 X51.026 Y107.739 E25.40994
G1 X51.027 Y105.994 E25.52717
G1 X51.116 Y104.676 E25.61592
G1 X51.693 Y102.327 E25.77842
G1 X52.665 Y100.363 E25.92564
G1 X54.313 Y98.354 E26.10021
G1 X72.031 Y82.952 E27.67737
G1 X72.454 Y83.439 F9600
G1 F1800
G1 X106.72 Y53.652 E30.72755
G1 X108.915 Y52.412 E30.89691
G1 X111.42 Y51.757 E31.07085
G1 X112.645 Y51.673 E31.15334
G1 X125.022 Y51.732 E31.98484
G1 X127.239 Y52.224 E32.1374
G1 X129.286 Y53.208 E32.28998
G1 X131.021 Y54.598 E32.43933
G1 X176.349 Y106.72 E37.07979
G1 X177.588 Y108.916 E37.24918
G1 X178.242 Y111.415 E37.42272
G1 X178.327 Y112.583 E37.50139
G1 X178.328 Y122.262 E38.15163
G1 X178.242 Y125.25 E38.35245
G1 X177.776 Y127.24 E38.48976
G1 X176.792 Y129.286 E38.64228
G1 X175.237 Y131.182 E38.80701
G1 X123.28 Y176.349 E43.43201
G1 X121.085 Y177.588 E43.60134
G1 X118.58 Y178.243 E43.77528
G1 X117.355 Y178.327 E43.85777
G1 X107.739 Y178.328 E44.50378
G1 X104.751 Y178.242 E44.7046
G1 X102.761 Y177.776 E44.84191
G1 X100.714 Y176.792 E44.99449
G1 X98.818 Y175.237 E45.15922
G1 X53.651 Y123.28 E49.78422
G1 X52.412 Y121.085 E49.95355
G1 X51.758 Y118.584 E50.12722
G1 X51.673 Y117.359 E50.20971
G1 X51.672 Y107.739 E50.85598
G1 X51.758 Y104.75 E51.05686
G1 X52.301 Y102.545 E51.20942
G1 X53.208 Y100.714 E51.34669
G1 X54.764 Y98.818 E51.51147
G1 X72.409 Y83.478 E53.0822
G1 X72.832 Y83.965 F9600
G1 F1800
G1 X107.113 Y54.164 E56.13376
G1 X109.167 Y53.007 E56.29213
G1 X111.509 Y52.398 E56.4547
G1 X112.645 Y52.319 E56.5312
G1 X124.947 Y52.374 E57.35766
G1 X127.021 Y52.832 E57.50035
G1 X128.935 Y53.751 E57.64299
G1 X130.558 Y55.049 E57.7826
G1 X175.836 Y107.114 E62.41797
G1 X176.993 Y109.167 E62.57629
G1 X177.602 Y111.504 E62.73853
G1 X177.68 Y112.588 E62.81154
G1 X177.681 Y122.262 E63.46144
G1 X177.6 Y125.175 E63.65721
G1 X177.168 Y127.021 E63.78458
G1 X176.249 Y128.935 E63.92722
G1 X174.786 Y130.719 E64.08222
G1 X122.886 Y175.836 E68.70213
G1 X120.833 Y176.993 E68.86045
G1 X118.491 Y177.602 E69.02302
G1 X117.355 Y177.681 E69.09952
G1 X107.739 Y177.681 E69.74553
G1 X104.825 Y177.6 E69.94137
G1 X102.979 Y177.168 E70.06874
G1 X101.065 Y176.249 E70.21138
G1 X99.281 Y174.786 E70.36638
G1 X54.164 Y122.886 E74.98629
G1 X53.007 Y120.834 E75.14455
G1 X52.398 Y118.495 E75.30692
G1 X52.32 Y117.359 E75.38342
G1 X52.319 Y107.739 E76.02969
G1 X52.4 Y104.825 E76.22553
G1 X52.91 Y102.764 E76.36816
G1 X53.751 Y101.065 E76.49552
G1 X55.214 Y99.281 E76.65052
G1 X72.787 Y84.005 E78.21478
G1 X73.21 Y84.492 F9600
G1 F1800
G1 X107.507 Y54.677 E81.26776
G1 X109.418 Y53.603 E81.41503
G1 X111.598 Y53.038 E81.56632
G1 X112.645 Y52.965 E81.63683
G1 X124.873 Y53.016 E82.45832
G1 X126.802 Y53.441 E82.59102
G1 X128.584 Y54.293 E82.72371
G1 X130.256 Y55.665 E82.86901
G1 X175.323 Y107.507 E87.48377
G1 X176.398 Y109.419 E87.63113
G1 X176.962 Y111.593 E87.78201
G1 X177.034 Y112.592 E87.8493
G1 X177.035 Y122.262 E88.49893
G1 X176.957 Y125.101 E88.68973
G1 X176.559 Y126.803 E88.80716
G1 X175.707 Y128.583 E88.93973
G1 X174.335 Y130.255 E89.08503
G1 X122.493 Y175.323 E93.69984
G1 X120.582 Y176.397 E93.84711
G1 X118.402 Y176.962 E93.9984
G1 X117.355 Y177.035 E94.06891
G1 X107.734 Y177.035 E94.71525
G1 X104.899 Y176.957 E94.90578
G1 X103.198 Y176.559 E95.02314
G1 X101.416 Y175.707 E95.15583
G1 X99.745 Y174.336 E95.30104
G1 X54.677 Y122.493 E99.9159
G1 X53.603 Y120.582 E100.06317
G1 X53.038 Y118.406 E100.2142
G1 X52.966 Y117.359 E100.2847
G1 X52.965 Y107.734 E100.93131
G1 X53.043 Y104.899 E101.12184
G1 X53.518 Y102.982 E101.25452
G1 X54.293 Y101.417 E101.37184
G1 X55.665 Y99.744 E101.51719
G1 X73.165 Y84.531 E103.07497
G1 X73.584 Y85.013 F9600
G1 F1800
G1 X107.9 Y55.19 E106.12927
G1 X109.67 Y54.198 E106.26558
G1 X111.687 Y53.678 E106.40551
G1 X112.645 Y53.612 E106.47002
G1 X124.799 Y53.658 E107.28653
G1 X126.584 Y54.049 E107.40929
G1 X128.232 Y54.836 E107.53198
G1 X129.793 Y56.116 E107.6676
G1 X174.81 Y107.9 E112.27722
G1 X175.802 Y109.67 E112.41353
G1 X176.321 Y111.682 E112.55312
G1 X176.389 Y112.74 E112.62434
G1 X176.389 Y122.266 E113.2643
G1 X176.315 Y125.027 E113.44985
G1 X175.951 Y126.584 E113.55727
G1 X175.164 Y128.232 E113.67996
G1 X174.05 Y129.631 E113.8001
G1 X173.598 Y130.056 E113.84178
G1 X122.099 Y174.81 E118.42536
G1 X120.33 Y175.802 E118.56161
G1 X118.313 Y176.322 E118.70154
G1 X117.355 Y176.388 E118.76605
G1 X107.734 Y176.389 E119.41239
G1 X104.973 Y176.315 E119.59794
G1 X103.416 Y175.951 E119.70536
G1 X101.768 Y175.164 E119.82805
G1 X100.369 Y174.05 E119.94819
G1 X99.944 Y173.598 E119.98987
G1 X55.19 Y122.1 E124.5734
G1 X54.198 Y120.33 E124.70971
G1 X53.678 Y118.317 E124.84938
G1 X53.612 Y117.359 E124.91389
G1 X53.611 Y107.734 E125.5605
G1 X53.685 Y104.973 E125.74605
G1 X54.126 Y103.201 E125.86872
G1 X54.836 Y101.768 E125.97616
G1 X55.95 Y100.369 E126.0963
G1 X56.402 Y99.944 E126.13798
G1 X73.538 Y85.052 E127.66315
G1 X73.962 Y85.539 F9600
G1 F1800
G1 X108.294 Y55.703 E130.71883
G1 X109.922 Y54.793 E130.84413
G1 X111.776 Y54.318 E130.9727
G1 X112.645 Y54.258 E131.03122
G1 X124.725 Y54.3 E131.84276
G1 X126.365 Y54.657 E131.95552
G1 X127.881 Y55.378 E132.0683
G1 X129.329 Y56.566 E132.19413
G1 X174.297 Y108.294 E136.79875
G1 X175.207 Y109.922 E136.92405
G1 X175.681 Y111.771 E137.05228
G1 X175.742 Y112.745 E137.11784
G1 X175.742 Y122.262 E137.75719
G1 X175.673 Y124.953 E137.93803
G1 X175.343 Y126.366 E138.03551
G1 X174.622 Y127.881 E138.14823
G1 X173.6 Y129.168 E138.25864
G1 X173.174 Y129.568 E138.2979
G1 X121.706 Y174.298 E142.87885
G1 X120.079 Y175.207 E143.00405
G1 X118.224 Y175.682 E143.13269
G1 X117.355 Y175.742 E143.19121
G1 X105.996 Y175.741 E143.95431
G1 X105.047 Y175.673 E144.01823
G1 X103.635 Y175.343 E144.11564
G1 X102.119 Y174.622 E144.22842
G1 X100.832 Y173.6 E144.33883
G1 X100.432 Y173.174 E144.37809
G1 X55.703 Y121.706 E148.95899
G1 X54.793 Y120.079 E149.08423
G1 X54.319 Y118.228 E149.21259
G1 X54.259 Y117.359 E149.27111
G1 X54.258 Y107.734 E149.91772
G1 X54.327 Y105.047 E150.09829
G1 X54.735 Y103.419 E150.21104
G1 X55.378 Y102.119 E150.30847
G1 X56.401 Y100.832 E150.41892
G1 X56.826 Y100.432 E150.45813
G1 X73.917 Y85.579 E151.9793
G1 E149.9793 F2400
G92 E0
G92 E0
G1 X146.269 Y114.647 F9600
G1 E2 F2400
;TYPE:External perimeter
;WIDTH:0.493614
G1 F1800
G1 X146.746 Y114.301 E2.02695
;WIDTH:0.527669
G1 X147.178 Y114.071 E2.05106
;WIDTH:0.561724
G1 X147.61 Y113.84 E2.07693
;WIDTH:0.607398
G1 X148.512 Y113.564 E2.13122
;WIDTH:0.637356
G1 X149.462 Y113.46 E2.1892
;WIDTH:0.642958
G1 X150.295 Y113.526 E2.24038
G1 X151.099 Y113.727 E2.29114
;WIDTH:0.631786
G1 X151.901 Y114.079 E2.34377
;WIDTH:0.595042
G1 X152.238 Y114.299 E2.36642
;WIDTH:0.56937
G1 X152.576 Y114.519 E2.38804
;WIDTH:0.543698
G1 X152.931 Y114.798 E2.41104
G1 X152.531 Y114.773 F9600
G1 E.41104 F2400
G92 E0
G1 X163.929 Y122.734 F9600
G1 E2 F2400
;TYPE:Perimeter
;WIDTH:0.699999
G1 F1800
G1 X163.412 Y122.549 E2.03689
G1 X162.839 Y122.155 E2.08361
G1 X162.387 Y121.624 E2.13046
G1 X162.093 Y121.001 E2.17674
G1 X161.962 Y120.196 E2.23153
G1 X162.028 Y119.635 E2.26948
G1 X162.256 Y118.999 E2.31487
G1 X162.649 Y118.426 E2.36155
G1 X163.18 Y117.974 E2.4084
G1 X163.804 Y117.68 E2.45474
G1 X164.469 Y117.559 E2.50015
G1 X165.162 Y117.613 E2.54685
G1 X165.414 Y117.68 E2.56437
G1 X166.038 Y117.974 E2.61071
G1 X166.564 Y118.419 E2.657
G1 X166.957 Y118.986 E2.70335
G1 X167.19 Y119.635 E2.74967
G1 X167.256 Y120.196 E2.78762
G1 X167.19 Y120.756 E2.8255
G1 X166.957 Y121.405 E2.87182
G1 X166.564 Y121.972 E2.91817
G1 X166.038 Y122.417 E2.96446
G1 X165.414 Y122.711 E3.0108
G1 X164.736 Y122.834 E3.05709
G1 X164.048 Y122.777 E3.10347
G1 X163.985 Y122.754 E3.10798
G1 X164.094 Y122.12 F9600
;TYPE:External perimeter
G1 F1800
G1 X164.051 Y122.114 E3.1109
G1 X163.588 Y121.911 E3.14486
G1 X163.167 Y121.578 E3.18092
G1 X162.858 Y121.158 E3.21595
G1 X162.671 Y120.685 E3.25012
G1 X162.609 Y120.196 E3.28323
G1 X162.691 Y119.638 E3.32112
G1 X162.894 Y119.175 E3.35508
G1 X163.226 Y118.753 E3.39115
G1 X163.647 Y118.445 E3.42619
G1 X164.113 Y118.258 E3.45992
G1 X164.635 Y118.2 E3.4952
G1 X165.167 Y118.277 E3.53131
G1 X165.644 Y118.487 E3.56632
G1 X166.051 Y118.813 E3.60135
G1 X166.36 Y119.233 E3.63638
G1 X166.549 Y119.719 E3.67141
G1 X166.607 Y120.238 E3.70649
G1 X166.528 Y120.753 E3.74149
G1 X166.318 Y121.231 E3.77656
G1 X165.992 Y121.638 E3.81159
G1 X165.571 Y121.946 E3.84663
G1 X165.099 Y122.134 E3.88076
G1 X164.567 Y122.193 E3.91672
G1 X164.153 Y122.13 E3.94485
G1 X163.778 Y121.99 F9600
G1 E1.94485 F2400
G92 E0
G1 X115.202 Y152.931 F9600
G1 E2 F2400
;WIDTH:0.536214
G1 F1800
G1 X115.716 Y152.246 E2.04295
;WIDTH:0.584174
G1 X116.161 Y151.396 E2.09586
;WIDTH:0.620082
G1 X116.443 Y150.462 E2.1533
;WIDTH:0.631652
G1 X116.538 Y149.525 E2.20988
G1 X116.46 Y148.629 E2.26391
;WIDTH:0.625708
G1 X116.239 Y147.812 E2.31423
;WIDTH:0.598664
G1 X115.889 Y147.057 E2.36137
;WIDTH:0.557208
G1 X115.632 Y146.68 E2.38525
;WIDTH:0.523275
G1 X115.375 Y146.303 E2.40752
;WIDTH:0.489342
G1 X115.374 Y146.301 E2.40762
G1 X115.378 Y146.701 F9600
G1 E.40762 F2400
G92 E0
G1 X107.177 Y164.609 F9600
G1 E2 F2400
;TYPE:Perimeter
;WIDTH:0.699999
G1 F1800
G1 X107.223 Y164.048 E2.03781
G1 X107.456 Y163.4 E2.08407
G1 X107.849 Y162.833 E2.13042
G1 X108.376 Y162.388 E2.17676
G1 X108.999 Y162.093 E2.22307
G1 X109.664 Y161.973 E2.26847
G1 X110.357 Y162.027 E2.31517
G1 X111.014 Y162.261 E2.36202
G1 X111.581 Y162.654 E2.40837
G1 X112.026 Y163.18 E2.45466
G1 X112.153 Y163.399 E2.47167
G1 X112.366 Y163.943 E2.51092
G1 X112.443 Y164.483 E2.54756
G1 X112.386 Y165.17 E2.59387
G1 X112.153 Y165.819 E2.64019
G1 X111.76 Y166.385 E2.68648
G1 X111.233 Y166.831 E2.73286
G1 X110.61 Y167.125 E2.77914
G1 X109.931 Y167.247 E2.82549
G1 X109.244 Y167.19 E2.8718
G1 X108.595 Y166.957 E2.91812
G1 X108.028 Y166.564 E2.96447
G1 X107.583 Y166.038 E3.01076
G1 X107.289 Y165.414 E3.0571
G1 X107.166 Y164.736 E3.10339
G1 X107.172 Y164.669 E3.10791
G1 X107.812 Y164.609 F9600
;TYPE:External perimeter
G1 F1800
G1 X107.807 Y164.567 E3.11075
G1 X107.886 Y164.051 E3.14582
G1 X108.096 Y163.574 E3.18083
G1 X108.422 Y163.167 E3.21586
G1 X108.842 Y162.858 E3.25089
G1 X109.315 Y162.671 E3.28506
G1 X109.831 Y162.613 E3.31994
G1 X110.362 Y162.691 E3.356
G1 X110.84 Y162.9 E3.39105
G1 X111.247 Y163.226 E3.42608
G1 X111.555 Y163.647 E3.46112
G1 X111.742 Y164.113 E3.49485
G1 X111.805 Y164.609 E3.52844
G1 X111.738 Y165.121 E3.56313
G1 X111.513 Y165.644 E3.60138
G1 X111.187 Y166.051 E3.63641
G1 X110.767 Y166.36 E3.67144
G1 X110.294 Y166.547 E3.70561
G1 X109.762 Y166.607 E3.74158
G1 X109.247 Y166.528 E3.77658
G1 X108.769 Y166.318 E3.81165
G1 X108.362 Y165.992 E3.84668
G1 X108.054 Y165.571 E3.88172
G1 X107.866 Y165.099 E3.91585
G1 X107.818 Y164.669 E3.94492
G1 X107.856 Y164.271 F9600
G1 E1.94492 F2400
G92 E0
G1 X77.069 Y115.202 F9600
G1 E2 F2400
;WIDTH:0.53622
G1 F1800
G1 X77.754 Y115.716 E2.04295
;WIDTH:0.584184
G1 X78.604 Y116.161 E2.09586
;WIDTH:0.620068
G1 X79.538 Y116.443 E2.1533
;WIDTH:0.631666
G1 X80.475 Y116.538 E2.20988
G1 X81.371 Y116.46 E2.26391
;WIDTH:0.625688
G1 X82.188 Y116.239 E2.31423
;WIDTH:0.598676
G1 X82.944 Y115.89 E2.3614
;WIDTH:0.55414
G1 X83.321 Y115.632 E2.38516
;WIDTH:0.522316
G1 X83.697 Y115.374 E2.40737
;WIDTH:0.490492
G1 X83.699 Y115.373 E2.40747
G1 X83.299 Y115.377 F9600
G1 E.40747 F2400
G92 E0
G1 X63.115 Y108.49 F9600
G1 E2 F2400
;TYPE:Perimeter
;WIDTH:0.699999
G1 F1800
G1 X63.436 Y108.028 E2.03779
G1 X63.962 Y107.583 E2.08408
G1 X64.586 Y107.289 E2.13042
G1 X65.251 Y107.168 E2.17583
G1 X65.944 Y107.222 E2.22253
G1 X66.6 Y107.456 E2.26932
G1 X67.167 Y107.849 E2.31567
G1 X67.612 Y108.376 E2.36201
G1 X67.907 Y108.999 E2.40832
G1 X68.029 Y109.678 E2.45467
G1 X67.972 Y110.365 E2.50098
G1 X67.739 Y111.014 E2.5473
G1 X67.346 Y111.581 E2.59365
G1 X66.82 Y112.026 E2.63994
G1 X66.196 Y112.32 E2.68628
G1 X65.517 Y112.443 E2.73264
G1 X64.83 Y112.386 E2.77895
G1 X64.194 Y112.158 E2.82434
G1 X63.621 Y111.764 E2.87106
G1 X63.169 Y111.233 E2.91791
G1 X62.875 Y110.61 E2.96419
G1 X62.753 Y109.931 E3.01054
G1 X62.81 Y109.244 E3.05685
G1 X63.043 Y108.595 E3.10317
G1 X63.081 Y108.54 E3.10766
G1 X63.665 Y108.808 F9600
;TYPE:External perimeter
G1 F1800
G1 X63.949 Y108.422 E3.13985
G1 X64.356 Y108.096 E3.17488
G1 X64.833 Y107.886 E3.20989
G1 X65.335 Y107.809 E3.24401
G1 X65.865 Y107.864 E3.27981
G1 X66.353 Y108.054 E3.31499
G1 X66.774 Y108.362 E3.35003
G1 X67.1 Y108.769 E3.38506
G1 X67.309 Y109.247 E3.42011
G1 X67.388 Y109.762 E3.45511
G1 X67.331 Y110.281 E3.49019
G1 X67.142 Y110.767 E3.52522
G1 X66.833 Y111.187 E3.56025
G1 X66.426 Y111.513 E3.59528
G1 X65.949 Y111.723 E3.63029
G1 X65.433 Y111.802 E3.66536
G1 X64.915 Y111.745 E3.70037
G1 X64.441 Y111.561 E3.73453
G1 X64.01 Y111.248 E3.77031
G1 X63.682 Y110.84 E3.80548
G1 X63.472 Y110.362 E3.84055
G1 X63.393 Y109.847 E3.87555
G1 X63.451 Y109.328 E3.91063
G1 X63.634 Y108.858 E3.94451
G1 X63.867 Y108.534 F9600
G1 E1.94451 F2400
G92 E0
G1 X141.942 Y134.769 F9600
G1 E2 F2400
;TYPE:Perimeter
G1 F1800
G1 X141.741 Y134.836 E2.01423
G1 X141.202 Y134.893 E2.05064
G1 X138.572 Y134.893 E2.22732
G1 X137.875 Y134.954 E2.27432
G1 X137.268 Y135.116 E2.31653
G1 X136.699 Y135.381 E2.3587
G1 X136.185 Y135.741 E2.40086
G1 X135.742 Y136.185 E2.443
G1 X135.379 Y136.704 E2.48555
G1 X135.116 Y137.268 E2.52736
G1 X134.954 Y137.875 E2.56957
G1 X134.893 Y138.572 E2.61657
G1 X134.893 Y141.202 E2.79325
G1 X134.836 Y141.742 E2.82973
G1 X134.599 Y142.457 E2.88033
G1 X134.375 Y142.759 E2.90559
;WIDTH:0.658475
G1 X134.152 Y143.061 E2.92919
;WIDTH:0.61695
G1 X133.856 Y143.346 E2.95325
;WIDTH:0.600535
G1 X133.376 Y143.686 E2.98669
;WIDTH:0.597313
G1 X132.785 Y143.931 E3.02284
;WIDTH:0.60057
G1 X132.206 Y144.03 E3.05623
;WIDTH:0.609126
G1 X131.908 Y144.047 E3.07346
G1 X98.092 Y144.047 E5.02583
G1 X97.465 Y143.989 E5.06218
;WIDTH:0.609936
G1 X96.914 Y143.821 E5.09549
G1 X96.431 Y143.57 E5.12696
;WIDTH:0.610169
G1 X95.932 Y143.157 E5.16443
;WIDTH:0.655084
G1 X95.667 Y142.807 E5.19187
;WIDTH:0.699999
G1 X95.401 Y142.457 E5.2214
G1 X95.164 Y141.741 E5.27207
G1 X95.107 Y141.202 E5.30848
G1 X95.107 Y138.572 E5.48516
G1 X95.046 Y137.875 E5.53216
G1 X94.884 Y137.269 E5.5743
G1 X94.616 Y136.696 E5.6168
G1 X94.259 Y136.185 E5.65868
G1 X93.815 Y135.742 E5.70082
G1 X93.296 Y135.379 E5.74337
G1 X92.732 Y135.116 E5.78518
G1 X92.125 Y134.954 E5.82739
G1 X91.428 Y134.893 E5.87439
G1 X88.798 Y134.893 E6.05107
G1 X88.259 Y134.836 E6.08748
G1 X87.543 Y134.599 E6.13815
