; generated by PrusaSlicer 2.9.1 on 2026-01-02 at 21:00:48 UTC

; 

; external perimeters extrusion width = 0.70mm
; perimeters extrusion width = 0.70mm
; infill extrusion width = 0.70mm
; solid infill extrusion width = 0.70mm
; top infill extrusion width = 0.70mm
; first layer extrusion width = 0.70mm

M190 S40 ; set bed temperature and wait for it to be reached
M104 S230 ; set temperature
;TYPE:Custom
G28 ; home all axes
G1 Z5 F5000 ; lift nozzle
M109 S230 ; set temperature and wait for it to be reached
G21 ; set units to millimeters
G90 ; use absolute coordinates
M82 ; use absolute distances for extrusion
G92 E0
; Filament gcode
M107
;LAYER_CHANGE
;Z:0.25
;HEIGHT:0.25
G1 E-2 F2400
G92 E0
G1 Z.25 F9600
G1 X103.893 Y103.501
G1 E2 F2400
;TYPE:Skirt/Brim
;WIDTH:0.7
G1 F1800
G1 X105.361 Y102.245 E2.12979
G1 X107.42 Y100.924 E2.29413
G1 X109.537 Y99.974 E2.45001
G1 X111.39 Y99.425 E2.57984
G1 X113.809 Y99.057 E2.74422
G1 X115.741 Y99.029 E2.87403
G1 X117.091 Y99.149 E2.96508
G1 X118.604 Y99.424 E3.06839
G1 X119.856 Y99.768 E3.15562
G1 X121.303 Y100.307 E3.25935
G1 X123.363 Y101.374 E3.4152
G1 X124.588 Y102.207 E3.51472
G1 X125.637 Y103.065 E3.60576
G1 X160.901 Y138.291 E6.95429
G1 X161.874 Y139.376 E7.0522
G1 X162.671 Y140.439 E7.14146
G1 X163.651 Y142.062 E7.26883
G1 X164.303 Y143.462 E7.37258
G1 X164.761 Y144.738 E7.46366
G1 X165.212 Y146.552 E7.58923
G1 X165.423 Y148.082 E7.69299
G1 X165.486 Y149.435 E7.78398
G1 X165.418 Y150.977 E7.88767
G1 X165.136 Y152.827 E8.01339
G1 X164.798 Y154.139 E8.10441
G1 X164.279 Y155.593 E8.20813
G1 X163.466 Y157.277 E8.33376
G1 X162.757 Y158.432 E8.42481
G1 X161.834 Y159.669 E8.5285
G1 X160.928 Y160.677 E8.61955
G1 X159.8 Y161.725 E8.72299
G1 X158.298 Y162.846 E8.8489
G1 X156.273 Y163.979 E9.00479
G1 X153.984 Y164.843 E9.16916
G1 X151.716 Y165.331 E9.32501
G1 X149.214 Y165.483 E9.4934
G1 X146.962 Y165.282 E9.64529
G1 X144.524 Y164.691 E9.81382
G1 X142.434 Y163.838 E9.96547
G1 X140.277 Y162.556 E10.13404
G1 X139.204 Y161.728 E10.22509
G1 X138.244 Y160.852 E10.3124
G1 X103.727 Y126.336 E13.59172
G1 X102.707 Y125.218 E13.69339
G1 X101.778 Y123.984 E13.79716
G1 X100.79 Y122.323 E13.92699
G1 X99.9 Y120.248 E14.07867
G1 X99.265 Y117.821 E14.2472
G1 X99.039 Y115.902 E14.37701
G1 X99.071 Y113.645 E14.52865
G1 X99.479 Y111.169 E14.69723
G1 X100.174 Y109.021 E14.8489
G1 X101.003 Y107.275 E14.97875
G1 X102.382 Y105.182 E15.14713
G1 X103.852 Y103.546 E15.29489
G1 X104.332 Y103.977 F9600
G1 F1800
G1 X104.347 Y103.961 E15.29636
G1 X105.757 Y102.756 E15.42096
G1 X107.72 Y101.496 E15.57766
G1 X109.765 Y100.579 E15.72822
G1 X111.543 Y100.053 E15.85278
G1 X113.849 Y99.702 E16.00948
G1 X115.703 Y99.674 E16.13405
G1 X117.014 Y99.791 E16.22247
G1 X118.451 Y100.051 E16.32058
G1 X119.667 Y100.386 E16.40531
G1 X121.041 Y100.898 E16.50382
G1 X123.032 Y101.929 E16.65445
G1 X124.195 Y102.72 E16.74894
G1 X125.213 Y103.553 E16.83731
G1 X160.444 Y138.748 E20.1828
G1 X161.369 Y139.78 E20.2759
G1 X162.143 Y140.811 E20.36251
G1 X163.083 Y142.37 E20.48481
G1 X163.702 Y143.699 E20.5833
G1 X164.147 Y144.938 E20.67174
G1 X164.578 Y146.679 E20.79223
G1 X164.779 Y148.131 E20.89071
G1 X164.84 Y149.446 E20.97915
G1 X164.775 Y150.909 E21.07753
G1 X164.505 Y152.684 E21.19815
G1 X164.177 Y153.959 E21.28659
G1 X163.685 Y155.34 E21.38508
G1 X162.905 Y156.956 E21.50563
G1 X162.217 Y158.077 E21.59399
G1 X161.34 Y159.252 E21.69249
G1 X160.461 Y160.231 E21.78088
G1 X159.39 Y161.225 E21.87904
G1 X157.948 Y162.302 E21.99995
G1 X155.992 Y163.397 E22.15054
G1 X153.81 Y164.22 E22.30721
G1 X151.618 Y164.692 E22.45784
G1 X149.234 Y164.837 E22.61829
G1 X147.057 Y164.643 E22.76512
G1 X144.732 Y164.079 E22.92584
G1 X142.712 Y163.255 E23.0724
G1 X140.656 Y162.033 E23.23308
G1 X139.614 Y161.229 E23.3215
G1 X138.701 Y160.395 E23.40457
G1 X104.184 Y125.879 E26.68389
G1 X103.199 Y124.799 E26.78209
G1 X102.317 Y123.627 E26.88063
G1 X101.368 Y122.034 E27.0052
G1 X100.508 Y120.029 E27.15176
G1 X99.902 Y117.715 E27.31246
G1 X99.685 Y115.873 E27.43706
G1 X99.716 Y113.691 E27.58366
G1 X100.105 Y111.331 E27.74434
G1 X100.776 Y109.255 E27.89091
G1 X101.573 Y107.581 E28.01547
G1 X102.887 Y105.585 E28.17601
G1 X104.292 Y104.022 E28.3172
G1 X104.772 Y104.453 F9600
G1 F1800
G1 X104.802 Y104.42 E28.3202
G1 X106.153 Y103.267 E28.43952
G1 X108.02 Y102.069 E28.58855
G1 X109.994 Y101.184 E28.73388
G1 X111.697 Y100.681 E28.85317
G1 X113.889 Y100.347 E29.00213
G1 X115.665 Y100.32 E29.12146
G1 X116.937 Y100.433 E29.20725
G1 X118.298 Y100.679 E29.30016
G1 X119.478 Y101.004 E29.38238
G1 X120.779 Y101.489 E29.47566
G1 X122.701 Y102.484 E29.62106
G1 X123.801 Y103.232 E29.71042
G1 X124.789 Y104.04 E29.79616
G1 X159.987 Y139.205 E33.13866
G1 X160.863 Y140.183 E33.22686
G1 X161.614 Y141.183 E33.31088
G1 X162.33 Y142.336 E33.40206
G1 X162.903 Y143.476 E33.48778
G1 X163.412 Y144.768 E33.58107
G1 X163.868 Y146.425 E33.69653
G1 X164.081 Y147.684 E33.78231
G1 X164.188 Y149.068 E33.87556
G1 X164.17 Y150.344 E33.96129
G1 X163.97 Y152.052 E34.07682
G1 X163.665 Y153.405 E34.17
G1 X163.272 Y154.62 E34.25579
G1 X162.728 Y155.897 E34.34904
G1 X161.89 Y157.398 E34.46453
G1 X161.157 Y158.444 E34.55034
G1 X160.261 Y159.504 E34.64358
G1 X159.352 Y160.4 E34.72933
G1 X158.012 Y161.476 E34.84478
G1 X156.061 Y162.646 E34.99761
G1 X154.084 Y163.459 E35.14122
G1 X151.905 Y163.994 E35.29195
G1 X149.75 Y164.19 E35.43732
G1 X148.42 Y164.152 E35.52671
G1 X147.152 Y164.003 E35.61248
G1 X144.941 Y163.467 E35.76532
G1 X142.991 Y162.672 E35.90679
G1 X141.035 Y161.509 E36.05967
G1 X140.024 Y160.729 E36.14545
G1 X139.158 Y159.938 E36.22424
G1 X104.641 Y125.422 E39.50356
G1 X103.691 Y124.379 E39.59834
G1 X102.856 Y123.27 E39.6916
G1 X101.946 Y121.745 E39.8109
G1 X101.116 Y119.809 E39.95241
G1 X100.54 Y117.608 E40.10525
G1 X100.33 Y115.844 E40.22459
G1 X100.36 Y113.738 E40.36609
G1 X100.73 Y111.494 E40.51888
G1 X101.378 Y109.489 E40.66044
G1 X102.142 Y107.886 E40.77974
G1 X103.393 Y105.988 E40.93245
G1 X104.732 Y104.498 E41.06703
G1 X105.212 Y104.929 F9600
G1 F1800
G1 X105.257 Y104.879 E41.07155
G1 X106.549 Y103.777 E41.18563
G1 X108.319 Y102.642 E41.32689
G1 X110.222 Y101.789 E41.46699
G1 X111.851 Y101.308 E41.5811
G1 X113.93 Y100.992 E41.72237
G1 X115.627 Y100.965 E41.83639
G1 X116.86 Y101.075 E41.91955
G1 X118.145 Y101.307 E42.00727
G1 X119.29 Y101.622 E42.08705
G1 X120.517 Y102.08 E42.17504
G1 X122.369 Y103.039 E42.31515
G1 X123.407 Y103.745 E42.39948
G1 X124.365 Y104.528 E42.4826
G1 X159.53 Y139.662 E45.82206
G1 X160.358 Y140.586 E45.90541
G1 X161.086 Y141.555 E45.98683
G1 X161.761 Y142.643 E46.07285
G1 X162.317 Y143.749 E46.15601
G1 X162.797 Y144.968 E46.24402
G1 X163.235 Y146.552 E46.35443
G1 X163.441 Y147.772 E46.43755
G1 X163.541 Y149.078 E46.52554
G1 X163.524 Y150.316 E46.60872
G1 X163.332 Y151.948 E46.71911
G1 X163.044 Y153.225 E46.80705
G1 X162.664 Y154.403 E46.8902
G1 X162.15 Y155.608 E46.97821
G1 X161.349 Y157.043 E47.08862
G1 X160.639 Y158.057 E47.17178
G1 X159.794 Y159.057 E47.25973
G1 X158.912 Y159.926 E47.34291
G1 X157.63 Y160.954 E47.4533
G1 X155.78 Y162.064 E47.59824
G1 X153.875 Y162.847 E47.73661
G1 X151.808 Y163.355 E47.8796
G1 X149.73 Y163.544 E48.01978
G1 X148.476 Y163.508 E48.10406
G1 X147.247 Y163.364 E48.18719
G1 X145.15 Y162.856 E48.33214
G1 X143.269 Y162.088 E48.46863
G1 X141.414 Y160.986 E48.61358
G1 X139.615 Y159.481 E48.77115
G1 X105.098 Y124.965 E52.05047
G1 X104.182 Y123.96 E52.14182
G1 X103.395 Y122.914 E52.22976
G1 X102.524 Y121.456 E52.34386
G1 X101.724 Y119.589 E52.48032
G1 X101.267 Y117.954 E52.59437
G1 X100.976 Y115.816 E52.73933
G1 X101.005 Y113.785 E52.87579
G1 X101.356 Y111.656 E53.02075
G1 X101.981 Y109.724 E53.15716
G1 X102.712 Y108.191 E53.27126
G1 X103.898 Y106.391 E53.41607
G1 X105.172 Y104.974 E53.54408
G1 X105.652 Y105.405 F9600
G1 F1800
G1 X105.712 Y105.338 E53.55012
G1 X106.945 Y104.288 E53.65892
G1 X108.619 Y103.215 E53.7925
G1 X110.45 Y102.393 E53.92733
G1 X112.004 Y101.936 E54.03615
G1 X113.97 Y101.637 E54.16975
G1 X115.59 Y101.61 E54.2786
G1 X116.784 Y101.716 E54.35913
G1 X117.991 Y101.935 E54.44154
G1 X119.101 Y102.24 E54.51887
G1 X120.255 Y102.671 E54.60163
G1 X122.038 Y103.594 E54.73651
G1 X123.013 Y104.257 E54.81572
G1 X123.941 Y105.016 E54.89626
G1 X159.073 Y140.119 E58.23268
G1 X160.347 Y141.628 E58.36535
G1 X161.193 Y142.951 E58.47085
G1 X161.731 Y144.022 E58.55137
G1 X162.182 Y145.168 E58.63411
G1 X162.601 Y146.679 E58.73945
G1 X162.801 Y147.861 E58.81999
G1 X162.895 Y149.089 E58.90273
G1 X162.878 Y150.287 E58.98322
G1 X162.694 Y151.844 E59.08855
G1 X162.423 Y153.045 E59.17126
G1 X162.055 Y154.186 E59.2518
G1 X161.572 Y155.319 E59.33454
G1 X160.809 Y156.689 E59.43989
G1 X160.121 Y157.67 E59.52039
G1 X159.326 Y158.611 E59.60315
G1 X158.473 Y159.453 E59.68367
G1 X157.249 Y160.432 E59.78897
G1 X155.499 Y161.482 E59.92607
G1 X153.666 Y162.236 E60.05922
G1 X151.71 Y162.716 E60.19452
G1 X149.711 Y162.898 E60.32937
G1 X148.532 Y162.864 E60.40861
G1 X147.341 Y162.725 E60.48916
G1 X145.358 Y162.244 E60.62624
G1 X143.548 Y161.505 E60.75758
G1 X141.794 Y160.462 E60.89467
G1 X140.072 Y159.024 E61.04539
G1 X105.555 Y124.508 E64.32471
G1 X104.177 Y122.901 E64.46692
G1 X103.102 Y121.167 E64.60398
G1 X102.332 Y119.369 E64.73538
G1 X101.815 Y117.395 E64.87247
G1 X101.622 Y115.787 E64.98127
G1 X101.65 Y113.832 E65.11262
G1 X101.981 Y111.818 E65.24974
G1 X102.583 Y109.958 E65.38108
G1 X103.282 Y108.497 E65.48989
G1 X104.403 Y106.794 E65.62686
G1 X105.612 Y105.45 E65.74831
G1 X106.092 Y105.881 F9600
G1 F1800
G1 X106.166 Y105.798 E65.75578
G1 X107.341 Y104.799 E65.85939
G1 X108.918 Y103.787 E65.98527
G1 X110.679 Y102.998 E66.11491
G1 X112.158 Y102.564 E66.21846
G1 X114.011 Y102.282 E66.34438
G1 X115.552 Y102.255 E66.44792
G1 X116.707 Y102.358 E66.52582
G1 X117.838 Y102.563 E66.60304
G1 X118.912 Y102.859 E66.67788
G1 X119.993 Y103.261 E66.75536
G1 X121.706 Y104.149 E66.88498
G1 X123.517 Y105.504 E67.03693
G1 X158.616 Y140.576 E70.37031
G1 X159.818 Y142 E70.4955
G1 X160.624 Y143.259 E70.59593
G1 X161.145 Y144.295 E70.67383
G1 X161.568 Y145.368 E70.75131
G1 X161.967 Y146.806 E70.85156
G1 X162.16 Y147.949 E70.92943
G1 X162.249 Y149.099 E71.00692
G1 X162.232 Y150.258 E71.08479
G1 X162.056 Y151.74 E71.18505
G1 X161.802 Y152.865 E71.26253
G1 X161.446 Y153.969 E71.34046
G1 X160.993 Y155.03 E71.41796
G1 X160.268 Y156.334 E71.51819
G1 X159.603 Y157.284 E71.59609
G1 X158.859 Y158.165 E71.67356
G1 X158.033 Y158.979 E71.75147
G1 X156.867 Y159.91 E71.85171
G1 X155.218 Y160.9 E71.98092
G1 X153.458 Y161.624 E72.10877
G1 X151.613 Y162.077 E72.2364
G1 X149.691 Y162.252 E72.36605
G1 X147.436 Y162.085 E72.51796
G1 X145.567 Y161.632 E72.64716
G1 X143.826 Y160.922 E72.77347
G1 X142.173 Y159.939 E72.90267
G1 X140.529 Y158.567 E73.04652
G1 X106.012 Y124.051 E76.32584
G1 X104.693 Y122.513 E76.46196
G1 X103.68 Y120.877 E76.59123
G1 X102.94 Y119.15 E76.71745
G1 X102.527 Y117.664 E76.82106
G1 X102.268 Y115.758 E76.95028
G1 X102.294 Y113.879 E77.07652
G1 X102.607 Y111.981 E77.20575
G1 X103.186 Y110.192 E77.33207
G1 X103.851 Y108.802 E77.43559
G1 X104.909 Y107.197 E77.56473
G1 X106.052 Y105.925 E77.67961
G1 E75.67961 F2400
G92 E0
G92 E0
G1 X144.646 Y148.614 F9600
G1 E2 F2400
;TYPE:Perimeter
;WIDTH:0.606548
G1 F1800
G1 X144.872 Y147.805 E2.04827
G1 X145.067 Y147.323 E2.07815
;WIDTH:0.599253
G1 X145.333 Y146.85 E2.10892
;WIDTH:0.587272
G1 X145.38 Y146.778 E2.11369
;WIDTH:0.59309
G1 X145.763 Y146.266 E2.14954
;WIDTH:0.595439
G1 X146.574 Y145.52 E2.21159
;WIDTH:0.608175
G1 X147.068 Y145.216 E2.24502
G1 X147.559 Y144.961 E2.27691
;WIDTH:0.602837
G1 X147.884 Y144.839 E2.29673
G1 X148.643 Y144.636 E2.34158
;WIDTH:0.608702
G1 X149.325 Y144.577 E2.38107
G1 X149.861 Y144.573 E2.41199
;WIDTH:0.592875
G1 X150.558 Y144.672 E2.45145
G1 X151.281 Y144.894 E2.49384
;WIDTH:0.590062
G1 X152.254 Y145.402 E2.55504
;WIDTH:0.608843
G1 X152.847 Y145.885 E2.59917
G1 X153.254 Y146.285 E2.6321
;WIDTH:0.607908
G1 X153.596 Y146.763 E2.66596
G1 X153.87 Y147.202 E2.69577
;WIDTH:0.588252
G1 X154.124 Y147.764 E2.73004
;WIDTH:0.598439
G1 X154.324 Y148.432 E2.76952
;WIDTH:0.601325
G1 X154.406 Y148.957 E2.79977
G1 X154.434 Y149.414 E2.82583
;WIDTH:0.595857
G1 X154.368 Y150.336 E2.87792
;WIDTH:0.602388
G1 X154.081 Y151.332 E2.93704
G1 X153.864 Y151.805 E2.96672
;WIDTH:0.600994
G1 X153.605 Y152.24 E2.99552
;WIDTH:0.588754
G1 X153.233 Y152.732 E3.02983
;WIDTH:0.60858
G1 X152.723 Y153.222 E3.07062
G1 X152.315 Y153.562 E3.10125
;WIDTH:0.595771
G1 X151.754 Y153.892 E3.13792
;WIDTH:0.594551
G1 X151.057 Y154.188 E3.18049
G1 X150.323 Y154.367 E3.22296
;WIDTH:0.595499
G1 X149.226 Y154.43 E3.28484
;WIDTH:0.608333
G1 X148.652 Y154.35 E3.31825
G1 X148.111 Y154.234 E3.35015
;WIDTH:0.593648
G1 X147.37 Y153.957 E3.39455
;WIDTH:0.599088
G1 X146.449 Y153.383 E3.45607
;WIDTH:0.601177
G1 X146.06 Y153.037 E3.4857
G1 X145.747 Y152.703 E3.51175
;WIDTH:0.58698
G1 X145.216 Y151.948 E3.56292
;WIDTH:0.593103
G1 X144.874 Y151.234 E3.60731
G1 X144.672 Y150.529 E3.64843
;WIDTH:0.59347
G1 X144.566 Y149.761 E3.69193
;WIDTH:0.598107
G1 X144.63 Y148.672 E3.75366
G1 X145.227 Y148.705 F9600
;TYPE:External perimeter
;WIDTH:0.699999
G1 F1800
G1 X145.444 Y147.986 E3.80411
G1 X145.59 Y147.607 E3.8314
G1 X145.851 Y147.133 E3.86775
G1 X146.236 Y146.624 E3.91062
G1 X146.969 Y145.963 E3.97693
G1 X147.841 Y145.479 E4.04393
G1 X148.8 Y145.207 E4.1109
G1 X149.858 Y145.164 E4.18204
G1 X150.467 Y145.258 E4.22344
G1 X151.103 Y145.455 E4.26817
G1 X151.972 Y145.921 E4.33441
G1 X152.771 Y146.634 E4.40635
G1 X153.302 Y147.389 E4.46836
G1 X153.585 Y148.006 E4.51396
G1 X153.749 Y148.59 E4.55471
G1 X153.845 Y149.307 E4.60331
G1 X153.764 Y150.356 E4.67399
G1 X153.512 Y151.152 E4.73008
G1 X153.164 Y151.842 E4.782
G1 X152.763 Y152.374 E4.82676
G1 X151.981 Y153.07 E4.89709
G1 X151.452 Y153.385 E4.93845
G1 X150.835 Y153.638 E4.98325
G1 X150.188 Y153.793 E5.02795
G1 X149.204 Y153.836 E5.09412
G1 X148.224 Y153.655 E5.16107
G1 X147.592 Y153.407 E5.20668
G1 X146.773 Y152.883 E5.272
G1 X146.269 Y152.41 E5.31843
G1 X145.667 Y151.554 E5.38873
G1 X145.415 Y150.991 E5.43017
G1 X145.24 Y150.373 E5.47332
G1 X145.155 Y149.691 E5.51949
G1 X145.221 Y148.764 E5.58192
G1 X145.327 Y148.378 F9600
G1 E3.58192 F2400
G92 E0
G1 X149.671 Y144.035 F9600
G1 E2 F2400
;TYPE:Perimeter
;WIDTH:0.608702
G1 F1800
G1 X149.779 Y144.038 E2.00623
;WIDTH:0.601455
G1 X150.35 Y144.082 E2.03884
G1 X150.95 Y144.211 E2.07378
;WIDTH:0.604632
G1 X151.895 Y144.571 E2.13169
G1 X152.782 Y145.106 E2.19101
;WIDTH:0.608843
G1 X153.232 Y145.486 E2.225
G1 X153.693 Y145.963 E2.26328
;WIDTH:0.607908
G1 X154.044 Y146.437 E2.29726
G1 X154.238 Y146.768 E2.31936
;WIDTH:0.6002
G1 X154.528 Y147.316 E2.35458
G1 X154.679 Y147.743 E2.38031
;WIDTH:0.595416
G1 X154.866 Y148.373 E2.41732
;WIDTH:0.601325
G1 X154.951 Y148.921 E2.44889
G1 X154.967 Y149.43 E2.47788
;WIDTH:0.608812
G1 X154.961 Y149.942 E2.50743
G1 X154.842 Y150.698 E2.55159
;WIDTH:0.602388
G1 X154.606 Y151.491 E2.59878
G1 X154.461 Y151.826 E2.6196
;WIDTH:0.592842
G1 X154.138 Y152.396 E2.65632
;WIDTH:0.599943
G1 X153.805 Y152.89 E2.69015
G1 X153.484 Y153.243 E2.71724
;WIDTH:0.60858
G1 X153.077 Y153.649 E2.7504
G1 X152.555 Y154.049 E2.78833
;WIDTH:0.600071
G1 X151.701 Y154.521 E2.84375
G1 X151.041 Y154.756 E2.88354
;WIDTH:0.59906
G1 X150.136 Y154.943 E2.93593
G1 X149.134 Y154.972 E2.99276
;WIDTH:0.608333
G1 X148.526 Y154.89 E3.02813
G1 X147.541 Y154.62 E3.08701
;WIDTH:0.600912
G1 X146.93 Y154.338 E3.12529
;WIDTH:0.599088
G1 X146.154 Y153.842 E3.1775
G1 X145.939 Y153.663 E3.19336
;WIDTH:0.592939
G1 X145.396 Y153.113 E3.23668
;WIDTH:0.607863
G1 X145.04 Y152.678 E3.26906
G1 X144.767 Y152.234 E3.29908
;WIDTH:0.601373
G1 X144.51 Y151.77 E3.32928
G1 X144.287 Y151.199 E3.36418
;WIDTH:0.601854
G1 X144.063 Y150.202 E3.4224
G1 X144.02 Y149.546 E3.45986
;WIDTH:0.598107
G1 X144.087 Y148.63 E3.51183
G1 X144.162 Y148.308 E3.53054
;WIDTH:0.606548
G1 X144.354 Y147.613 E3.57198
G1 X144.584 Y147.067 E3.60603
;WIDTH:0.599253
G1 X144.847 Y146.627 E3.6351
;WIDTH:0.602073
G1 X145.134 Y146.182 E3.66528
G1 X145.532 Y145.715 E3.70026
;WIDTH:0.599037
G1 X146.301 Y145.043 E3.75815
;WIDTH:0.608175
