; generated by PrusaSlicer 2.9.1 on 2026-03-10 at 18:49:58 UTC

; 

; external perimeters extrusion width = 0.70mm
; perimeters extrusion width = 0.70mm
; infill extrusion width = 0.70mm
; solid infill extrusion width = 0.70mm
; top infill extrusion width = 0.70mm
; first layer extrusion width = 0.70mm

; external perimeters extrusion width = 0.70mm
; perimeters extrusion width = 0.70mm
; infill extrusion width = 0.70mm
; solid infill extrusion width = 0.70mm
; top infill extrusion width = 0.70mm
; first layer extrusion width = 0.70mm

; external perimeters extrusion width = 0.70mm
; perimeters extrusion width = 0.70mm
; infill extrusion width = 0.70mm
; solid infill extrusion width = 0.70mm
; top infill extrusion width = 0.70mm
; first layer extrusion width = 0.70mm

M190 S40 ; set bed temperature and wait for it to be reached
M104 S230 ; set temperature
;TYPE:Custom
G28 ; home all axes
G1 Z5 F5000 ; lift nozzle
M109 S230 ; set temperature and wait for it to be reached
G21 ; set units to millimeters
G90 ; use absolute coordinates
M82 ; use absolute distances for extrusion
G92 E0
; Filament gcode
M107
;LAYER_CHANGE
;Z:0.25
;HEIGHT:0.25
G1 E-2 F2400
G92 E0
G1 Z.25 F9600
G1 X87.936 Y50.77
G1 E2 F2400
;TYPE:Skirt/Brim
;WIDTH:0.7
G1 F1800
G1 X103.321 Y24.123 E4.0671
G1 X104.265 Y22.772 E4.17782
G1 X104.73 Y22.216 E4.22651
G1 X106.463 Y20.567 E4.38722
G1 X107.829 Y19.608 E4.49935
G1 X109.968 Y18.538 E4.66002
G1 X110.649 Y18.29 E4.70871
G1 X112.975 Y17.731 E4.86942
G1 X114.638 Y17.585 E4.98157
G1 X117.025 Y17.731 E5.14223
G1 X119.351 Y18.29 E5.30294
G1 X121.544 Y19.245 E5.46363
G1 X123.537 Y20.567 E5.6243
G1 X124.549 Y21.444 E5.71426
G1 X200.925 Y94.6 E12.81921
G1 X202.621 Y96.775 E13.0045
G1 X203.624 Y99.343 E13.18971
G1 X203.871 Y101.5 E13.33556
G1 X203.871 Y128.5 E15.14943
G1 X203.473 Y131.229 E15.3347
G1 X202.313 Y133.73 E15.51991
G1 X201.448 Y134.858 E15.61541
G1 X156.354 Y185.443 E20.16799
G1 X154.058 Y187.844 E20.39117
G1 X151.376 Y190.313 E20.63607
G1 X149.057 Y192.214 E20.83752
G1 X146.626 Y193.987 E21.03966
G1 X143.571 Y195.957 E21.28387
G1 X140.356 Y197.735 E21.53068
G1 X137.678 Y199.02 E21.73023
G1 X134.605 Y200.282 E21.95341
G1 X131.105 Y201.465 E22.20161
G1 X128.261 Y202.246 E22.39974
G1 X125.012 Y202.941 E22.62295
G1 X121.336 Y203.484 E22.87258
G1 X118.501 Y203.738 E23.0638
G1 X114.971 Y203.849 E23.30106
G1 X111.499 Y203.738 E23.53443
G1 X108.664 Y203.484 E23.72565
G1 X104.728 Y202.889 E23.99308
G1 X101.739 Y202.246 E24.19848
G1 X98.538 Y201.359 E24.42163
G1 X95.395 Y200.282 E24.64483
G1 X92.652 Y199.162 E24.84387
G1 X89.066 Y197.434 E25.11129
G1 X86.429 Y195.957 E25.31434
G1 X83.63 Y194.167 E25.53754
G1 X80.943 Y192.214 E25.7607
G1 X78.624 Y190.313 E25.96215
G1 X75.942 Y187.844 E26.20705
G1 X73.646 Y185.443 E26.43023
G1 X71.69 Y183.144 E26.63301
G1 X69.302 Y179.959 E26.90044
G1 X67.629 Y177.412 E27.10516
G1 X65.97 Y174.534 E27.32833
G1 X64.52 Y171.635 E27.54609
G1 X63.313 Y168.829 E27.7513
G1 X61.97 Y165.082 E28.0187
G1 X61.131 Y162.19 E28.221
G1 X60.392 Y158.951 E28.44419
G1 X59.847 Y155.674 E28.66736
G1 X59.527 Y152.682 E28.86951
G1 X59.347 Y148.706 E29.13689
G1 X59.396 Y145.729 E29.33691
G1 X59.672 Y142.146 E29.57833
G1 X66.16 Y90.725 E33.06019
G1 X66.359 Y89.535 E33.14124
G1 X67.043 Y87.243 E33.30193
G1 X67.741 Y85.749 E33.41271
G1 X87.906 Y50.822 E36.1221
G1 X88.466 Y51.145 F9600
G1 F1800
G1 X103.881 Y24.446 E38.19323
G1 X104.761 Y23.187 E38.29642
G1 X105.226 Y22.631 E38.34511
G1 X106.879 Y21.062 E38.49822
G1 X108.153 Y20.167 E38.60282
G1 X110.19 Y19.145 E38.75592
G1 X110.871 Y18.897 E38.80461
G1 X113.087 Y18.367 E38.95768
G1 X114.638 Y18.231 E39.06228
G1 X116.913 Y18.367 E39.21539
G1 X119.129 Y18.897 E39.36846
G1 X121.22 Y19.804 E39.52158
G1 X123.121 Y21.062 E39.67472
G1 X124.101 Y21.911 E39.76183
G1 X200.478 Y95.066 E46.86679
G1 X202.104 Y97.174 E47.04564
G1 X203.034 Y99.669 E47.22452
G1 X203.225 Y101.5 E47.34819
G1 X203.225 Y128.5 E49.16206
G1 X202.827 Y131.132 E49.34089
G1 X200.966 Y134.428 E49.59517
G1 X155.873 Y185.012 E54.14765
G1 X153.603 Y187.385 E54.36826
G1 X150.965 Y189.814 E54.60917
G1 X148.659 Y191.704 E54.80947
G1 X146.246 Y193.464 E55.01011
G1 X143.236 Y195.404 E55.25068
G1 X140.075 Y197.152 E55.49334
G1 X137.41 Y198.431 E55.69193
G1 X134.373 Y199.679 E55.91251
G1 X130.933 Y200.842 E56.15646
G1 X128.101 Y201.62 E56.35376
G1 X124.89 Y202.307 E56.57436
G1 X121.278 Y202.841 E56.81965
G1 X118.45 Y203.094 E57.01039
G1 X114.971 Y203.203 E57.24422
G1 X111.55 Y203.094 E57.47416
G1 X108.722 Y202.841 E57.6649
G1 X104.862 Y202.257 E57.92717
G1 X101.899 Y201.62 E58.13077
G1 X98.734 Y200.743 E58.35141
G1 X95.627 Y199.679 E58.57204
G1 X92.897 Y198.564 E58.77015
G1 X89.381 Y196.869 E59.03237
G1 X86.764 Y195.404 E59.23385
G1 X83.997 Y193.635 E59.45448
G1 X81.341 Y191.704 E59.67508
G1 X79.035 Y189.814 E59.87538
G1 X76.397 Y187.385 E60.11629
G1 X74.127 Y185.012 E60.3369
G1 X72.183 Y182.726 E60.5385
G1 X69.842 Y179.603 E60.8007
G1 X68.179 Y177.073 E61.0041
G1 X66.54 Y174.228 E61.22468
G1 X65.106 Y171.362 E61.43997
G1 X63.907 Y168.575 E61.64379
G1 X62.591 Y164.901 E61.90597
G1 X61.756 Y162.025 E62.10716
G1 X61.025 Y158.823 E62.32781
G1 X60.487 Y155.584 E62.54839
G1 X60.17 Y152.615 E62.74898
G1 X59.993 Y148.716 E63.01119
G1 X60.042 Y145.754 E63.21021
G1 X60.313 Y142.227 E63.44785
G1 X66.801 Y90.806 E66.92971
G1 X66.996 Y89.648 E67.0086
G1 X67.65 Y87.465 E67.16169
G1 X68.301 Y86.073 E67.26493
G1 X88.436 Y51.197 E69.97035
G1 X88.996 Y51.52 F9600
G1 F1800
G1 X104.44 Y24.769 E72.04548
G1 X105.257 Y23.601 E72.14124
G1 X105.722 Y23.045 E72.18993
G1 X107.295 Y21.556 E72.33544
G1 X108.476 Y20.727 E72.43238
G1 X110.411 Y19.753 E72.57791
G1 X111.092 Y19.504 E72.62662
G1 X113.2 Y19.004 E72.77217
G1 X114.638 Y18.878 E72.86915
G1 X116.8 Y19.004 E73.01464
G1 X118.908 Y19.504 E73.16019
G1 X120.896 Y20.364 E73.30571
G1 X122.705 Y21.556 E73.45125
G1 X123.654 Y22.378 E73.53559
G1 X200.031 Y95.533 E80.64055
G1 X201.585 Y97.572 E80.81278
G1 X202.439 Y99.989 E80.98499
G1 X202.578 Y101.5 E81.08693
G1 X202.578 Y128.5 E82.9008
G1 X202.181 Y131.032 E83.07298
G1 X200.483 Y133.998 E83.30258
G1 X155.391 Y184.58 E87.85492
G1 X153.148 Y186.926 E88.07297
G1 X150.555 Y189.315 E88.30983
G1 X148.261 Y191.195 E88.50908
G1 X145.866 Y192.941 E88.70819
G1 X142.901 Y194.851 E88.94513
G1 X139.795 Y196.57 E89.18362
G1 X137.143 Y197.843 E89.38124
G1 X134.141 Y199.076 E89.59926
G1 X130.761 Y200.219 E89.83896
G1 X127.942 Y200.994 E90.03537
G1 X124.768 Y201.672 E90.25341
G1 X121.221 Y202.197 E90.49429
G1 X118.4 Y202.45 E90.68457
G1 X114.971 Y202.556 E90.91504
G1 X111.6 Y202.45 E91.14162
G1 X108.779 Y202.197 E91.3319
G1 X104.997 Y201.625 E91.58887
G1 X102.058 Y200.994 E91.79081
G1 X98.93 Y200.127 E92.00887
G1 X95.859 Y199.076 E92.22693
G1 X93.142 Y197.966 E92.4241
G1 X89.695 Y196.305 E92.68115
G1 X87.099 Y194.851 E92.88104
G1 X84.364 Y193.103 E93.0991
G1 X81.739 Y191.195 E93.31711
G1 X79.445 Y189.315 E93.51636
G1 X76.852 Y186.926 E93.75322
G1 X74.609 Y184.58 E93.97127
G1 X72.676 Y182.308 E94.17167
G1 X70.381 Y179.246 E94.42874
G1 X68.729 Y176.733 E94.63078
G1 X67.109 Y173.921 E94.8488
G1 X65.692 Y171.09 E95.06148
G1 X64.502 Y168.321 E95.26395
G1 X63.211 Y164.72 E95.52094
G1 X62.381 Y161.86 E95.721
G1 X61.659 Y158.696 E95.93902
G1 X61.127 Y155.494 E96.15708
G1 X60.812 Y152.547 E96.35619
G1 X60.64 Y148.725 E96.61321
G1 X60.688 Y145.778 E96.81122
G1 X60.955 Y142.308 E97.04502
G1 X67.442 Y90.887 E100.52688
G1 X67.632 Y89.761 E100.60359
G1 X68.257 Y87.687 E100.74911
G1 X68.86 Y86.396 E100.84483
G1 X88.966 Y51.572 E103.54625
G1 X89.526 Y51.895 F9600
G1 F1800
G1 X105 Y25.093 E105.62536
G1 X105.753 Y24.016 E105.71364
G1 X106.218 Y23.46 E105.76233
G1 X107.711 Y22.051 E105.90024
G1 X108.834 Y21.267 E105.99225
G1 X110.633 Y20.36 E106.1276
G1 X112.598 Y19.766 E106.26551
G1 X113.312 Y19.64 E106.31422
G1 X114.638 Y19.524 E106.40364
G1 X116.688 Y19.64 E106.54158
G1 X118.686 Y20.111 E106.67949
G1 X120.572 Y20.923 E106.81744
G1 X122.289 Y22.051 E106.95545
G1 X123.207 Y22.844 E107.03695
G1 X199.584 Y96 E114.14195
G1 X201.063 Y97.966 E114.30723
G1 X201.932 Y101.5 E114.55172
G1 X201.932 Y128.5 E116.36559
G1 X201.535 Y130.928 E116.53087
G1 X200.001 Y133.568 E116.73599
G1 X154.91 Y184.149 E121.28823
G1 X152.692 Y186.467 E121.50376
G1 X150.144 Y188.816 E121.73658
G1 X147.863 Y190.685 E121.93469
G1 X145.487 Y192.418 E122.13226
G1 X142.566 Y194.298 E122.36562
G1 X139.514 Y195.988 E122.59999
G1 X136.875 Y197.254 E122.79662
G1 X133.908 Y198.473 E123.01211
G1 X130.589 Y199.596 E123.2475
G1 X127.782 Y200.367 E123.44306
G1 X124.645 Y201.037 E123.65856
G1 X121.163 Y201.553 E123.89504
G1 X118.349 Y201.805 E124.08484
G1 X114.971 Y201.91 E124.31188
G1 X111.651 Y201.805 E124.53503
G1 X108.837 Y201.553 E124.72483
G1 X105.131 Y200.993 E124.97663
G1 X102.218 Y200.367 E125.17679
G1 X99.126 Y199.511 E125.39232
G1 X96.092 Y198.473 E125.60774
G1 X93.387 Y197.368 E125.80404
G1 X90.01 Y195.74 E126.05589
G1 X87.434 Y194.298 E126.25422
G1 X84.731 Y192.571 E126.46971
G1 X81.924 Y190.516 E126.70342
G1 X79.659 Y188.648 E126.90066
G1 X77.308 Y186.467 E127.1161
G1 X75.09 Y184.149 E127.33163
G1 X73.169 Y181.89 E127.53084
G1 X70.92 Y178.89 E127.78273
G1 X69.279 Y176.393 E127.98346
G1 X67.678 Y173.615 E128.19886
G1 X66.278 Y170.818 E128.40899
G1 X65.096 Y168.067 E128.61014
G1 X63.831 Y164.539 E128.86193
G1 X63.006 Y161.696 E129.0608
G1 X62.293 Y158.568 E129.27633
G1 X61.767 Y155.404 E129.49181
G1 X61.455 Y152.48 E129.68936
G1 X61.286 Y148.735 E129.94121
G1 X61.334 Y145.803 E130.13821
G1 X61.596 Y142.389 E130.36824
G1 X68.084 Y90.968 E133.8501
G1 X68.268 Y89.874 E133.92463
G1 X68.864 Y87.909 E134.06258
G1 X69.42 Y86.719 E134.15082
G1 X89.496 Y51.947 E136.8482
G1 X90.055 Y52.271 F9600
G1 F1800
G1 X105.56 Y25.416 E138.93143
G1 X106.714 Y23.874 E139.06082
G1 X108.128 Y22.545 E139.19118
G1 X109.124 Y21.846 E139.27293
G1 X110.854 Y20.967 E139.40329
G1 X112.711 Y20.403 E139.53367
G1 X113.425 Y20.277 E139.58238
G1 X114.638 Y20.17 E139.66419
G1 X116.575 Y20.277 E139.79452
G1 X118.465 Y20.719 E139.92492
G1 X120.249 Y21.483 E140.0553
G1 X121.872 Y22.545 E140.1856
G1 X122.76 Y23.311 E140.26438
G1 X199.137 Y96.467 E147.36938
G1 X200.537 Y98.358 E147.52744
G1 X201.286 Y101.5 E147.74443
G1 X201.286 Y128.5 E149.5583
G1 X200.888 Y130.819 E149.71637
G1 X199.519 Y133.138 E149.89728
G1 X154.428 Y183.718 E154.44947
G1 X152.237 Y186.008 E154.66239
G1 X149.734 Y188.316 E154.89112
G1 X147.465 Y190.176 E155.08822
G1 X145.107 Y191.895 E155.28426
G1 X142.231 Y193.746 E155.51403
G1 X139.234 Y195.405 E155.74416
G1 X136.608 Y196.666 E155.93986
G1 X133.676 Y197.869 E156.15277
G1 X130.417 Y198.973 E156.38393
G1 X127.623 Y199.741 E156.57859
G1 X124.523 Y200.402 E156.79153
G1 X121.105 Y200.909 E157.02366
G1 X118.298 Y201.161 E157.21299
G1 X114.971 Y201.264 E157.43661
G1 X111.702 Y201.161 E157.65633
G1 X108.895 Y200.909 E157.84566
G1 X105.265 Y200.36 E158.0923
G1 X102.377 Y199.741 E158.29072
G1 X99.323 Y198.896 E158.5036
G1 X96.324 Y197.869 E158.71656
G1 X93.632 Y196.77 E158.9119
G1 X90.325 Y195.176 E159.15853
G1 X87.769 Y193.746 E159.35529
G1 X85.098 Y192.039 E159.56824
G1 X82.334 Y190.017 E159.79831
G1 X80.086 Y188.163 E159.99407
G1 X77.763 Y186.008 E160.20694
G1 X75.572 Y183.718 E160.41986
G1 X73.662 Y181.472 E160.61793
G1 X71.46 Y178.534 E160.86459
G1 X69.829 Y176.054 E161.064
G1 X68.247 Y173.308 E161.2769
G1 X66.865 Y170.545 E161.48444
G1 X65.69 Y167.813 E161.68423
G1 X64.452 Y164.357 E161.93085
G1 X63.631 Y161.531 E162.12855
G1 X62.926 Y158.441 E162.34147
G1 X62.407 Y155.314 E162.55442
G1 X62.098 Y152.412 E162.75048
G1 X61.932 Y148.745 E162.99708
G1 X61.98 Y145.827 E163.19314
G1 X62.237 Y142.47 E163.41932
G1 X68.725 Y91.049 E166.90118
G1 X68.905 Y89.987 E166.97354
G1 X69.471 Y88.131 E167.1039
G1 X69.98 Y87.042 E167.18466
G1 X90.025 Y52.323 E169.87792
G1 X90.585 Y52.646 F9600
G1 F1800
G1 X106.12 Y25.739 E171.96519
G1 X107.209 Y24.289 E172.08701
G1 X108.544 Y23.04 E172.20983
G1 X109.482 Y22.385 E172.28669
G1 X111.076 Y21.574 E172.40684
G1 X112.823 Y21.039 E172.52958
G1 X113.537 Y20.913 E172.57829
G1 X114.638 Y20.817 E172.65254
G1 X116.463 Y20.913 E172.77531
G1 X118.243 Y21.326 E172.89807
G1 X119.925 Y22.042 E173.02088
G1 X121.456 Y23.04 E173.14366
G1 X122.313 Y23.778 E173.21964
G1 X198.69 Y96.934 E180.32464
G1 X200.008 Y98.745 E180.47511
G1 X200.639 Y101.5 E180.66498
G1 X200.639 Y128.5 E182.47885
G1 X200.242 Y130.705 E182.62936
G1 X199.036 Y132.708 E182.78643
G1 X153.947 Y183.287 E187.33848
G1 X151.782 Y185.549 E187.54883
G1 X149.323 Y187.817 E187.77356
G1 X147.068 Y189.667 E187.96951
G1 X144.727 Y191.372 E188.16407
G1 X141.896 Y193.193 E188.39021
G1 X138.954 Y194.823 E188.61616
G1 X136.341 Y196.078 E188.8109
G1 X133.444 Y197.266 E189.02125
G1 X130.245 Y198.35 E189.24816
G1 X127.464 Y199.115 E189.44193
G1 X124.401 Y199.768 E189.65233
G1 X121.047 Y200.266 E189.88012
G1 X118.29 Y200.513 E190.06608
G1 X114.971 Y200.617 E190.28916
G1 X111.752 Y200.516 E190.50552
G1 X108.953 Y200.266 E190.69431
G1 X105.4 Y199.728 E190.93572
G1 X102.536 Y199.115 E191.13248
G1 X99.519 Y198.28 E191.34278
G1 X96.556 Y197.266 E191.55317
G1 X93.877 Y196.172 E191.74757
G1 X90.64 Y194.611 E191.989
G1 X88.104 Y193.193 E192.18419
G1 X85.465 Y191.507 E192.39457
G1 X82.745 Y189.518 E192.62094
G1 X80.514 Y187.678 E192.81522
G1 X78.218 Y185.549 E193.02557
G1 X76.053 Y183.287 E193.23592
G1 X74.155 Y181.054 E193.4328
G1 X71.999 Y178.178 E193.67427
G1 X70.379 Y175.714 E193.87237
G1 X68.816 Y173.002 E194.08265
G1 X67.451 Y170.273 E194.28764
G1 X66.285 Y167.559 E194.48608
G1 X65.072 Y164.176 E194.72752
G1 X64.256 Y161.366 E194.92409
G1 X63.56 Y158.314 E195.13439
G1 X63.047 Y155.225 E195.34475
G1 X62.741 Y152.344 E195.53938
G1 X62.579 Y148.754 E195.7808
G1 X62.626 Y145.852 E195.97578
G1 X62.879 Y142.551 E196.19819
G1 X69.366 Y91.13 E199.68005
G1 X69.541 Y90.101 E199.75017
G1 X70.078 Y88.353 E199.87302
G1 X70.54 Y87.365 E199.94629
G1 X90.555 Y52.698 E202.63551
G1 E200.63551 F2400
G92 E0
G92 E0
G1 X110.973 Y62.743 F9600
G1 E2 F2400
;TYPE:External perimeter
;WIDTH:0.699999
G1 F1800
G1 X110.995 Y62.632 E2.0076
G1 X111.085 Y62.488 E2.01901
G1 X111.385 Y62.252 E2.04465
G1 X112.365 Y61.942 E2.1137
G1 X113.434 Y61.72 E2.18705
G1 X114.455 Y61.615 E2.256
G1 X115 Y61.613 E2.29261
G1 X115.53 Y61.615 E2.32822
G1 X116.569 Y61.72 E2.39838
G1 X117.348 Y61.88 E2.45181
G1 X118.613 Y62.252 E2.54039
G1 X118.912 Y62.483 E2.56577
G1 X119.015 Y62.68 E2.5807
G1 X119.013 Y63.085 E2.60791
G1 X116.604 Y66.841 E2.90768
G1 X116.408 Y66.985 E2.92402
;WIDTH:0.704398
G1 X116.079 Y67.08 E2.94718
G1 X115.349 Y66.984 E2.99698
;WIDTH:0.699414
G1 X114.683 Y66.981 E3.04168
;WIDTH:0.69844
G1 X114.157 Y67.032 E3.0771
;WIDTH:0.701181
G1 X113.836 Y67.067 E3.09883
G1 X113.61 Y67.004 E3.11462
;WIDTH:0.699999
G1 X113.348 Y66.783 E3.13765
G1 X111.021 Y63.153 E3.42732
G1 X110.951 Y62.853 E3.44802
G1 X110.961 Y62.802 E3.45151
G1 X111.156 Y62.453 F9600
G1 E1.45151 F2400
G92 E0
G1 X104.648 Y65.859 F9600
G1 E2 F2400
G1 F1800
G1 X104.013 Y65.63 E2.04535
G1 X103.409 Y65.262 E2.09286
G1 X102.892 Y64.779 E2.14039
G1 X102.482 Y64.201 E2.188
G1 X102.197 Y63.554 E2.2355
G1 X102.048 Y62.862 E2.28305
G1 X102.048 Y62.089 E2.33498
G1 X102.177 Y61.459 E2.37818
;WIDTH:0.734222
G1 X102.252 Y61.234 E2.39496
;WIDTH:0.768445
G1 X102.328 Y61.01 E2.41253
;WIDTH:0.802667
G1 X102.403 Y60.786 E2.43092
;WIDTH:0.844321
G1 X102.423 Y60.707 E2.43762
G1 X102.806 Y60.191 E2.49043
;WIDTH:0.805256
G1 X103.322 Y59.692 E2.54651
;WIDTH:0.801625
G1 X103.527 Y59.581 E2.56463
;WIDTH:0.76775
G1 X103.731 Y59.471 E2.58183
;WIDTH:0.733875
G1 X103.935 Y59.361 E2.59822
;WIDTH:0.699999
G1 X104.638 Y59.093 E2.64876
G1 X105.315 Y58.983 E2.69484
G1 X106.022 Y59.012 E2.74238
G1 X106.709 Y59.183 E2.78994
G1 X107.348 Y59.489 E2.83754
G1 X107.911 Y59.917 E2.88505
G1 X108.378 Y60.45 E2.93266
G1 X108.727 Y61.065 E2.98016
G1 X108.955 Y61.778 E3.03045
G1 X109.023 Y62.442 E3.07529
G1 X108.958 Y63.147 E3.12285
G1 X108.753 Y63.825 E3.17043
G1 X108.415 Y64.447 E3.21799
G1 X107.959 Y64.988 E3.26552
G1 X107.403 Y65.427 E3.31311
G1 X106.77 Y65.744 E3.36067
