; generated by PrusaSlicer 2.9.1 on 2026-04-03 at 17:45:50 UTC

; 

; external perimeters extrusion width = 0.75mm
; perimeters extrusion width = 0.75mm
; infill extrusion width = 0.75mm
; solid infill extrusion width = 0.75mm
; top infill extrusion width = 0.75mm
; first layer extrusion width = 0.75mm

M190 S60 ; set bed temperature and wait for it to be reached
M104 S240 ; set temperature
;TYPE:Custom
G28 ; home all axes
G1 Z5 F5000 ; lift nozzle
M109 S240 ; set temperature and wait for it to be reached
G21 ; set units to millimeters
G90 ; use absolute coordinates
M82 ; use absolute distances for extrusion
G92 E0
; Filament gcode
M107
;LAYER_CHANGE
;Z:0.25
;HEIGHT:0.25
G1 E-2 F2400
G92 E0
G1 Z.25 F9600
G1 X26.333 Y27.724
G1 E2 F2400
;TYPE:Skirt/Brim
;WIDTH:0.75
G1 F1800
G1 X50.337 Y4.925 E4.39609
G1 X50.726 Y4.675 E4.42956
G1 X51.475 Y4.429 E4.48662
G1 X52.772 Y4.429 E4.58049
G1 X53.086 Y4.501 E4.60381
G1 X53.86 Y4.885 E4.66635
G1 X57.251 Y8.093 E5.00421
G1 X60.345 Y10.567 E5.29093
G1 X64.28 Y13.219 E5.63438
G1 X64.907 Y14.134 E5.71466
G1 X65.175 Y15.26 E5.79843
G1 X65.189 Y15.723 E5.83196
G1 X64.958 Y16.617 E5.89879
G1 X46.028 Y48.347 E8.57296
G1 X45.7 Y48.707 E8.60821
G1 X45.248 Y49.032 E8.6485
G1 X44.628 Y49.298 E8.69733
G1 X44.196 Y53.249 E8.985
G1 X43.801 Y59.129 E9.41154
G1 X43.676 Y62.573 E9.66097
G1 X43.633 Y68.931 E10.12115
G1 X43.94 Y76.465 E10.66689
G1 X44.238 Y80.208 E10.93865
G1 X44.658 Y84.103 E11.22219
G1 X45.22 Y88.136 E11.51691
G1 X45.794 Y91.537 E11.76655
G1 X46.581 Y95.511 E12.05976
G1 X47.547 Y99.674 E12.36907
G1 X49.464 Y106.56 E12.88641
G1 X51.531 Y112.736 E13.35778
G1 X52.674 Y115.8 E13.59447
G1 X54.878 Y121.231 E14.01869
G1 X56.623 Y125.143 E14.32872
G1 X58.958 Y130.025 E14.7204
G1 X62.335 Y136.402 E15.24267
G1 X66.061 Y142.684 E15.7713
G1 X69.29 Y147.56 E16.19458
G1 X72.246 Y151.656 E16.56018
G1 X74.618 Y154.677 E16.83818
G1 X77.683 Y158.28 E17.18055
G1 X81.031 Y161.871 E17.53589
G1 X84.362 Y165.141 E17.87373
G1 X87.996 Y168.397 E18.22688
G1 X91.964 Y171.629 E18.59728
G1 X94.658 Y173.657 E18.84134
G1 X99.188 Y176.782 E19.23965
G1 X102.182 Y178.681 E19.49626
G1 X107.234 Y181.592 E19.91827
G1 X113.887 Y184.954 E20.45779
G1 X119.491 Y187.4 E20.90034
G1 X123.564 Y188.966 E21.21617
G1 X130.493 Y191.323 E21.74589
G1 X135.846 Y192.859 E22.14896
G1 X141.218 Y194.184 E22.54942
G1 X146.587 Y195.312 E22.9465
G1 X152.329 Y196.323 E23.36848
G1 X158.087 Y197.148 E23.78948
G1 X163.894 Y197.805 E24.21246
G1 X169.508 Y198.287 E24.62028
G1 X174.909 Y198.62 E25.01193
G1 X184.349 Y198.916 E25.69551
G1 X191.73 Y195.646 E26.2798
G1 X199.053 Y192.094 E26.86888
G1 X206.269 Y188.293 E27.45918
G1 X213.777 Y184.014 E28.08465
G1 X214.3 Y183.856 E28.12419
G1 X214.852 Y183.818 E28.16424
G1 X215.393 Y183.904 E28.20389
G1 X216.672 Y184.436 E28.30415
G1 X217.352 Y185.078 E28.37184
G1 X217.622 Y185.553 E28.41139
G1 X218.961 Y190.201 E28.76148
G1 X218.872 Y191.026 E28.82154
G1 X218.49 Y191.972 E28.89538
G1 X217.941 Y192.66 E28.95909
G1 X209.004 Y197.724 E29.70255
G1 X200.485 Y202.097 E30.39562
G1 X191.813 Y206.146 E31.08832
G1 X182.982 Y209.872 E31.78204
G1 X173.989 Y213.275 E32.47797
G1 X164.88 Y216.335 E33.17346
G1 X155.167 Y219.197 E33.90634
G1 X154.687 Y219.232 E33.94117
G1 X153.966 Y219.105 E33.99416
G1 X153.596 Y218.944 E34.02336
G1 X152.526 Y218.167 E34.11907
G1 X152.161 Y217.739 E34.15978
G1 X151.868 Y217.154 E34.20713
G1 X151.725 Y216.623 E34.24693
G1 X147.676 Y217.679 E34.54979
G1 X139.51 Y219.522 E35.15569
G1 X131.215 Y221.105 E35.76689
G1 X122.251 Y222.504 E36.42353
G1 X121.768 Y222.476 E36.45855
G1 X121.068 Y222.253 E36.51172
G1 X120.721 Y222.042 E36.54111
G1 X119.76 Y221.122 E36.6374
G1 X119.492 Y220.72 E36.67237
G1 X119.208 Y219.724 E36.74733
G1 X119.4 Y218.042 E36.86986
G1 X119.576 Y217.517 E36.90994
G1 X119.874 Y216.983 E36.9542
G1 X120.273 Y216.512 E36.99888
G1 X122.272 Y214.956 E37.18223
G1 X122.951 Y214.611 E37.23735
G1 X132.018 Y213.068 E37.90303
G1 X140.163 Y211.438 E38.50423
G1 X148.302 Y209.516 E39.10951
G1 X156.562 Y207.266 E39.72913
G1 X156.528 Y206.701 E39.7701
G1 X152.264 Y206.079 E40.08198
G1 X147.31 Y205.23 E40.44576
G1 X142.341 Y204.242 E40.81244
G1 X136.861 Y202.979 E41.21946
G1 X132.011 Y201.707 E41.58236
G1 X127.248 Y200.298 E41.94186
G1 X122.525 Y198.733 E42.30197
G1 X117.341 Y196.806 E42.70226
G1 X112.807 Y194.929 E43.05743
G1 X108.329 Y192.881 E43.41382
G1 X103.451 Y190.416 E43.80939
G1 X99.137 Y188.014 E44.16676
G1 X94.425 Y185.127 E44.56672
G1 X90.434 Y182.454 E44.91438
G1 X86.612 Y179.67 E45.25661
G1 X82.624 Y176.512 E45.62479
G1 X79.299 Y173.659 E45.94189
G1 X76.21 Y170.804 E46.24633
G1 X73.306 Y167.923 E46.5424
G1 X70.231 Y164.651 E46.86739
G1 X65.48 Y159.049 E47.39903
G1 X61.354 Y153.563 E47.89586
G1 X59.512 Y150.895 E48.13051
G1 X56.47 Y146.157 E48.53803
G1 X53.158 Y140.485 E49.01342
G1 X50.015 Y134.524 E49.50116
G1 X47.09 Y128.373 E49.99412
G1 X44.399 Y122.061 E50.49075
G1 X41.973 Y115.646 E50.98714
G1 X39.809 Y109.082 E51.48738
G1 X37.877 Y102.121 E52.01024
G1 X36.45 Y95.834 E52.47685
G1 X35.345 Y89.648 E52.93166
G1 X34.524 Y83.473 E53.38252
G1 X33.979 Y77.4 E53.82383
G1 X33.683 Y71.389 E54.25942
G1 X33.645 Y63.852 E54.80493
G1 X33.765 Y59.786 E55.09934
G1 X34.105 Y54.132 E55.5093
G1 X34.69 Y47.937 E55.95967
G1 X35.16 Y44.342 E56.22208
G1 X32.276 Y42.169 E56.48343
G1 X28.005 Y38.509 E56.89053
G1 X23.517 Y34.138 E57.34396
G1 X23.242 Y33.733 E57.37939
G1 X22.963 Y32.867 E57.44524
G1 X22.971 Y31.636 E57.53434
G1 X23.047 Y31.284 E57.5604
G1 X23.262 Y30.775 E57.60039
G1 X23.541 Y30.375 E57.63569
G1 X26.289 Y27.765 E57.90999
G1 X26.769 Y28.27 F9600
G1 F1800
G1 X50.792 Y5.452 E60.30803
G1 X51.584 Y5.118 E60.37024
G1 X52.663 Y5.118 E60.44833
G1 X53.455 Y5.452 E60.51054
G1 X56.793 Y8.618 E60.84352
G1 X59.933 Y11.129 E61.13451
G1 X63.807 Y13.731 E61.47227
G1 X64.259 Y14.391 E61.53017
G1 X64.497 Y15.646 E61.62262
G1 X64.343 Y16.289 E61.67047
G1 X45.447 Y47.96 E64.33972
G1 X44.871 Y48.446 E64.39427
G1 X43.993 Y48.696 E64.46034
G1 X43.503 Y53.188 E64.78739
G1 X43.106 Y59.09 E65.21553
G1 X42.98 Y62.559 E65.46677
G1 X42.937 Y68.943 E65.92884
G1 X43.245 Y76.511 E66.47704
G1 X43.544 Y80.273 E66.75018
G1 X43.967 Y84.189 E67.03526
G1 X44.532 Y88.242 E67.33144
G1 X45.109 Y91.663 E67.58254
G1 X45.9 Y95.657 E67.87723
G1 X46.871 Y99.842 E68.18817
G1 X48.798 Y106.763 E68.70815
G1 X50.873 Y112.965 E69.18149
G1 X52.024 Y116.05 E69.41981
G1 X54.237 Y121.503 E69.84575
G1 X55.992 Y125.436 E70.15746
G1 X58.335 Y130.337 E70.55063
G1 X61.729 Y136.744 E71.0754
G1 X65.469 Y143.051 E71.60611
G1 X68.717 Y147.955 E72.03184
G1 X71.691 Y152.078 E72.39978
G1 X74.078 Y155.118 E72.67953
G1 X77.162 Y158.742 E73.02394
G1 X80.534 Y162.358 E73.38179
G1 X83.885 Y165.648 E73.72168
G1 X87.543 Y168.927 E74.07723
G1 X91.539 Y172.18 E74.45017
G1 X94.248 Y174.22 E74.69562
G1 X98.808 Y177.366 E75.09658
G1 X101.823 Y179.277 E75.35494
G1 X106.891 Y182.198 E75.77831
G1 X113.595 Y185.586 E76.32197
G1 X119.23 Y188.046 E76.76699
G1 X123.318 Y189.617 E77.08396
G1 X130.287 Y191.988 E77.61675
G1 X135.667 Y193.532 E78.02186
G1 X141.063 Y194.863 E78.42411
G1 X146.455 Y195.995 E78.82288
G1 X152.22 Y197.011 E79.24656
G1 X157.999 Y197.839 E79.6691
G1 X163.825 Y198.498 E80.09346
G1 X169.457 Y198.981 E80.50258
G1 X174.874 Y199.316 E80.8954
G1 X184.489 Y199.615 E81.59164
G1 X192.023 Y196.278 E82.18802
G1 X199.367 Y192.715 E82.77881
G1 X206.603 Y188.904 E83.37073
G1 X214.088 Y184.639 E83.99425
G1 X214.861 Y184.516 E84.0509
G1 X215.168 Y184.564 E84.07339
G1 X216.298 Y185.025 E84.16172
G1 X216.812 Y185.519 E84.21332
G1 X216.966 Y185.791 E84.23594
G1 X218.264 Y190.208 E84.56915
G1 X218.199 Y190.845 E84.61549
G1 X217.859 Y191.677 E84.68054
G1 X217.487 Y192.132 E84.72308
G1 X208.68 Y197.108 E85.45521
G1 X200.173 Y201.475 E86.14731
G1 X191.525 Y205.512 E86.83807
G1 X182.718 Y209.228 E87.52991
G1 X173.748 Y212.621 E88.22403
G1 X164.676 Y215.668 E88.91668
G1 X155.012 Y218.517 E89.64589
G1 X154.144 Y218.431 E89.70902
G1 X152.971 Y217.63 E89.81182
G1 X152.513 Y216.887 E89.87499
G1 X152.444 Y215.716 E89.95989
G1 X147.517 Y217.001 E90.32842
G1 X139.373 Y218.839 E90.93268
G1 X131.101 Y220.418 E91.54219
G1 X122.187 Y221.81 E92.19518
G1 X121.334 Y221.608 E92.25863
G1 X120.275 Y220.652 E92.36189
G1 X120.102 Y220.382 E92.3851
G1 X119.904 Y219.676 E92.43817
G1 X120.086 Y218.167 E92.54818
G1 X120.221 Y217.78 E92.57785
G1 X120.775 Y216.996 E92.64733
G1 X122.669 Y215.529 E92.82072
G1 X123.231 Y215.249 E92.86616
G1 X132.144 Y213.753 E93.52028
G1 X140.312 Y212.118 E94.12318
G1 X148.473 Y210.191 E94.73009
G1 X156.562 Y207.988 E95.33687
G1 X159.837 Y206.974 E95.58501
G1 X159.787 Y206.413 E95.62577
G1 X152.377 Y205.392 E96.16715
G1 X147.432 Y204.544 E96.53028
G1 X142.482 Y203.56 E96.89556
G1 X137.022 Y202.302 E97.30109
G1 X132.204 Y201.038 E97.6616
G1 X127.451 Y199.632 E98.02034
G1 X122.75 Y198.074 E98.37878
G1 X117.59 Y196.155 E98.77724
G1 X113.091 Y194.293 E99.12965
G1 X108.637 Y192.256 E99.48413
G1 X103.772 Y189.798 E99.87864
G1 X99.495 Y187.416 E100.23297
G1 X94.806 Y184.545 E100.63091
G1 X90.827 Y181.879 E100.97757
G1 X87.028 Y179.111 E101.31778
G1 X83.061 Y175.971 E101.68396
G1 X79.767 Y173.143 E101.99818
G1 X76.687 Y170.297 E102.3017
G1 X73.8 Y167.433 E102.59603
G1 X70.751 Y164.187 E102.91836
G1 X68.699 Y161.844 E103.14378
G1 X66.021 Y158.611 E103.44763
G1 X61.925 Y153.163 E103.94095
G1 X60.095 Y150.514 E104.17398
G1 X57.06 Y145.787 E104.58055
G1 X53.764 Y140.14 E105.05379
G1 X50.641 Y134.218 E105.53836
G1 X47.728 Y128.093 E106.02925
G1 X45.048 Y121.808 E106.52377
G1 X42.627 Y115.406 E107.01915
G1 X40.477 Y108.885 E107.51611
G1 X38.813 Y102.989 E107.95951
G1 X37.135 Y95.706 E108.50044
G1 X36.032 Y89.533 E108.9543
G1 X35.217 Y83.404 E109.4018
G1 X34.673 Y77.345 E109.8421
G1 X34.347 Y69.749 E110.39238
G1 X34.316 Y65.507 E110.69941
G1 X34.461 Y59.816 E111.11144
G1 X34.799 Y54.182 E111.51995
G1 X35.382 Y48.009 E111.96872
G1 X35.903 Y44.03 E112.25917
G1 X32.721 Y41.633 E112.54751
G1 X28.483 Y38.003 E112.95138
G1 X24.028 Y33.663 E113.40153
G1 X23.871 Y33.432 E113.42175
G1 X23.66 Y32.831 E113.46785
G1 X23.667 Y31.683 E113.55094
G1 X23.886 Y31.085 E113.59703
G1 X24.046 Y30.856 E113.61725
G1 X26.725 Y28.311 E113.88469
G1 X27.205 Y28.816 F9600
G1 F1800
G1 X51.248 Y5.98 E116.28468
G1 X51.679 Y5.808 E116.31827
G1 X52.634 Y5.82 E116.3874
G1 X53 Y5.98 E116.41631
G1 X56.335 Y9.143 E116.74898
G1 X59.521 Y11.691 E117.04425
G1 X63.344 Y14.252 E117.3773
G1 X63.606 Y14.634 E117.41083
G1 X63.804 Y15.569 E117.48
G1 X63.729 Y15.961 E117.50889
G1 X44.867 Y47.574 E120.17327
G1 X44.476 Y47.862 E120.20842
G1 X43.354 Y48.135 E120.292
G1 X42.809 Y53.127 E120.65545
G1 X42.41 Y59.052 E121.08526
G1 X42.284 Y62.546 E121.33831
G1 X42.241 Y68.956 E121.80226
G1 X42.55 Y76.557 E122.35285
G1 X42.851 Y80.338 E122.62737
G1 X43.276 Y84.274 E122.9139
G1 X43.844 Y88.348 E123.21162
G1 X44.424 Y91.788 E123.46411
G1 X45.219 Y95.804 E123.76042
G1 X46.195 Y100.009 E124.07286
G1 X48.132 Y106.965 E124.59547
G1 X50.216 Y113.195 E125.07094
G1 X51.374 Y116.299 E125.31072
G1 X53.596 Y121.775 E125.73844
G1 X55.36 Y125.73 E126.05187
G1 X57.713 Y130.65 E126.44659
G1 X61.122 Y137.087 E126.97378
G1 X64.877 Y143.418 E127.50653
G1 X68.144 Y148.351 E127.93477
G1 X71.136 Y152.499 E128.30494
G1 X73.539 Y155.559 E128.58654
G1 X76.64 Y159.204 E128.93291
G1 X80.036 Y162.845 E129.29327
G1 X83.407 Y166.155 E129.63521
G1 X87.09 Y169.456 E129.99317
G1 X91.113 Y172.732 E130.36867
G1 X93.839 Y174.783 E130.61558
G1 X98.429 Y177.95 E131.0192
G1 X101.463 Y179.874 E131.27922
G1 X106.548 Y182.804 E131.70398
G1 X113.302 Y186.218 E132.25172
G1 X118.968 Y188.691 E132.69917
G1 X123.072 Y190.269 E133.01741
G1 X130.081 Y192.654 E133.55327
G1 X135.487 Y194.205 E133.96033
G1 X140.908 Y195.542 E134.36444
G1 X146.323 Y196.679 E134.76491
G1 X152.11 Y197.699 E135.19021
G1 X157.91 Y198.53 E135.61428
G1 X163.756 Y199.191 E136.04009
G1 X169.406 Y199.676 E136.45052
G1 X174.839 Y200.011 E136.84449
G1 X184.63 Y200.315 E137.55348
G1 X192.316 Y196.909 E138.16194
G1 X199.682 Y193.337 E138.75445
G1 X206.938 Y189.515 E139.34802
G1 X214.474 Y185.24 E139.9751
G1 X214.947 Y185.225 E140.00935
G1 X215.939 Y185.622 E140.08668
G1 X216.31 Y186.028 E140.12649
G1 X217.562 Y190.2 E140.44175
G1 X217.543 Y190.612 E140.4716
G1 X217.249 Y191.34 E140.52843
G1 X217.022 Y191.613 E140.55413
G1 X208.357 Y196.491 E141.27383
G1 X199.861 Y200.852 E141.96502
G1 X191.248 Y204.873 E142.65299
G1 X182.464 Y208.579 E143.34302
G1 X175.784 Y211.113 E143.86012
G1 X173.51 Y211.967 E144.03593
G1 X164.473 Y215.002 E144.7259
G1 X154.853 Y217.838 E145.45179
G1 X154.299 Y217.741 E145.4925
G1 X153.363 Y217.031 E145.57753
G1 X153.156 Y216.593 E145.61259
G1 X153.124 Y214.819 E145.74101
G1 X147.358 Y216.323 E146.1723
G1 X139.237 Y218.156 E146.77486
G1 X130.988 Y219.731 E147.38268
G1 X122.119 Y221.116 E148.03237
G1 X121.58 Y220.945 E148.0733
G1 X120.788 Y220.179 E148.15305
G1 X120.6 Y219.647 E148.19389
G1 X120.771 Y218.294 E148.2926
G1 X121.049 Y217.733 E148.33792
G1 X123.068 Y216.101 E148.52582
G1 X123.467 Y215.904 E148.55803
G1 X132.269 Y214.439 E149.20386
G1 X140.46 Y212.798 E149.80848
G1 X148.645 Y210.866 E150.41717
G1 X156.756 Y208.656 E151.02562
G1 X163.156 Y206.676 E151.51049
G1 X163.106 Y206.115 E151.55125
G1 X157.447 Y205.427 E151.96385
G1 X152.482 Y204.703 E152.327
G1 X147.554 Y203.859 E152.68887
G1 X142.633 Y202.881 E153.052
G1 X137.184 Y201.625 E153.45672
G1 X132.386 Y200.366 E153.81574
G1 X127.665 Y198.97 E154.17206
G1 X122.987 Y197.419 E154.52876
G1 X117.85 Y195.509 E154.92543
G1 X113.363 Y193.652 E155.2769
G1 X108.945 Y191.632 E155.6285
G1 X104.092 Y189.179 E156.02207
G1 X99.852 Y186.819 E156.37328
G1 X95.176 Y183.955 E156.77015
G1 X91.221 Y181.305 E157.11472
G1 X87.454 Y178.561 E157.45203
G1 X83.499 Y175.429 E157.81717
G1 X80.226 Y172.619 E158.12939
G1 X77.173 Y169.798 E158.43025
G1 X74.304 Y166.952 E158.72274
G1 X71.263 Y163.715 E159.04419
G1 X69.225 Y161.387 E159.26813
G1 X66.569 Y158.181 E159.56946
G1 X64.436 Y155.423 E159.82181
G1 X60.678 Y150.133 E160.29146
G1 X57.65 Y145.417 E160.69709
G1 X54.376 Y139.809 E161.16709
G1 X51.266 Y133.912 E161.64962
G1 X48.365 Y127.813 E162.13844
G1 X45.697 Y121.555 E162.63082
G1 X43.281 Y115.167 E163.12513
G1 X41.141 Y108.674 E163.61994
G1 X39.487 Y102.814 E164.06064
G1 X37.819 Y95.577 E164.59817
G1 X36.721 Y89.433 E165.0499
G1 X35.909 Y83.319 E165.4963
G1 X35.367 Y77.29 E165.93442
G1 X35.074 Y71.331 E166.36624
G1 X35.012 Y65.514 E166.78728
G1 X35.24 Y58.152 E167.32038
G1 X35.493 Y54.243 E167.60389
G1 X36.075 Y48.081 E168.05186
G1 X36.646 Y43.717 E168.37041
G1 X33.165 Y41.097 E168.68574
G1 X28.945 Y37.481 E169.08796
G1 X24.539 Y33.189 E169.53315
G1 X24.35 Y32.735 E169.56874
G1 X24.356 Y31.788 E169.63728
G1 X24.551 Y31.337 E169.67284
G1 X27.162 Y28.858 E169.93343
G1 X27.641 Y29.363 F9600
G1 F1800
G1 X51.655 Y6.554 E172.33055
G1 X52.469 Y6.504 E172.38958
G1 X55.877 Y9.669 E172.72621
G1 X59.109 Y12.253 E173.02571
G1 X62.873 Y14.775 E173.35364
G1 X63.1 Y15.558 E173.41264
G1 X44.322 Y47.127 E176.07117
G1 X43.506 Y47.382 E176.13305
G1 X42.778 Y46.994 E176.19276
G1 X42.115 Y53.066 E176.63485
G1 X41.715 Y59.013 E177.06625
G1 X41.588 Y62.532 E177.32111
G1 X41.531 Y67.633 E177.69033
G1 X41.64 Y72.542 E178.04572
G1 X41.855 Y76.603 E178.34006
G1 X42.157 Y80.404 E178.61603
G1 X42.585 Y84.36 E178.90402
G1 X43.155 Y88.454 E179.20319
G1 X43.739 Y91.914 E179.45716
G1 X44.538 Y95.95 E179.75494
G1 X45.519 Y100.176 E180.06894
G1 X47.465 Y107.168 E180.59424
G1 X49.559 Y113.426 E181.07186
G1 X50.724 Y116.549 E181.31311
G1 X52.955 Y122.047 E181.74255
G1 X54.729 Y126.024 E182.05773
G1 X57.09 Y130.962 E182.45388
G1 X60.516 Y137.429 E182.98357
G1 X64.285 Y143.785 E183.5184
G1 X67.57 Y148.745 E183.94899
G1 X70.581 Y152.92 E184.32155
G1 X73 Y156 E184.60501
G1 X76.119 Y159.665 E184.95333
G1 X79.538 Y163.332 E185.3162
G1 X82.93 Y166.661 E185.66018
G1 X86.638 Y169.985 E186.0206
G1 X90.688 Y173.283 E186.39862
G1 X93.429 Y175.346 E186.64692
G1 X98.049 Y178.534 E187.05319
G1 X101.104 Y180.47 E187.31496
G1 X106.205 Y183.411 E187.74112
G1 X113.01 Y186.85 E188.29297
